(G-CODE GENERATED BY FLATCAM v8.991 - www.flatcam.org - Version Date: 2019/12/27)

(Name: cargador.v2)
(Type: G-code from Geometry)
(Units: MM)

(Created on Tuesday, 29 October 2024 at 23:42)

(TOOL DIAMETER: 0.11 mm)
(Feedrate: 45.0 mm/min)
(Feedrate_Z: 25.0 mm/min)
(Feedrate rapids 1500.0 mm/min)

(Z_Cut: -0.0187 mm)
(Z_Move: 2.0 mm)
(Z Toolchange: 15.0 mm)
(X,Y Toolchange: 0.0000, 0.0000 mm)
(Z Start: None mm)
(Z End: 15.0 mm)
(Steps per circle: 64)
(Preprocessor Geometry: default)

(X range:    1.2567 ...   74.6433  mm)
(Y range:    1.1567 ...   49.6433  mm)

(Spindle Speed: None RPM)
G21
G90
G94




G01 F45.00
G00 Z2.0000

M03
G00 X11.9463 Y15.5072
G01 F25.00
G01 Z-0.0187
G01 F45.00
G01 X11.8866 Y15.5511
G01 X11.7263 Y15.6472
G01 X11.7215 Y15.6498
G01 X11.5525 Y15.7297
G01 X11.5475 Y15.7318
G01 X11.3715 Y15.7948
G01 X11.3664 Y15.7963
G01 X11.1850 Y15.8417
G01 X11.1797 Y15.8428
G01 X10.9948 Y15.8702
G01 X10.9894 Y15.8708
G01 X10.8027 Y15.8799
G01 X10.7973 Y15.8799
G01 X10.6106 Y15.8708
G01 X10.6052 Y15.8702
G01 X10.4203 Y15.8428
G01 X10.4150 Y15.8417
G01 X10.2336 Y15.7963
G01 X10.2285 Y15.7948
G01 X10.0525 Y15.7318
G01 X10.0475 Y15.7297
G01 X9.8785 Y15.6498
G01 X9.8737 Y15.6472
G01 X9.7134 Y15.5511
G01 X9.7089 Y15.5481
G01 X9.5587 Y15.4368
G01 X9.5545 Y15.4333
G01 X9.4160 Y15.3078
G01 X9.4122 Y15.3040
G01 X9.2867 Y15.1655
G01 X9.2832 Y15.1613
G01 X9.1719 Y15.0111
G01 X9.1689 Y15.0066
G01 X9.0728 Y14.8463
G01 X9.0702 Y14.8415
G01 X8.9903 Y14.6725
G01 X8.9882 Y14.6675
G01 X8.9252 Y14.4915
G01 X8.9237 Y14.4864
G01 X8.8783 Y14.3050
G01 X8.8772 Y14.2997
G01 X8.8498 Y14.1148
G01 X8.8492 Y14.1094
G01 X8.8401 Y13.9227
G01 X8.8401 Y13.9173
G01 X8.8492 Y13.7306
G01 X8.8498 Y13.7252
G01 X8.8772 Y13.5403
G01 X8.8783 Y13.5350
G01 X8.9237 Y13.3536
G01 X8.9252 Y13.3485
G01 X8.9882 Y13.1725
G01 X8.9903 Y13.1675
G01 X9.0702 Y12.9985
G01 X9.0728 Y12.9937
G01 X9.1689 Y12.8334
G01 X9.1719 Y12.8289
G01 X9.2832 Y12.6787
G01 X9.2867 Y12.6745
G01 X9.4122 Y12.5360
G01 X9.4160 Y12.5322
G01 X9.5545 Y12.4067
G01 X9.5587 Y12.4032
G01 X9.7089 Y12.2919
G01 X9.7134 Y12.2889
G01 X9.8737 Y12.1928
G01 X9.8785 Y12.1902
G01 X10.0475 Y12.1103
G01 X10.0525 Y12.1082
G01 X10.2285 Y12.0452
G01 X10.2336 Y12.0437
G01 X10.4150 Y11.9983
G01 X10.4203 Y11.9972
G01 X10.6052 Y11.9698
G01 X10.6106 Y11.9692
G01 X10.7973 Y11.9601
G01 X10.8027 Y11.9601
G01 X10.9894 Y11.9692
G01 X10.9948 Y11.9698
G01 X11.1797 Y11.9972
G01 X11.1850 Y11.9983
G01 X11.3664 Y12.0437
G01 X11.3715 Y12.0452
G01 X11.5475 Y12.1082
G01 X11.5525 Y12.1103
G01 X11.7215 Y12.1902
G01 X11.7263 Y12.1928
G01 X11.8866 Y12.2889
G01 X11.8911 Y12.2919
G01 X12.0413 Y12.4032
G01 X12.0455 Y12.4067
G01 X12.1840 Y12.5322
G01 X12.1878 Y12.5360
G01 X12.3133 Y12.6745
G01 X12.3168 Y12.6787
G01 X12.4281 Y12.8289
G01 X12.4311 Y12.8334
G01 X12.5272 Y12.9937
G01 X12.5298 Y12.9985
G01 X12.6097 Y13.1675
G01 X12.6118 Y13.1725
G01 X12.6748 Y13.3485
G01 X12.6763 Y13.3536
G01 X12.7217 Y13.5350
G01 X12.7228 Y13.5403
G01 X12.7502 Y13.7252
G01 X12.7508 Y13.7306
G01 X12.7599 Y13.9173
G01 X12.7599 Y13.9227
G01 X12.7508 Y14.1094
G01 X12.7480 Y14.1297
G01 X19.6097 Y14.1297
G01 X19.6097 Y8.6000
G01 X19.6133 Y8.5297
G01 X19.6235 Y8.4627
G01 X19.6403 Y8.3970
G01 X19.6613 Y8.3383
G01 X19.6850 Y8.2875
G01 X19.6850 Y8.0400
G01 X19.6853 Y8.0346
G01 X19.6861 Y8.0293
G01 X19.6874 Y8.0240
G01 X19.6892 Y8.0190
G01 X19.6915 Y8.0141
G01 X19.6943 Y8.0094
G01 X19.6975 Y8.0051
G01 X19.7011 Y8.0011
G01 X19.7051 Y7.9975
G01 X19.7094 Y7.9943
G01 X19.7141 Y7.9915
G01 X19.7190 Y7.9892
G01 X19.7240 Y7.9874
G01 X19.7293 Y7.9861
G01 X19.7346 Y7.9853
G01 X19.7400 Y7.9850
G01 X19.9875 Y7.9850
G01 X20.0383 Y7.9613
G01 X20.0970 Y7.9403
G01 X20.1627 Y7.9235
G01 X20.2297 Y7.9133
G01 X20.2973 Y7.9097
G01 X20.3650 Y7.9128
G01 X20.3703 Y7.9133
G01 X20.4373 Y7.9235
G01 X20.5030 Y7.9403
G01 X20.5617 Y7.9613
G01 X20.6125 Y7.9850
G01 X20.8600 Y7.9850
G01 X20.8654 Y7.9853
G01 X20.8707 Y7.9861
G01 X20.8760 Y7.9874
G01 X20.8810 Y7.9892
G01 X20.8859 Y7.9915
G01 X20.8906 Y7.9943
G01 X20.8949 Y7.9975
G01 X20.8989 Y8.0011
G01 X20.9025 Y8.0051
G01 X20.9057 Y8.0094
G01 X20.9085 Y8.0141
G01 X20.9108 Y8.0190
G01 X20.9126 Y8.0240
G01 X20.9139 Y8.0293
G01 X20.9147 Y8.0346
G01 X20.9150 Y8.0400
G01 X20.9150 Y8.2875
G01 X20.9387 Y8.3383
G01 X20.9597 Y8.3970
G01 X20.9765 Y8.4627
G01 X20.9867 Y8.5297
G01 X20.9903 Y8.6000
G01 X20.9903 Y14.1297
G01 X21.0290 Y14.1297
G01 X21.0290 Y13.8040
G01 X21.0293 Y13.7986
G01 X21.0301 Y13.7933
G01 X21.0314 Y13.7880
G01 X21.0332 Y13.7830
G01 X21.0355 Y13.7781
G01 X21.0383 Y13.7734
G01 X21.0415 Y13.7691
G01 X21.0451 Y13.7651
G01 X21.0491 Y13.7615
G01 X21.0534 Y13.7583
G01 X21.0581 Y13.7555
G01 X21.0630 Y13.7532
G01 X21.0680 Y13.7514
G01 X21.0733 Y13.7501
G01 X21.0786 Y13.7493
G01 X21.0840 Y13.7490
G01 X23.1160 Y13.7490
G01 X23.1214 Y13.7493
G01 X23.1267 Y13.7501
G01 X23.1320 Y13.7514
G01 X23.1370 Y13.7532
G01 X23.1419 Y13.7555
G01 X23.1466 Y13.7583
G01 X23.1509 Y13.7615
G01 X23.1549 Y13.7651
G01 X23.1585 Y13.7691
G01 X23.1617 Y13.7734
G01 X23.1645 Y13.7781
G01 X23.1668 Y13.7830
G01 X23.1686 Y13.7880
G01 X23.1699 Y13.7933
G01 X23.1707 Y13.7986
G01 X23.1710 Y13.8040
G01 X23.1710 Y15.8360
G01 X23.1707 Y15.8414
G01 X23.1699 Y15.8467
G01 X23.1686 Y15.8520
G01 X23.1668 Y15.8570
G01 X23.1645 Y15.8619
G01 X23.1617 Y15.8666
G01 X23.1585 Y15.8709
G01 X23.1549 Y15.8749
G01 X23.1509 Y15.8785
G01 X23.1466 Y15.8817
G01 X23.1419 Y15.8845
G01 X23.1370 Y15.8868
G01 X23.1320 Y15.8886
G01 X23.1267 Y15.8899
G01 X23.1214 Y15.8907
G01 X23.1160 Y15.8910
G01 X21.0840 Y15.8910
G01 X21.0786 Y15.8907
G01 X21.0733 Y15.8899
G01 X21.0680 Y15.8886
G01 X21.0630 Y15.8868
G01 X21.0581 Y15.8845
G01 X21.0534 Y15.8817
G01 X21.0491 Y15.8785
G01 X21.0451 Y15.8749
G01 X21.0415 Y15.8709
G01 X21.0383 Y15.8666
G01 X21.0355 Y15.8619
G01 X21.0332 Y15.8570
G01 X21.0314 Y15.8520
G01 X21.0301 Y15.8467
G01 X21.0293 Y15.8414
G01 X21.0290 Y15.8360
G01 X21.0290 Y15.5103
G01 X12.0111 Y15.5103
G01 X11.9463 Y15.5072
G00 Z2.0000
G00 X9.7556 Y32.1036
G01 F25.00
G01 Z-0.0187
G01 F45.00
G01 X9.7556 Y26.4297
G01 X9.6770 Y26.3430
G01 X9.6736 Y26.3388
G01 X9.5993 Y26.2387
G01 X9.5963 Y26.2342
G01 X9.5322 Y26.1272
G01 X9.5297 Y26.1225
G01 X9.4764 Y26.0098
G01 X9.4743 Y26.0048
G01 X9.4323 Y25.8874
G01 X9.4307 Y25.8822
G01 X9.4004 Y25.7613
G01 X9.3994 Y25.7560
G01 X9.3811 Y25.6326
G01 X9.3805 Y25.6272
G01 X9.3744 Y25.5000
G01 X9.3744 Y20.3422
G01 X9.2867 Y20.2455
G01 X9.2832 Y20.2413
G01 X9.1719 Y20.0911
G01 X9.1689 Y20.0866
G01 X9.0728 Y19.9263
G01 X9.0702 Y19.9215
G01 X8.9903 Y19.7525
G01 X8.9882 Y19.7475
G01 X8.9252 Y19.5715
G01 X8.9237 Y19.5664
G01 X8.8783 Y19.3850
G01 X8.8772 Y19.3797
G01 X8.8498 Y19.1948
G01 X8.8492 Y19.1894
G01 X8.8401 Y19.0027
G01 X8.8401 Y18.9973
G01 X8.8492 Y18.8106
G01 X8.8498 Y18.8052
G01 X8.8772 Y18.6203
G01 X8.8783 Y18.6150
G01 X8.9237 Y18.4336
G01 X8.9252 Y18.4285
G01 X8.9882 Y18.2525
G01 X8.9903 Y18.2475
G01 X9.0702 Y18.0785
G01 X9.0728 Y18.0737
G01 X9.1689 Y17.9134
G01 X9.1719 Y17.9089
G01 X9.2832 Y17.7587
G01 X9.2867 Y17.7545
G01 X9.4122 Y17.6160
G01 X9.4160 Y17.6122
G01 X9.5545 Y17.4867
G01 X9.5587 Y17.4832
G01 X9.7089 Y17.3719
G01 X9.7134 Y17.3689
G01 X9.8737 Y17.2728
G01 X9.8785 Y17.2702
G01 X10.0475 Y17.1903
G01 X10.0525 Y17.1882
G01 X10.2285 Y17.1252
G01 X10.2336 Y17.1237
G01 X10.4150 Y17.0783
G01 X10.4203 Y17.0772
G01 X10.6052 Y17.0498
G01 X10.6106 Y17.0492
G01 X10.7973 Y17.0401
G01 X10.8027 Y17.0401
G01 X10.9894 Y17.0492
G01 X10.9948 Y17.0498
G01 X11.1797 Y17.0772
G01 X11.1850 Y17.0783
G01 X11.3664 Y17.1237
G01 X11.3715 Y17.1252
G01 X11.5475 Y17.1882
G01 X11.5525 Y17.1903
G01 X11.7215 Y17.2702
G01 X11.7263 Y17.2728
G01 X11.8866 Y17.3689
G01 X11.8911 Y17.3719
G01 X12.0413 Y17.4832
G01 X12.0455 Y17.4867
G01 X12.1840 Y17.6122
G01 X12.1878 Y17.6160
G01 X12.3133 Y17.7545
G01 X12.3168 Y17.7587
G01 X12.4281 Y17.9089
G01 X12.4311 Y17.9134
G01 X12.5272 Y18.0737
G01 X12.5298 Y18.0785
G01 X12.6097 Y18.2475
G01 X12.6118 Y18.2525
G01 X12.6748 Y18.4285
G01 X12.6763 Y18.4336
G01 X12.7217 Y18.6150
G01 X12.7228 Y18.6203
G01 X12.7502 Y18.8052
G01 X12.7508 Y18.8106
G01 X12.7599 Y18.9973
G01 X12.7599 Y19.0027
G01 X12.7508 Y19.1894
G01 X12.7502 Y19.1948
G01 X12.7228 Y19.3797
G01 X12.7217 Y19.3850
G01 X12.6763 Y19.5664
G01 X12.6748 Y19.5715
G01 X12.6118 Y19.7475
G01 X12.6097 Y19.7525
G01 X12.5298 Y19.9215
G01 X12.5272 Y19.9263
G01 X12.4311 Y20.0866
G01 X12.4281 Y20.0911
G01 X12.3168 Y20.2413
G01 X12.3133 Y20.2455
G01 X12.1878 Y20.3840
G01 X12.1840 Y20.3878
G01 X12.0455 Y20.5133
G01 X12.0256 Y20.5284
G01 X12.0256 Y24.9629
G01 X17.0097 Y24.9629
G01 X17.0097 Y18.8000
G01 X17.0128 Y18.7350
G01 X17.0225 Y18.6680
G01 X17.0387 Y18.6022
G01 X17.0613 Y18.5383
G01 X17.0900 Y18.4770
G01 X17.1246 Y18.4188
G01 X17.1276 Y18.4143
G01 X17.1681 Y18.3600
G01 X17.2119 Y18.3119
G01 X18.6519 Y16.8719
G01 X18.7042 Y16.8247
G01 X18.7588 Y16.7846
G01 X18.8170 Y16.7500
G01 X18.8783 Y16.7213
G01 X18.9422 Y16.6987
G01 X19.0080 Y16.6825
G01 X19.0750 Y16.6728
G01 X19.1400 Y16.6697
G01 X21.0290 Y16.6697
G01 X21.0290 Y16.3440
G01 X21.0293 Y16.3386
G01 X21.0301 Y16.3333
G01 X21.0314 Y16.3280
G01 X21.0332 Y16.3230
G01 X21.0355 Y16.3181
G01 X21.0383 Y16.3134
G01 X21.0415 Y16.3091
G01 X21.0451 Y16.3051
G01 X21.0491 Y16.3015
G01 X21.0534 Y16.2983
G01 X21.0581 Y16.2955
G01 X21.0630 Y16.2932
G01 X21.0680 Y16.2914
G01 X21.0733 Y16.2901
G01 X21.0786 Y16.2893
G01 X21.0840 Y16.2890
G01 X23.1160 Y16.2890
G01 X23.1214 Y16.2893
G01 X23.1267 Y16.2901
G01 X23.1320 Y16.2914
G01 X23.1370 Y16.2932
G01 X23.1419 Y16.2955
G01 X23.1466 Y16.2983
G01 X23.1509 Y16.3015
G01 X23.1549 Y16.3051
G01 X23.1585 Y16.3091
G01 X23.1617 Y16.3134
G01 X23.1645 Y16.3181
G01 X23.1668 Y16.3230
G01 X23.1686 Y16.3280
G01 X23.1699 Y16.3333
G01 X23.1707 Y16.3386
G01 X23.1710 Y16.3440
G01 X23.1710 Y16.6324
G01 X23.8798 Y16.6324
G01 X25.1406 Y15.3716
G01 X25.1406 Y12.4168
G01 X21.8119 Y9.0881
G01 X21.7681 Y9.0400
G01 X21.7276 Y8.9857
G01 X21.6925 Y8.9278
G01 X21.6633 Y8.8666
G01 X21.6613 Y8.8617
G01 X21.6387 Y8.7978
G01 X21.6225 Y8.7320
G01 X21.6128 Y8.6650
G01 X21.6097 Y8.6027
G01 X21.6128 Y8.5350
G01 X21.6225 Y8.4680
G01 X21.6387 Y8.4022
G01 X21.6613 Y8.3383
G01 X21.6633 Y8.3334
G01 X21.6925 Y8.2722
G01 X21.7276 Y8.2143
G01 X21.7681 Y8.1600
G01 X21.8100 Y8.1138
G01 X21.8600 Y8.0681
G01 X21.9143 Y8.0276
G01 X21.9722 Y7.9925
G01 X22.0334 Y7.9633
G01 X22.0383 Y7.9613
G01 X22.1022 Y7.9387
G01 X22.1627 Y7.9235
G01 X22.2297 Y7.9133
G01 X22.2350 Y7.9128
G01 X22.3027 Y7.9097
G01 X22.3650 Y7.9128
G01 X22.4320 Y7.9225
G01 X22.4978 Y7.9387
G01 X22.5617 Y7.9613
G01 X22.5666 Y7.9633
G01 X22.6230 Y7.9900
G01 X22.6812 Y8.0246
G01 X22.6857 Y8.0276
G01 X22.7400 Y8.0681
G01 X22.7881 Y8.1119
G01 X26.3190 Y11.6428
G01 X26.3662 Y11.6951
G01 X26.4063 Y11.7496
G01 X26.4384 Y11.8031
G01 X26.4676 Y11.8642
G01 X26.4696 Y11.8692
G01 X26.4922 Y11.9331
G01 X26.5073 Y11.9936
G01 X26.5175 Y12.0605
G01 X26.5212 Y12.1309
G01 X26.5212 Y15.6576
G01 X26.5175 Y15.7279
G01 X26.5073 Y15.7949
G01 X26.4922 Y15.8553
G01 X26.4696 Y15.9192
G01 X26.4676 Y15.9242
G01 X26.4384 Y15.9853
G01 X26.4033 Y16.0433
G01 X26.3662 Y16.0934
G01 X26.3190 Y16.1457
G01 X24.6539 Y17.8108
G01 X24.6016 Y17.8580
G01 X24.5470 Y17.8981
G01 X24.4888 Y17.9327
G01 X24.4274 Y17.9614
G01 X24.3636 Y17.9840
G01 X24.2978 Y18.0002
G01 X24.2307 Y18.0099
G01 X24.1685 Y18.0129
G01 X23.1710 Y18.0130
G01 X23.1710 Y18.3760
G01 X23.1707 Y18.3814
G01 X23.1699 Y18.3867
G01 X23.1686 Y18.3920
G01 X23.1668 Y18.3970
G01 X23.1645 Y18.4019
G01 X23.1617 Y18.4066
G01 X23.1585 Y18.4109
G01 X23.1549 Y18.4149
G01 X23.1509 Y18.4185
G01 X23.1466 Y18.4217
G01 X23.1419 Y18.4245
G01 X23.1370 Y18.4268
G01 X23.1320 Y18.4286
G01 X23.1267 Y18.4299
G01 X23.1214 Y18.4307
G01 X23.1160 Y18.4310
G01 X21.0840 Y18.4310
G01 X21.0786 Y18.4307
G01 X21.0733 Y18.4299
G01 X21.0680 Y18.4286
G01 X21.0630 Y18.4268
G01 X21.0581 Y18.4245
G01 X21.0534 Y18.4217
G01 X21.0491 Y18.4185
G01 X21.0451 Y18.4149
G01 X21.0415 Y18.4109
G01 X21.0383 Y18.4066
G01 X21.0355 Y18.4019
G01 X21.0332 Y18.3970
G01 X21.0314 Y18.3920
G01 X21.0301 Y18.3867
G01 X21.0293 Y18.3814
G01 X21.0290 Y18.3760
G01 X21.0290 Y18.0503
G01 X19.4259 Y18.0503
G01 X18.3903 Y19.0859
G01 X18.3903 Y24.9629
G01 X19.4230 Y24.9629
G01 X19.4230 Y24.5348
G01 X19.4233 Y24.5294
G01 X19.4241 Y24.5241
G01 X19.4254 Y24.5188
G01 X19.4272 Y24.5138
G01 X19.4295 Y24.5089
G01 X19.4323 Y24.5042
G01 X19.4355 Y24.4999
G01 X19.4391 Y24.4959
G01 X19.7439 Y24.1911
G01 X19.7479 Y24.1875
G01 X19.7522 Y24.1843
G01 X19.7569 Y24.1815
G01 X19.7618 Y24.1792
G01 X19.7668 Y24.1774
G01 X19.7721 Y24.1761
G01 X19.7774 Y24.1753
G01 X19.7828 Y24.1750
G01 X20.6972 Y24.1750
G01 X20.7026 Y24.1753
G01 X20.7079 Y24.1761
G01 X20.7132 Y24.1774
G01 X20.7182 Y24.1792
G01 X20.7231 Y24.1815
G01 X20.7278 Y24.1843
G01 X20.7321 Y24.1875
G01 X20.7361 Y24.1911
G01 X21.0409 Y24.4959
G01 X21.0445 Y24.4999
G01 X21.0477 Y24.5042
G01 X21.0505 Y24.5089
G01 X21.0528 Y24.5138
G01 X21.0546 Y24.5188
G01 X21.0559 Y24.5241
G01 X21.0567 Y24.5294
G01 X21.0570 Y24.5348
G01 X21.0570 Y24.8097
G01 X24.1141 Y24.8097
G01 X29.7775 Y19.1463
G01 X29.8256 Y19.1025
G01 X29.8799 Y19.0620
G01 X29.8844 Y19.0590
G01 X29.9426 Y19.0244
G01 X29.9989 Y18.9977
G01 X30.0626 Y18.9747
G01 X30.1283 Y18.9579
G01 X30.1336 Y18.9569
G01 X30.2006 Y18.9472
G01 X30.2656 Y18.9441
G01 X30.8571 Y18.9441
G01 X30.8492 Y18.8894
G01 X30.8401 Y18.7027
G01 X30.8401 Y18.6973
G01 X30.8492 Y18.5106
G01 X30.8498 Y18.5052
G01 X30.8772 Y18.3203
G01 X30.8783 Y18.3150
G01 X30.9237 Y18.1336
G01 X30.9252 Y18.1285
G01 X30.9882 Y17.9525
G01 X30.9903 Y17.9475
G01 X31.0702 Y17.7785
G01 X31.0728 Y17.7737
G01 X31.1689 Y17.6134
G01 X31.1719 Y17.6089
G01 X31.2832 Y17.4587
G01 X31.2867 Y17.4545
G01 X31.4122 Y17.3160
G01 X31.4160 Y17.3122
G01 X31.5545 Y17.1867
G01 X31.5587 Y17.1832
G01 X31.7089 Y17.0719
G01 X31.7134 Y17.0689
G01 X31.8737 Y16.9728
G01 X31.8785 Y16.9702
G01 X32.0475 Y16.8903
G01 X32.0525 Y16.8882
G01 X32.2285 Y16.8252
G01 X32.2336 Y16.8237
G01 X32.4150 Y16.7783
G01 X32.4203 Y16.7772
G01 X32.6052 Y16.7498
G01 X32.6106 Y16.7492
G01 X32.7973 Y16.7401
G01 X32.8027 Y16.7401
G01 X32.9894 Y16.7492
G01 X32.9948 Y16.7498
G01 X33.1797 Y16.7772
G01 X33.1850 Y16.7783
G01 X33.3664 Y16.8237
G01 X33.3715 Y16.8252
G01 X33.5475 Y16.8882
G01 X33.5525 Y16.8903
G01 X33.7215 Y16.9702
G01 X33.7263 Y16.9728
G01 X33.8866 Y17.0689
G01 X33.8911 Y17.0719
G01 X34.0413 Y17.1832
G01 X34.0455 Y17.1867
G01 X34.1840 Y17.3122
G01 X34.1878 Y17.3160
G01 X34.3133 Y17.4545
G01 X34.3168 Y17.4587
G01 X34.4281 Y17.6089
G01 X34.4311 Y17.6134
G01 X34.5272 Y17.7737
G01 X34.5298 Y17.7785
G01 X34.5790 Y17.8826
G01 X37.9516 Y17.8826
G01 X38.0290 Y17.8864
G01 X38.1084 Y17.8979
G01 X38.1137 Y17.8989
G01 X38.1914 Y17.9187
G01 X38.2669 Y17.9459
G01 X38.3393 Y17.9805
G01 X38.4079 Y18.0219
G01 X38.4722 Y18.0699
G01 X38.5296 Y18.1220
G01 X40.2517 Y19.8443
G01 X40.3054 Y19.9039
G01 X40.3530 Y19.9685
G01 X40.3940 Y20.0374
G01 X40.4260 Y20.1050
G01 X40.4532 Y20.1805
G01 X40.4548 Y20.1856
G01 X40.4740 Y20.2635
G01 X40.4855 Y20.3429
G01 X40.4893 Y20.4203
G01 X40.4893 Y23.9333
G01 X43.3739 Y26.8180
G01 X46.6956 Y26.8180
G01 X50.1916 Y23.3220
G01 X50.2490 Y23.2699
G01 X50.2532 Y23.2665
G01 X50.3177 Y23.2189
G01 X50.3867 Y23.1779
G01 X50.4543 Y23.1459
G01 X50.5297 Y23.1187
G01 X50.5349 Y23.1171
G01 X50.6128 Y23.0979
G01 X50.6922 Y23.0864
G01 X50.7696 Y23.0826
G01 X55.2000 Y23.0826
G01 X55.2774 Y23.0864
G01 X55.2828 Y23.0869
G01 X55.3621 Y23.0989
G01 X55.4347 Y23.1171
G01 X55.5103 Y23.1439
G01 X55.5153 Y23.1459
G01 X55.5829 Y23.1779
G01 X55.6518 Y23.2189
G01 X55.7164 Y23.2665
G01 X55.7206 Y23.2699
G01 X55.7780 Y23.3220
G01 X56.3100 Y23.8540
G01 X56.3621 Y23.9114
G01 X56.3655 Y23.9156
G01 X56.4131 Y23.9802
G01 X56.4541 Y24.0491
G01 X56.4861 Y24.1167
G01 X56.5133 Y24.1922
G01 X56.5331 Y24.2699
G01 X56.5451 Y24.3492
G01 X56.5493 Y24.4293
G01 X56.5494 Y25.8614
G01 X59.0706 Y28.3826
G01 X65.4510 Y28.3826
G01 X67.9430 Y25.8906
G01 X68.1373 Y25.6249
G01 X68.1104 Y25.5935
G01 X68.0365 Y25.4888
G01 X67.9731 Y25.3775
G01 X67.9207 Y25.2606
G01 X67.8799 Y25.1392
G01 X67.8509 Y25.0144
G01 X67.8342 Y24.8873
G01 X67.8298 Y24.7593
G01 X67.8377 Y24.6314
G01 X67.8569 Y24.5101
G01 X67.8888 Y24.3860
G01 X67.8904 Y24.3809
G01 X67.9346 Y24.2607
G01 X67.9902 Y24.1453
G01 X68.0567 Y24.0358
G01 X68.1335 Y23.9332
G01 X68.2178 Y23.8403
G01 X68.4544 Y23.6038
G01 X68.4544 Y11.1407
G01 X68.3922 Y11.0840
G01 X68.2667 Y10.9455
G01 X68.2632 Y10.9413
G01 X68.1519 Y10.7911
G01 X68.1489 Y10.7866
G01 X68.0528 Y10.6263
G01 X68.0502 Y10.6215
G01 X67.9703 Y10.4525
G01 X67.9682 Y10.4475
G01 X67.9052 Y10.2715
G01 X67.9037 Y10.2664
G01 X67.8583 Y10.0850
G01 X67.8572 Y10.0797
G01 X67.8298 Y9.8948
G01 X67.8292 Y9.8894
G01 X67.8201 Y9.7027
G01 X67.8201 Y9.6973
G01 X67.8292 Y9.5106
G01 X67.8298 Y9.5052
G01 X67.8572 Y9.3203
G01 X67.8583 Y9.3150
G01 X67.9037 Y9.1336
G01 X67.9052 Y9.1285
G01 X67.9682 Y8.9525
G01 X67.9703 Y8.9475
G01 X68.0502 Y8.7785
G01 X68.0528 Y8.7737
G01 X68.1489 Y8.6134
G01 X68.1519 Y8.6089
G01 X68.2632 Y8.4587
G01 X68.2667 Y8.4545
G01 X68.3922 Y8.3160
G01 X68.3960 Y8.3122
G01 X68.5345 Y8.1867
G01 X68.5387 Y8.1832
G01 X68.6889 Y8.0719
G01 X68.6934 Y8.0689
G01 X68.8537 Y7.9728
G01 X68.8585 Y7.9702
G01 X69.0275 Y7.8903
G01 X69.0325 Y7.8882
G01 X69.2085 Y7.8252
G01 X69.2136 Y7.8237
G01 X69.3950 Y7.7783
G01 X69.4003 Y7.7772
G01 X69.5852 Y7.7498
G01 X69.5906 Y7.7492
G01 X69.7773 Y7.7401
G01 X69.7827 Y7.7401
G01 X69.9694 Y7.7492
G01 X69.9748 Y7.7498
G01 X70.1597 Y7.7772
G01 X70.1650 Y7.7783
G01 X70.3464 Y7.8237
G01 X70.3515 Y7.8252
G01 X70.5275 Y7.8882
G01 X70.5325 Y7.8903
G01 X70.7015 Y7.9702
G01 X70.7063 Y7.9728
G01 X70.8666 Y8.0689
G01 X70.8711 Y8.0719
G01 X71.0213 Y8.1832
G01 X71.0255 Y8.1867
G01 X71.1640 Y8.3122
G01 X71.1678 Y8.3160
G01 X71.2933 Y8.4545
G01 X71.2968 Y8.4587
G01 X71.4081 Y8.6089
G01 X71.4111 Y8.6134
G01 X71.5072 Y8.7737
G01 X71.5098 Y8.7785
G01 X71.5897 Y8.9475
G01 X71.5918 Y8.9525
G01 X71.6548 Y9.1285
G01 X71.6563 Y9.1336
G01 X71.7017 Y9.3150
G01 X71.7028 Y9.3203
G01 X71.7302 Y9.5052
G01 X71.7308 Y9.5106
G01 X71.7399 Y9.6973
G01 X71.7399 Y9.7027
G01 X71.7308 Y9.8894
G01 X71.7302 Y9.8948
G01 X71.7028 Y10.0797
G01 X71.7017 Y10.0850
G01 X71.6563 Y10.2664
G01 X71.6548 Y10.2715
G01 X71.5918 Y10.4475
G01 X71.5897 Y10.4525
G01 X71.5098 Y10.6215
G01 X71.5072 Y10.6263
G01 X71.4111 Y10.7866
G01 X71.4081 Y10.7911
G01 X71.2968 Y10.9413
G01 X71.2933 Y10.9455
G01 X71.1678 Y11.0840
G01 X71.1056 Y11.1407
G01 X71.1056 Y24.1529
G01 X71.1025 Y24.2188
G01 X71.1398 Y24.2983
G01 X71.1902 Y24.4391
G01 X71.1917 Y24.4442
G01 X71.2281 Y24.5893
G01 X71.2291 Y24.5946
G01 X71.2511 Y24.7426
G01 X71.2516 Y24.7479
G01 X71.2589 Y24.8973
G01 X71.2589 Y24.9027
G01 X71.2516 Y25.0521
G01 X71.2511 Y25.0574
G01 X71.2291 Y25.2054
G01 X71.2281 Y25.2107
G01 X71.1917 Y25.3558
G01 X71.1902 Y25.3609
G01 X71.1398 Y25.5017
G01 X71.1377 Y25.5067
G01 X71.0738 Y25.6419
G01 X71.0712 Y25.6467
G01 X70.9943 Y25.7750
G01 X70.9913 Y25.7795
G01 X70.9022 Y25.8996
G01 X70.8988 Y25.9038
G01 X70.7984 Y26.0146
G01 X70.7946 Y26.0184
G01 X70.6838 Y26.1188
G01 X70.6796 Y26.1222
G01 X70.5595 Y26.2113
G01 X70.5550 Y26.2143
G01 X70.4267 Y26.2912
G01 X70.4219 Y26.2938
G01 X70.2867 Y26.3577
G01 X70.2817 Y26.3598
G01 X70.1409 Y26.4102
G01 X70.1358 Y26.4117
G01 X69.9907 Y26.4481
G01 X69.9854 Y26.4491
G01 X69.8374 Y26.4711
G01 X69.8321 Y26.4716
G01 X69.6827 Y26.4789
G01 X69.6773 Y26.4789
G01 X69.5428 Y26.4723
G01 X69.2254 Y26.9065
G01 X69.1876 Y26.9542
G01 X69.1450 Y27.0004
G01 X66.3675 Y29.7780
G01 X66.3101 Y29.8301
G01 X66.2459 Y29.8781
G01 X66.2414 Y29.8811
G01 X66.1725 Y29.9221
G01 X66.1048 Y29.9541
G01 X66.0294 Y29.9813
G01 X66.0242 Y29.9829
G01 X65.9464 Y30.0021
G01 X65.8670 Y30.0136
G01 X65.7896 Y30.0174
G01 X58.7320 Y30.0174
G01 X58.6546 Y30.0136
G01 X58.5752 Y30.0021
G01 X58.4973 Y29.9829
G01 X58.4217 Y29.9561
G01 X58.4167 Y29.9541
G01 X58.3491 Y29.9221
G01 X58.2802 Y29.8811
G01 X58.2156 Y29.8335
G01 X58.2114 Y29.8301
G01 X58.1540 Y29.7780
G01 X56.5494 Y28.1733
G01 X56.5494 Y31.1934
G01 X60.0780 Y34.7220
G01 X60.1301 Y34.7794
G01 X60.1335 Y34.7836
G01 X60.1811 Y34.8482
G01 X60.2195 Y34.9123
G01 X60.2541 Y34.9847
G01 X60.2561 Y34.9897
G01 X60.2829 Y35.0653
G01 X60.3011 Y35.1379
G01 X60.3131 Y35.2172
G01 X60.3136 Y35.2226
G01 X60.3174 Y35.3000
G01 X60.3174 Y38.3613
G01 X60.3438 Y38.3812
G01 X60.4546 Y38.4816
G01 X60.4584 Y38.4854
G01 X60.5588 Y38.5962
G01 X60.5622 Y38.6004
G01 X60.6513 Y38.7205
G01 X60.6543 Y38.7250
G01 X60.7312 Y38.8533
G01 X60.7338 Y38.8581
G01 X60.7977 Y38.9933
G01 X60.7998 Y38.9983
G01 X60.8502 Y39.1391
G01 X60.8517 Y39.1442
G01 X60.8881 Y39.2893
G01 X60.8891 Y39.2946
G01 X60.9111 Y39.4426
G01 X60.9116 Y39.4479
G01 X60.9189 Y39.5973
G01 X60.9189 Y39.6027
G01 X60.9116 Y39.7521
G01 X60.9111 Y39.7574
G01 X60.8891 Y39.9054
G01 X60.8881 Y39.9107
G01 X60.8517 Y40.0558
G01 X60.8502 Y40.0609
G01 X60.7998 Y40.2017
G01 X60.7977 Y40.2067
G01 X60.7338 Y40.3419
G01 X60.7312 Y40.3467
G01 X60.6543 Y40.4750
G01 X60.6513 Y40.4795
G01 X60.5622 Y40.5996
G01 X60.5588 Y40.6038
G01 X60.4584 Y40.7146
G01 X60.4546 Y40.7184
G01 X60.3438 Y40.8188
G01 X60.3396 Y40.8222
G01 X60.2195 Y40.9113
G01 X60.2150 Y40.9143
G01 X60.0867 Y40.9912
G01 X60.0819 Y40.9938
G01 X59.9467 Y41.0577
G01 X59.9417 Y41.0598
G01 X59.8009 Y41.1102
G01 X59.7958 Y41.1117
G01 X59.6507 Y41.1481
G01 X59.6454 Y41.1491
G01 X59.4974 Y41.1711
G01 X59.4921 Y41.1716
G01 X59.3427 Y41.1789
G01 X59.3373 Y41.1789
G01 X59.1879 Y41.1716
G01 X59.1826 Y41.1711
G01 X59.0346 Y41.1491
G01 X59.0293 Y41.1481
G01 X58.8842 Y41.1117
G01 X58.8791 Y41.1102
G01 X58.7383 Y41.0598
G01 X58.7333 Y41.0577
G01 X58.5981 Y40.9938
G01 X58.5933 Y40.9912
G01 X58.4650 Y40.9143
G01 X58.4605 Y40.9113
G01 X58.3404 Y40.8222
G01 X58.3362 Y40.8188
G01 X58.2254 Y40.7184
G01 X58.2216 Y40.7146
G01 X58.1212 Y40.6038
G01 X58.1178 Y40.5996
G01 X58.0287 Y40.4795
G01 X58.0257 Y40.4750
G01 X57.9488 Y40.3467
G01 X57.9462 Y40.3419
G01 X57.8823 Y40.2067
G01 X57.8802 Y40.2017
G01 X57.8298 Y40.0609
G01 X57.8283 Y40.0558
G01 X57.7919 Y39.9107
G01 X57.7909 Y39.9054
G01 X57.7689 Y39.7574
G01 X57.7684 Y39.7521
G01 X57.7611 Y39.6027
G01 X57.7611 Y39.5973
G01 X57.7684 Y39.4479
G01 X57.7689 Y39.4426
G01 X57.7909 Y39.2946
G01 X57.7919 Y39.2893
G01 X57.8283 Y39.1442
G01 X57.8298 Y39.1391
G01 X57.8802 Y38.9983
G01 X57.8823 Y38.9933
G01 X57.9462 Y38.8581
G01 X57.9488 Y38.8533
G01 X58.0257 Y38.7250
G01 X58.0287 Y38.7205
G01 X58.1178 Y38.6004
G01 X58.1212 Y38.5962
G01 X58.2216 Y38.4854
G01 X58.2254 Y38.4816
G01 X58.3362 Y38.3812
G01 X58.3404 Y38.3778
G01 X58.4605 Y38.2887
G01 X58.4650 Y38.2857
G01 X58.5933 Y38.2088
G01 X58.5981 Y38.2062
G01 X58.6826 Y38.1662
G01 X58.6826 Y35.6386
G01 X55.1540 Y32.1100
G01 X55.1019 Y32.0526
G01 X55.0985 Y32.0484
G01 X55.0509 Y31.9838
G01 X55.0099 Y31.9149
G01 X54.9779 Y31.8473
G01 X54.9507 Y31.7718
G01 X54.9491 Y31.7667
G01 X54.9299 Y31.6888
G01 X54.9184 Y31.6094
G01 X54.9146 Y31.5320
G01 X54.9146 Y24.7706
G01 X54.8614 Y24.7174
G01 X51.1082 Y24.7174
G01 X47.6122 Y28.2133
G01 X47.5548 Y28.2655
G01 X47.5506 Y28.2689
G01 X47.4860 Y28.3164
G01 X47.4171 Y28.3574
G01 X47.3495 Y28.3894
G01 X47.2740 Y28.4167
G01 X47.2689 Y28.4183
G01 X47.1910 Y28.4375
G01 X47.1116 Y28.4490
G01 X47.0342 Y28.4528
G01 X43.0354 Y28.4528
G01 X42.9579 Y28.4490
G01 X42.9526 Y28.4485
G01 X42.8733 Y28.4365
G01 X42.8007 Y28.4183
G01 X42.7251 Y28.3915
G01 X42.7201 Y28.3894
G01 X42.6477 Y28.3549
G01 X42.5791 Y28.3134
G01 X42.5190 Y28.2689
G01 X42.5148 Y28.2655
G01 X42.4574 Y28.2133
G01 X39.0939 Y24.8499
G01 X39.0418 Y24.7925
G01 X39.0384 Y24.7883
G01 X38.9908 Y24.7237
G01 X38.9524 Y24.6595
G01 X38.9178 Y24.5872
G01 X38.9158 Y24.5822
G01 X38.8890 Y24.5066
G01 X38.8708 Y24.4340
G01 X38.8588 Y24.3547
G01 X38.8546 Y24.2746
G01 X38.8545 Y20.7589
G01 X37.6130 Y19.5174
G01 X34.5790 Y19.5174
G01 X34.5298 Y19.6215
G01 X34.5272 Y19.6263
G01 X34.4311 Y19.7866
G01 X34.4281 Y19.7911
G01 X34.3168 Y19.9413
G01 X34.3133 Y19.9455
G01 X34.1878 Y20.0840
G01 X34.1840 Y20.0878
G01 X34.0455 Y20.2133
G01 X34.0413 Y20.2168
G01 X33.8911 Y20.3281
G01 X33.8866 Y20.3311
G01 X33.7263 Y20.4272
G01 X33.7215 Y20.4298
G01 X33.5525 Y20.5097
G01 X33.5475 Y20.5118
G01 X33.3715 Y20.5748
G01 X33.3664 Y20.5763
G01 X33.1850 Y20.6217
G01 X33.1797 Y20.6228
G01 X32.9948 Y20.6502
G01 X32.9894 Y20.6508
G01 X32.8027 Y20.6599
G01 X32.7973 Y20.6599
G01 X32.6106 Y20.6508
G01 X32.6052 Y20.6502
G01 X32.4203 Y20.6228
G01 X32.4150 Y20.6217
G01 X32.2336 Y20.5763
G01 X32.2285 Y20.5748
G01 X32.0525 Y20.5118
G01 X32.0475 Y20.5097
G01 X31.8785 Y20.4298
G01 X31.8737 Y20.4272
G01 X31.7134 Y20.3311
G01 X31.7043 Y20.3247
G01 X30.5515 Y20.3247
G01 X24.8881 Y25.9881
G01 X24.8358 Y26.0353
G01 X24.7812 Y26.0754
G01 X24.7278 Y26.1075
G01 X24.6666 Y26.1367
G01 X24.6616 Y26.1387
G01 X24.5978 Y26.1613
G01 X24.5373 Y26.1765
G01 X24.4703 Y26.1867
G01 X24.4000 Y26.1903
G01 X21.0570 Y26.1903
G01 X21.0570 Y26.4652
G01 X21.0567 Y26.4706
G01 X21.0559 Y26.4759
G01 X21.0546 Y26.4812
G01 X21.0528 Y26.4862
G01 X21.0505 Y26.4911
G01 X21.0477 Y26.4958
G01 X21.0445 Y26.5001
G01 X21.0409 Y26.5041
G01 X20.7361 Y26.8089
G01 X20.7321 Y26.8125
G01 X20.7278 Y26.8157
G01 X20.7231 Y26.8185
G01 X20.7182 Y26.8208
G01 X20.7132 Y26.8226
G01 X20.7079 Y26.8239
G01 X20.7026 Y26.8247
G01 X20.6972 Y26.8250
G01 X19.7828 Y26.8250
G01 X19.7774 Y26.8247
G01 X19.7721 Y26.8239
G01 X19.7668 Y26.8226
G01 X19.7618 Y26.8208
G01 X19.7569 Y26.8185
G01 X19.7522 Y26.8157
G01 X19.7479 Y26.8125
G01 X19.7439 Y26.8089
G01 X19.4391 Y26.5041
G01 X19.4355 Y26.5001
G01 X19.4323 Y26.4958
G01 X19.4295 Y26.4911
G01 X19.4272 Y26.4862
G01 X19.4254 Y26.4812
G01 X19.4241 Y26.4759
G01 X19.4233 Y26.4706
G01 X19.4230 Y26.4652
G01 X19.4230 Y26.3435
G01 X17.4803 Y26.3435
G01 X17.4291 Y26.3509
G01 X17.3614 Y26.3539
G01 X17.2991 Y26.3509
G01 X17.2479 Y26.3435
G01 X11.7225 Y26.3435
G01 X11.6444 Y26.4297
G01 X11.6444 Y32.1036
G01 X11.7866 Y32.1889
G01 X11.7911 Y32.1919
G01 X11.9413 Y32.3032
G01 X11.9455 Y32.3067
G01 X12.0840 Y32.4322
G01 X12.0878 Y32.4360
G01 X12.2133 Y32.5745
G01 X12.2168 Y32.5787
G01 X12.3281 Y32.7289
G01 X12.3311 Y32.7334
G01 X12.4272 Y32.8937
G01 X12.4298 Y32.8985
G01 X12.5097 Y33.0675
G01 X12.5118 Y33.0725
G01 X12.5748 Y33.2485
G01 X12.5763 Y33.2536
G01 X12.6217 Y33.4350
G01 X12.6228 Y33.4403
G01 X12.6502 Y33.6252
G01 X12.6508 Y33.6306
G01 X12.6599 Y33.8173
G01 X12.6599 Y33.8227
G01 X12.6508 Y34.0094
G01 X12.6502 Y34.0148
G01 X12.6228 Y34.1997
G01 X12.6217 Y34.2050
G01 X12.5763 Y34.3864
G01 X12.5748 Y34.3915
G01 X12.5118 Y34.5675
G01 X12.5097 Y34.5725
G01 X12.4298 Y34.7415
G01 X12.4272 Y34.7463
G01 X12.3311 Y34.9066
G01 X12.3281 Y34.9111
G01 X12.2168 Y35.0613
G01 X12.2133 Y35.0655
G01 X12.0878 Y35.2040
G01 X12.0840 Y35.2078
G01 X11.9455 Y35.3333
G01 X11.9413 Y35.3368
G01 X11.7911 Y35.4481
G01 X11.7866 Y35.4511
G01 X11.6263 Y35.5472
G01 X11.6215 Y35.5498
G01 X11.4525 Y35.6297
G01 X11.4475 Y35.6318
G01 X11.2715 Y35.6948
G01 X11.2664 Y35.6963
G01 X11.0850 Y35.7417
G01 X11.0797 Y35.7428
G01 X10.8948 Y35.7702
G01 X10.8894 Y35.7708
G01 X10.7027 Y35.7799
G01 X10.6973 Y35.7799
G01 X10.5106 Y35.7708
G01 X10.5052 Y35.7702
G01 X10.3203 Y35.7428
G01 X10.3150 Y35.7417
G01 X10.1336 Y35.6963
G01 X10.1285 Y35.6948
G01 X9.9525 Y35.6318
G01 X9.9475 Y35.6297
G01 X9.7785 Y35.5498
G01 X9.7737 Y35.5472
G01 X9.6134 Y35.4511
G01 X9.6089 Y35.4481
G01 X9.4587 Y35.3368
G01 X9.4545 Y35.3333
G01 X9.3160 Y35.2078
G01 X9.3122 Y35.2040
G01 X9.1867 Y35.0655
G01 X9.1832 Y35.0613
G01 X9.0719 Y34.9111
G01 X9.0689 Y34.9066
G01 X8.9728 Y34.7463
G01 X8.9702 Y34.7415
G01 X8.8903 Y34.5725
G01 X8.8882 Y34.5675
G01 X8.8252 Y34.3915
G01 X8.8237 Y34.3864
G01 X8.7783 Y34.2050
G01 X8.7772 Y34.1997
G01 X8.7498 Y34.0148
G01 X8.7492 Y34.0094
G01 X8.7401 Y33.8227
G01 X8.7401 Y33.8173
G01 X8.7492 Y33.6306
G01 X8.7498 Y33.6252
G01 X8.7772 Y33.4403
G01 X8.7783 Y33.4350
G01 X8.8237 Y33.2536
G01 X8.8252 Y33.2485
G01 X8.8882 Y33.0725
G01 X8.8903 Y33.0675
G01 X8.9702 Y32.8985
G01 X8.9728 Y32.8937
G01 X9.0689 Y32.7334
G01 X9.0719 Y32.7289
G01 X9.1832 Y32.5787
G01 X9.1867 Y32.5745
G01 X9.3122 Y32.4360
G01 X9.3160 Y32.4322
G01 X9.4545 Y32.3067
G01 X9.4587 Y32.3032
G01 X9.6089 Y32.1919
G01 X9.6134 Y32.1889
G01 X9.7556 Y32.1036
G00 Z2.0000
G00 X7.8505 Y40.0544
G01 F25.00
G01 Z-0.0187
G01 F45.00
G01 X7.7658 Y40.0037
G01 X7.7613 Y40.0007
G01 X7.6612 Y39.9264
G01 X7.6570 Y39.9230
G01 X7.5626 Y39.8374
G01 X4.7942 Y37.0690
G01 X4.7086 Y36.9746
G01 X4.7052 Y36.9704
G01 X4.6309 Y36.8703
G01 X4.6279 Y36.8658
G01 X4.5638 Y36.7588
G01 X4.5613 Y36.7541
G01 X4.5080 Y36.6414
G01 X4.5059 Y36.6364
G01 X4.4639 Y36.5190
G01 X4.4623 Y36.5138
G01 X4.4320 Y36.3929
G01 X4.4310 Y36.3876
G01 X4.4127 Y36.2642
G01 X4.4121 Y36.2588
G01 X4.4060 Y36.1343
G01 X4.4060 Y5.1803
G01 X4.4121 Y5.0530
G01 X4.4127 Y5.0477
G01 X4.4310 Y4.9243
G01 X4.4320 Y4.9190
G01 X4.4623 Y4.7981
G01 X4.4639 Y4.7929
G01 X4.5059 Y4.6755
G01 X4.5080 Y4.6705
G01 X4.5613 Y4.5578
G01 X4.5638 Y4.5530
G01 X4.6279 Y4.4461
G01 X4.6309 Y4.4416
G01 X4.7052 Y4.3414
G01 X4.7086 Y4.3373
G01 X4.7942 Y4.2429
G01 X6.2745 Y2.7626
G01 X6.3689 Y2.6770
G01 X6.3730 Y2.6736
G01 X6.4732 Y2.5993
G01 X6.4777 Y2.5963
G01 X6.5846 Y2.5322
G01 X6.5894 Y2.5297
G01 X6.7021 Y2.4764
G01 X6.7071 Y2.4743
G01 X6.8245 Y2.4323
G01 X6.8297 Y2.4307
G01 X6.9506 Y2.4004
G01 X6.9559 Y2.3994
G01 X7.0793 Y2.3811
G01 X7.0846 Y2.3805
G01 X7.2119 Y2.3744
G01 X41.3000 Y2.3744
G01 X41.4272 Y2.3805
G01 X41.4326 Y2.3811
G01 X41.5560 Y2.3994
G01 X41.5613 Y2.4004
G01 X41.6822 Y2.4307
G01 X41.6874 Y2.4323
G01 X41.8048 Y2.4743
G01 X41.8098 Y2.4764
G01 X41.9225 Y2.5297
G01 X41.9272 Y2.5322
G01 X42.0342 Y2.5963
G01 X42.0387 Y2.5993
G01 X42.1388 Y2.6736
G01 X42.1430 Y2.6770
G01 X42.2374 Y2.7626
G01 X44.7187 Y5.2439
G01 X44.8027 Y5.2401
G01 X44.9894 Y5.2492
G01 X44.9948 Y5.2498
G01 X45.1797 Y5.2772
G01 X45.1850 Y5.2783
G01 X45.3664 Y5.3237
G01 X45.3715 Y5.3252
G01 X45.5475 Y5.3882
G01 X45.5525 Y5.3903
G01 X45.7215 Y5.4702
G01 X45.7263 Y5.4728
G01 X45.8866 Y5.5689
G01 X45.8911 Y5.5719
G01 X46.0413 Y5.6832
G01 X46.0455 Y5.6867
G01 X46.1840 Y5.8122
G01 X46.1878 Y5.8160
G01 X46.3133 Y5.9545
G01 X46.3168 Y5.9587
G01 X46.4281 Y6.1089
G01 X46.4311 Y6.1134
G01 X46.5272 Y6.2737
G01 X46.5298 Y6.2785
G01 X46.6097 Y6.4475
G01 X46.6118 Y6.4525
G01 X46.6748 Y6.6285
G01 X46.6763 Y6.6336
G01 X46.7217 Y6.8150
G01 X46.7228 Y6.8203
G01 X46.7502 Y7.0052
G01 X46.7508 Y7.0106
G01 X46.7599 Y7.1973
G01 X46.7599 Y7.2027
G01 X46.7508 Y7.3894
G01 X46.7502 Y7.3948
G01 X46.7228 Y7.5797
G01 X46.7217 Y7.5850
G01 X46.6763 Y7.7664
G01 X46.6748 Y7.7715
G01 X46.6118 Y7.9475
G01 X46.6097 Y7.9525
G01 X46.5298 Y8.1215
G01 X46.5272 Y8.1263
G01 X46.4311 Y8.2866
G01 X46.4281 Y8.2911
G01 X46.3168 Y8.4413
G01 X46.3133 Y8.4455
G01 X46.1878 Y8.5840
G01 X46.1840 Y8.5878
G01 X46.0455 Y8.7133
G01 X46.0413 Y8.7168
G01 X45.8911 Y8.8281
G01 X45.8866 Y8.8311
G01 X45.7263 Y8.9272
G01 X45.7215 Y8.9298
G01 X45.5525 Y9.0097
G01 X45.5475 Y9.0118
G01 X45.3715 Y9.0748
G01 X45.3664 Y9.0763
G01 X45.1850 Y9.1217
G01 X45.1797 Y9.1228
G01 X44.9948 Y9.1502
G01 X44.9894 Y9.1508
G01 X44.8027 Y9.1599
G01 X44.7973 Y9.1599
G01 X44.6106 Y9.1508
G01 X44.6052 Y9.1502
G01 X44.4203 Y9.1228
G01 X44.4150 Y9.1217
G01 X44.2336 Y9.0763
G01 X44.2285 Y9.0748
G01 X44.0525 Y9.0118
G01 X44.0475 Y9.0097
G01 X43.8785 Y8.9298
G01 X43.8737 Y8.9272
G01 X43.7134 Y8.8311
G01 X43.7089 Y8.8281
G01 X43.5587 Y8.7168
G01 X43.5545 Y8.7133
G01 X43.4160 Y8.5878
G01 X43.4122 Y8.5840
G01 X43.2867 Y8.4455
G01 X43.2832 Y8.4413
G01 X43.1719 Y8.2911
G01 X43.1689 Y8.2866
G01 X43.0728 Y8.1263
G01 X43.0702 Y8.1215
G01 X42.9903 Y7.9525
G01 X42.9882 Y7.9475
G01 X42.9252 Y7.7715
G01 X42.9237 Y7.7664
G01 X42.8783 Y7.5850
G01 X42.8772 Y7.5797
G01 X42.8498 Y7.3948
G01 X42.8492 Y7.3894
G01 X42.8401 Y7.2027
G01 X42.8439 Y7.1187
G01 X40.7509 Y5.0256
G01 X7.7610 Y5.0256
G01 X7.0572 Y5.7294
G01 X7.0572 Y35.5825
G01 X9.0491 Y37.5744
G01 X9.2593 Y37.5744
G01 X9.3160 Y37.5122
G01 X9.4545 Y37.3867
G01 X9.4587 Y37.3832
G01 X9.6089 Y37.2719
G01 X9.6134 Y37.2689
G01 X9.7737 Y37.1728
G01 X9.7785 Y37.1702
G01 X9.9475 Y37.0903
G01 X9.9525 Y37.0882
G01 X10.1285 Y37.0252
G01 X10.1336 Y37.0237
G01 X10.3150 Y36.9783
G01 X10.3203 Y36.9772
G01 X10.5052 Y36.9498
G01 X10.5106 Y36.9492
G01 X10.6973 Y36.9401
G01 X10.7027 Y36.9401
G01 X10.8894 Y36.9492
G01 X10.8948 Y36.9498
G01 X11.0797 Y36.9772
G01 X11.0850 Y36.9783
G01 X11.2664 Y37.0237
G01 X11.2715 Y37.0252
G01 X11.4475 Y37.0882
G01 X11.4525 Y37.0903
G01 X11.6215 Y37.1702
G01 X11.6263 Y37.1728
G01 X11.7866 Y37.2689
G01 X11.7911 Y37.2719
G01 X11.9413 Y37.3832
G01 X11.9455 Y37.3867
G01 X12.0840 Y37.5122
G01 X12.0878 Y37.5160
G01 X12.2133 Y37.6545
G01 X12.2168 Y37.6587
G01 X12.3281 Y37.8089
G01 X12.3311 Y37.8134
G01 X12.4272 Y37.9737
G01 X12.4298 Y37.9785
G01 X12.5097 Y38.1475
G01 X12.5118 Y38.1525
G01 X12.5748 Y38.3285
G01 X12.5763 Y38.3336
G01 X12.6217 Y38.5150
G01 X12.6228 Y38.5203
G01 X12.6502 Y38.7052
G01 X12.6508 Y38.7106
G01 X12.6599 Y38.8973
G01 X12.6599 Y38.9027
G01 X12.6508 Y39.0894
G01 X12.6502 Y39.0948
G01 X12.6228 Y39.2797
G01 X12.6217 Y39.2850
G01 X12.5763 Y39.4664
G01 X12.5748 Y39.4715
G01 X12.5118 Y39.6475
G01 X12.5097 Y39.6525
G01 X12.4298 Y39.8215
G01 X12.4272 Y39.8263
G01 X12.3311 Y39.9866
G01 X12.3281 Y39.9911
G01 X12.2168 Y40.1413
G01 X12.2133 Y40.1455
G01 X12.0878 Y40.2840
G01 X12.0840 Y40.2878
G01 X11.9455 Y40.4133
G01 X11.9413 Y40.4168
G01 X11.7911 Y40.5281
G01 X11.7866 Y40.5311
G01 X11.6263 Y40.6272
G01 X11.6215 Y40.6298
G01 X11.4525 Y40.7097
G01 X11.4475 Y40.7118
G01 X11.2715 Y40.7748
G01 X11.2664 Y40.7763
G01 X11.0850 Y40.8217
G01 X11.0797 Y40.8228
G01 X10.8948 Y40.8502
G01 X10.8894 Y40.8508
G01 X10.7027 Y40.8599
G01 X10.6973 Y40.8599
G01 X10.5106 Y40.8508
G01 X10.4526 Y40.8424
G01 X7.1986 Y44.0965
G01 X7.1985 Y46.7027
G01 X7.1930 Y46.8148
G01 X7.1925 Y46.8202
G01 X7.1760 Y46.9312
G01 X7.1749 Y46.9365
G01 X7.1477 Y47.0453
G01 X7.1461 Y47.0505
G01 X7.1083 Y47.1562
G01 X7.1062 Y47.1611
G01 X7.0583 Y47.2626
G01 X7.0557 Y47.2674
G01 X6.9980 Y47.3636
G01 X6.9950 Y47.3681
G01 X6.9282 Y47.4582
G01 X6.9247 Y47.4624
G01 X6.8494 Y47.5456
G01 X6.8456 Y47.5494
G01 X6.7624 Y47.6247
G01 X6.7582 Y47.6282
G01 X6.6681 Y47.6950
G01 X6.6636 Y47.6980
G01 X6.5674 Y47.7557
G01 X6.5626 Y47.7583
G01 X6.4611 Y47.8062
G01 X6.4562 Y47.8083
G01 X6.3505 Y47.8461
G01 X6.3453 Y47.8477
G01 X6.2365 Y47.8749
G01 X6.2312 Y47.8760
G01 X6.1202 Y47.8925
G01 X6.1148 Y47.8930
G01 X6.0027 Y47.8985
G01 X5.9973 Y47.8985
G01 X5.8852 Y47.8930
G01 X5.8798 Y47.8925
G01 X5.7688 Y47.8760
G01 X5.7635 Y47.8749
G01 X5.6547 Y47.8477
G01 X5.6495 Y47.8461
G01 X5.5438 Y47.8083
G01 X5.5389 Y47.8062
G01 X5.4374 Y47.7583
G01 X5.4326 Y47.7557
G01 X5.3364 Y47.6980
G01 X5.3319 Y47.6950
G01 X5.2418 Y47.6282
G01 X5.2376 Y47.6247
G01 X5.1544 Y47.5494
G01 X5.1506 Y47.5456
G01 X5.0753 Y47.4624
G01 X5.0718 Y47.4582
G01 X5.0050 Y47.3681
G01 X5.0020 Y47.3636
G01 X4.9443 Y47.2674
G01 X4.9417 Y47.2626
G01 X4.8938 Y47.1611
G01 X4.8917 Y47.1562
G01 X4.8539 Y47.0505
G01 X4.8523 Y47.0453
G01 X4.8251 Y46.9365
G01 X4.8240 Y46.9312
G01 X4.8075 Y46.8202
G01 X4.8070 Y46.8148
G01 X4.8014 Y46.7000
G01 X4.8014 Y43.6000
G01 X4.8070 Y43.4852
G01 X4.8075 Y43.4798
G01 X4.8240 Y43.3688
G01 X4.8251 Y43.3635
G01 X4.8523 Y43.2547
G01 X4.8539 Y43.2495
G01 X4.8917 Y43.1438
G01 X4.8938 Y43.1389
G01 X4.9417 Y43.0374
G01 X4.9443 Y43.0326
G01 X5.0020 Y42.9364
G01 X5.0050 Y42.9319
G01 X5.0718 Y42.8418
G01 X5.0753 Y42.8376
G01 X5.1506 Y42.7544
G01 X7.8505 Y40.0544
G00 Z2.0000
G00 X29.8780 Y42.9811
G01 F25.00
G01 Z-0.0187
G01 F45.00
G01 X27.0225 Y40.1256
G01 X22.5400 Y40.1256
G01 X22.5257 Y40.1250
G01 X22.0828 Y40.1250
G01 X22.0774 Y40.1247
G01 X22.0721 Y40.1239
G01 X22.0668 Y40.1226
G01 X22.0618 Y40.1208
G01 X22.0569 Y40.1185
G01 X22.0522 Y40.1157
G01 X22.0479 Y40.1125
G01 X22.0439 Y40.1089
G01 X21.8879 Y39.9529
G01 X21.8058 Y39.9037
G01 X21.8013 Y39.9007
G01 X21.7012 Y39.8264
G01 X21.6970 Y39.8230
G01 X21.6046 Y39.7392
G01 X21.6008 Y39.7354
G01 X21.5170 Y39.6430
G01 X21.5136 Y39.6388
G01 X21.4393 Y39.5387
G01 X21.4363 Y39.5342
G01 X21.3722 Y39.4272
G01 X21.3697 Y39.4225
G01 X21.3164 Y39.3098
G01 X21.3143 Y39.3048
G01 X21.2723 Y39.1874
G01 X21.2707 Y39.1822
G01 X21.2404 Y39.0613
G01 X21.2394 Y39.0560
G01 X21.2211 Y38.9326
G01 X21.2205 Y38.9272
G01 X21.2144 Y38.8027
G01 X21.2144 Y38.7973
G01 X21.2205 Y38.6728
G01 X21.2211 Y38.6674
G01 X21.2394 Y38.5440
G01 X21.2404 Y38.5387
G01 X21.2707 Y38.4178
G01 X21.2723 Y38.4126
G01 X21.3143 Y38.2952
G01 X21.3164 Y38.2902
G01 X21.3697 Y38.1775
G01 X21.3722 Y38.1728
G01 X21.4363 Y38.0658
G01 X21.4393 Y38.0613
G01 X21.5136 Y37.9612
G01 X21.5170 Y37.9570
G01 X21.6008 Y37.8646
G01 X21.6046 Y37.8608
G01 X21.6970 Y37.7770
G01 X21.7012 Y37.7736
G01 X21.8013 Y37.6993
G01 X21.8058 Y37.6963
G01 X21.8879 Y37.6471
G01 X22.0439 Y37.4911
G01 X22.0479 Y37.4875
G01 X22.0522 Y37.4843
G01 X22.0569 Y37.4815
G01 X22.0618 Y37.4792
G01 X22.0668 Y37.4774
G01 X22.0721 Y37.4761
G01 X22.0774 Y37.4753
G01 X22.0828 Y37.4750
G01 X22.5257 Y37.4750
G01 X22.5400 Y37.4744
G01 X27.5743 Y37.4744
G01 X27.6988 Y37.4805
G01 X27.7042 Y37.4811
G01 X27.8276 Y37.4994
G01 X27.8329 Y37.5004
G01 X27.9538 Y37.5307
G01 X27.9590 Y37.5323
G01 X28.0764 Y37.5743
G01 X28.0814 Y37.5764
G01 X28.1941 Y37.6297
G01 X28.1988 Y37.6322
G01 X28.3058 Y37.6963
G01 X28.3103 Y37.6993
G01 X28.4104 Y37.7736
G01 X28.4146 Y37.7770
G01 X28.5090 Y37.8626
G01 X32.3930 Y41.7466
G01 X32.4763 Y41.8382
G01 X32.5465 Y41.9309
G01 X32.5502 Y41.9365
G01 X32.6263 Y41.9728
G01 X32.7866 Y42.0689
G01 X32.7911 Y42.0719
G01 X32.9413 Y42.1832
G01 X32.9455 Y42.1867
G01 X33.0840 Y42.3122
G01 X33.0878 Y42.3160
G01 X33.2133 Y42.4545
G01 X33.2168 Y42.4587
G01 X33.3281 Y42.6089
G01 X33.3311 Y42.6134
G01 X33.4272 Y42.7737
G01 X33.4298 Y42.7785
G01 X33.5097 Y42.9475
G01 X33.5118 Y42.9525
G01 X33.5748 Y43.1285
G01 X33.5763 Y43.1336
G01 X33.6217 Y43.3150
G01 X33.6228 Y43.3203
G01 X33.6502 Y43.5052
G01 X33.6508 Y43.5106
G01 X33.6599 Y43.6973
G01 X33.6599 Y43.7027
G01 X33.6508 Y43.8894
G01 X33.6502 Y43.8948
G01 X33.6228 Y44.0797
G01 X33.6217 Y44.0850
G01 X33.5763 Y44.2664
G01 X33.5748 Y44.2715
G01 X33.5118 Y44.4475
G01 X33.5097 Y44.4525
G01 X33.4298 Y44.6215
G01 X33.4272 Y44.6263
G01 X33.3311 Y44.7866
G01 X33.3281 Y44.7911
G01 X33.2168 Y44.9413
G01 X33.2133 Y44.9455
G01 X33.0878 Y45.0840
G01 X33.0840 Y45.0878
G01 X32.9455 Y45.2133
G01 X32.9413 Y45.2168
G01 X32.7911 Y45.3281
G01 X32.7866 Y45.3311
G01 X32.6263 Y45.4272
G01 X32.6215 Y45.4298
G01 X32.4525 Y45.5097
G01 X32.4475 Y45.5118
G01 X32.2715 Y45.5748
G01 X32.2664 Y45.5763
G01 X32.0850 Y45.6217
G01 X32.0797 Y45.6228
G01 X31.8948 Y45.6502
G01 X31.8894 Y45.6508
G01 X31.7027 Y45.6599
G01 X31.6973 Y45.6599
G01 X31.5106 Y45.6508
G01 X31.4526 Y45.6424
G01 X29.5475 Y47.5475
G01 X29.4624 Y47.6247
G01 X29.4582 Y47.6282
G01 X29.3681 Y47.6950
G01 X29.3636 Y47.6980
G01 X29.2674 Y47.7557
G01 X29.2626 Y47.7583
G01 X29.1611 Y47.8062
G01 X29.1562 Y47.8083
G01 X29.0505 Y47.8461
G01 X29.0453 Y47.8477
G01 X28.9365 Y47.8749
G01 X28.9312 Y47.8760
G01 X28.8202 Y47.8925
G01 X28.8148 Y47.8930
G01 X28.7000 Y47.8986
G01 X16.1600 Y47.8986
G01 X16.0452 Y47.8930
G01 X16.0398 Y47.8925
G01 X15.9288 Y47.8760
G01 X15.9235 Y47.8749
G01 X15.8147 Y47.8477
G01 X15.8095 Y47.8461
G01 X15.7038 Y47.8083
G01 X15.6989 Y47.8062
G01 X15.5974 Y47.7583
G01 X15.5926 Y47.7557
G01 X15.4964 Y47.6980
G01 X15.4919 Y47.6950
G01 X15.4018 Y47.6282
G01 X15.3976 Y47.6247
G01 X15.3144 Y47.5494
G01 X15.3106 Y47.5456
G01 X15.2353 Y47.4624
G01 X15.2318 Y47.4582
G01 X15.1650 Y47.3681
G01 X15.1620 Y47.3636
G01 X15.1043 Y47.2674
G01 X15.1017 Y47.2626
G01 X15.0538 Y47.1611
G01 X15.0517 Y47.1562
G01 X15.0139 Y47.0505
G01 X15.0123 Y47.0453
G01 X14.9851 Y46.9365
G01 X14.9840 Y46.9312
G01 X14.9675 Y46.8202
G01 X14.9670 Y46.8148
G01 X14.9615 Y46.7027
G01 X14.9615 Y46.6973
G01 X14.9670 Y46.5852
G01 X14.9675 Y46.5798
G01 X14.9840 Y46.4688
G01 X14.9851 Y46.4635
G01 X15.0123 Y46.3547
G01 X15.0139 Y46.3495
G01 X15.0517 Y46.2438
G01 X15.0538 Y46.2389
G01 X15.1017 Y46.1374
G01 X15.1043 Y46.1326
G01 X15.1620 Y46.0364
G01 X15.1650 Y46.0319
G01 X15.2318 Y45.9418
G01 X15.2353 Y45.9376
G01 X15.3106 Y45.8544
G01 X15.3144 Y45.8506
G01 X15.3976 Y45.7753
G01 X15.4018 Y45.7718
G01 X15.4919 Y45.7050
G01 X15.4964 Y45.7020
G01 X15.5926 Y45.6443
G01 X15.5974 Y45.6417
G01 X15.6989 Y45.5938
G01 X15.7038 Y45.5917
G01 X15.8095 Y45.5539
G01 X15.8147 Y45.5523
G01 X15.9235 Y45.5251
G01 X15.9288 Y45.5240
G01 X16.0398 Y45.5075
G01 X16.0452 Y45.5070
G01 X16.1600 Y45.5014
G01 X28.2035 Y45.5014
G01 X29.7576 Y43.9474
G01 X29.7492 Y43.8894
G01 X29.7401 Y43.7027
G01 X29.7401 Y43.6973
G01 X29.7492 Y43.5106
G01 X29.7498 Y43.5052
G01 X29.7772 Y43.3203
G01 X29.7783 Y43.3150
G01 X29.8237 Y43.1336
G01 X29.8252 Y43.1285
G01 X29.8780 Y42.9811
G00 Z2.0000
G00 X29.7778 Y31.9174
G01 F25.00
G01 Z-0.0187
G01 F45.00
G01 X23.1570 Y31.9174
G01 X23.1570 Y32.0652
G01 X23.1567 Y32.0706
G01 X23.1559 Y32.0759
G01 X23.1546 Y32.0812
G01 X23.1528 Y32.0862
G01 X23.1505 Y32.0911
G01 X23.1477 Y32.0958
G01 X23.1445 Y32.1001
G01 X23.1409 Y32.1041
G01 X22.8361 Y32.4089
G01 X22.8321 Y32.4125
G01 X22.8278 Y32.4157
G01 X22.8231 Y32.4185
G01 X22.8182 Y32.4208
G01 X22.8132 Y32.4226
G01 X22.8079 Y32.4239
G01 X22.8026 Y32.4247
G01 X22.7972 Y32.4250
G01 X21.8828 Y32.4250
G01 X21.8774 Y32.4247
G01 X21.8721 Y32.4239
G01 X21.8668 Y32.4226
G01 X21.8618 Y32.4208
G01 X21.8569 Y32.4185
G01 X21.8522 Y32.4157
G01 X21.8479 Y32.4125
G01 X21.8439 Y32.4089
G01 X21.5391 Y32.1041
G01 X21.5355 Y32.1001
G01 X21.5323 Y32.0958
G01 X21.5295 Y32.0911
G01 X21.5272 Y32.0862
G01 X21.5254 Y32.0812
G01 X21.5241 Y32.0759
G01 X21.5233 Y32.0706
G01 X21.5230 Y32.0652
G01 X21.5230 Y31.1091
G01 X21.5227 Y31.1027
G01 X21.5230 Y31.0909
G01 X21.5230 Y30.1348
G01 X21.5233 Y30.1294
G01 X21.5241 Y30.1241
G01 X21.5254 Y30.1188
G01 X21.5272 Y30.1138
G01 X21.5295 Y30.1089
G01 X21.5323 Y30.1042
G01 X21.5355 Y30.0999
G01 X21.5391 Y30.0959
G01 X21.8439 Y29.7911
G01 X21.8479 Y29.7875
G01 X21.8522 Y29.7843
G01 X21.8569 Y29.7815
G01 X21.8618 Y29.7792
G01 X21.8668 Y29.7774
G01 X21.8721 Y29.7761
G01 X21.8774 Y29.7753
G01 X21.8828 Y29.7750
G01 X22.7972 Y29.7750
G01 X22.8026 Y29.7753
G01 X22.8079 Y29.7761
G01 X22.8132 Y29.7774
G01 X22.8182 Y29.7792
G01 X22.8231 Y29.7815
G01 X22.8278 Y29.7843
G01 X22.8321 Y29.7875
G01 X22.8361 Y29.7911
G01 X23.1409 Y30.0959
G01 X23.1445 Y30.0999
G01 X23.1477 Y30.1042
G01 X23.1505 Y30.1089
G01 X23.1528 Y30.1138
G01 X23.1546 Y30.1188
G01 X23.1559 Y30.1241
G01 X23.1567 Y30.1294
G01 X23.1570 Y30.1348
G01 X23.1570 Y30.2826
G01 X30.5000 Y30.2826
G01 X30.5774 Y30.2864
G01 X30.6568 Y30.2979
G01 X30.6621 Y30.2989
G01 X30.7398 Y30.3187
G01 X30.8153 Y30.3459
G01 X30.8829 Y30.3779
G01 X30.9518 Y30.4189
G01 X31.0154 Y30.4657
G01 X31.1285 Y30.4252
G01 X31.1336 Y30.4237
G01 X31.3150 Y30.3783
G01 X31.3203 Y30.3772
G01 X31.5052 Y30.3498
G01 X31.5106 Y30.3492
G01 X31.6973 Y30.3401
G01 X31.7027 Y30.3401
G01 X31.8894 Y30.3492
G01 X31.8948 Y30.3498
G01 X32.0797 Y30.3772
G01 X32.0850 Y30.3783
G01 X32.2664 Y30.4237
G01 X32.2715 Y30.4252
G01 X32.4475 Y30.4882
G01 X32.4525 Y30.4903
G01 X32.6215 Y30.5702
G01 X32.6263 Y30.5728
G01 X32.7866 Y30.6689
G01 X32.7911 Y30.6719
G01 X32.9413 Y30.7832
G01 X32.9455 Y30.7867
G01 X33.0840 Y30.9122
G01 X33.0878 Y30.9160
G01 X33.2133 Y31.0545
G01 X33.2168 Y31.0587
G01 X33.3281 Y31.2089
G01 X33.3311 Y31.2134
G01 X33.4272 Y31.3737
G01 X33.4298 Y31.3785
G01 X33.5097 Y31.5475
G01 X33.5118 Y31.5525
G01 X33.5748 Y31.7285
G01 X33.5763 Y31.7336
G01 X33.6217 Y31.9150
G01 X33.6228 Y31.9203
G01 X33.6502 Y32.1052
G01 X33.6508 Y32.1106
G01 X33.6599 Y32.2973
G01 X33.6599 Y32.3027
G01 X33.6508 Y32.4894
G01 X33.6502 Y32.4948
G01 X33.6228 Y32.6797
G01 X33.6217 Y32.6850
G01 X33.5763 Y32.8664
G01 X33.5748 Y32.8715
G01 X33.5118 Y33.0475
G01 X33.5097 Y33.0525
G01 X33.4298 Y33.2215
G01 X33.4272 Y33.2263
G01 X33.3311 Y33.3866
G01 X33.3281 Y33.3911
G01 X33.2168 Y33.5413
G01 X33.2133 Y33.5455
G01 X33.0878 Y33.6840
G01 X33.0840 Y33.6878
G01 X32.9455 Y33.8133
G01 X32.9413 Y33.8168
G01 X32.7911 Y33.9281
G01 X32.7866 Y33.9311
G01 X32.6263 Y34.0272
G01 X32.6215 Y34.0298
G01 X32.4525 Y34.1097
G01 X32.4475 Y34.1118
G01 X32.2715 Y34.1748
G01 X32.2664 Y34.1763
G01 X32.0850 Y34.2217
G01 X32.0797 Y34.2228
G01 X31.8948 Y34.2502
G01 X31.8894 Y34.2508
G01 X31.7027 Y34.2599
G01 X31.6973 Y34.2599
G01 X31.5106 Y34.2508
G01 X31.5052 Y34.2502
G01 X31.3203 Y34.2228
G01 X31.3150 Y34.2217
G01 X31.1336 Y34.1763
G01 X31.1285 Y34.1748
G01 X30.9525 Y34.1118
G01 X30.9475 Y34.1097
G01 X30.7785 Y34.0298
G01 X30.7737 Y34.0272
G01 X30.6134 Y33.9311
G01 X30.6089 Y33.9281
G01 X30.4587 Y33.8168
G01 X30.4545 Y33.8133
G01 X30.3160 Y33.6878
G01 X30.3122 Y33.6840
G01 X30.1867 Y33.5455
G01 X30.1832 Y33.5413
G01 X30.0719 Y33.3911
G01 X30.0689 Y33.3866
G01 X29.9728 Y33.2263
G01 X29.9702 Y33.2215
G01 X29.8903 Y33.0525
G01 X29.8882 Y33.0475
G01 X29.8252 Y32.8715
G01 X29.8237 Y32.8664
G01 X29.7783 Y32.6850
G01 X29.7772 Y32.6797
G01 X29.7498 Y32.4948
G01 X29.7492 Y32.4894
G01 X29.7401 Y32.3027
G01 X29.7401 Y32.2973
G01 X29.7492 Y32.1106
G01 X29.7498 Y32.1052
G01 X29.7778 Y31.9174
G00 Z2.0000
G00 X31.2009 Y24.4959
G01 F25.00
G01 Z-0.0187
G01 F45.00
G01 X31.2045 Y24.4999
G01 X31.2077 Y24.5042
G01 X31.2105 Y24.5089
G01 X31.2128 Y24.5138
G01 X31.2146 Y24.5188
G01 X31.2159 Y24.5241
G01 X31.2167 Y24.5294
G01 X31.2170 Y24.5348
G01 X31.2170 Y26.4652
G01 X31.2167 Y26.4706
G01 X31.2159 Y26.4759
G01 X31.2146 Y26.4812
G01 X31.2128 Y26.4862
G01 X31.2105 Y26.4911
G01 X31.2077 Y26.4958
G01 X31.2045 Y26.5001
G01 X31.1436 Y26.5614
G01 X31.1523 Y26.7359
G01 X31.1531 Y26.7686
G01 X31.1531 Y26.9735
G01 X31.1500 Y27.0385
G01 X31.1403 Y27.1056
G01 X31.1392 Y27.1109
G01 X31.1225 Y27.1765
G01 X31.0995 Y27.2402
G01 X31.0703 Y27.3013
G01 X31.0352 Y27.3593
G01 X30.9946 Y27.4135
G01 X30.9509 Y27.4617
G01 X29.4702 Y28.9424
G01 X29.4220 Y28.9861
G01 X29.3678 Y29.0267
G01 X29.3633 Y29.0297
G01 X29.3051 Y29.0643
G01 X29.2437 Y29.0930
G01 X29.1799 Y29.1156
G01 X29.1194 Y29.1307
G01 X29.0524 Y29.1409
G01 X28.9821 Y29.1446
G01 X21.0101 Y29.1446
G01 X20.4903 Y29.6644
G01 X20.4903 Y29.9853
G01 X20.6009 Y30.0959
G01 X20.6045 Y30.0999
G01 X20.6077 Y30.1042
G01 X20.6105 Y30.1089
G01 X20.6128 Y30.1138
G01 X20.6146 Y30.1188
G01 X20.6159 Y30.1241
G01 X20.6167 Y30.1294
G01 X20.6170 Y30.1348
G01 X20.6170 Y31.0909
G01 X20.6174 Y31.1000
G01 X20.6174 Y37.6124
G01 X20.8009 Y37.7959
G01 X20.8045 Y37.7999
G01 X20.8077 Y37.8042
G01 X20.8105 Y37.8089
G01 X20.8128 Y37.8138
G01 X20.8146 Y37.8188
G01 X20.8159 Y37.8241
G01 X20.8167 Y37.8294
G01 X20.8170 Y37.8348
G01 X20.8170 Y37.9081
G01 X20.8222 Y37.9173
G01 X20.8563 Y37.9900
G01 X20.8830 Y38.0657
G01 X20.9012 Y38.1384
G01 X20.9132 Y38.2178
G01 X20.9173 Y38.2980
G01 X20.9136 Y38.3782
G01 X20.9020 Y38.4576
G01 X20.8170 Y38.8828
G01 X20.8170 Y39.7652
G01 X20.8167 Y39.7706
G01 X20.8159 Y39.7759
G01 X20.8146 Y39.7812
G01 X20.8128 Y39.7862
G01 X20.8105 Y39.7911
G01 X20.8077 Y39.7958
G01 X20.8045 Y39.8001
G01 X20.8009 Y39.8041
G01 X20.4961 Y40.1089
G01 X20.4921 Y40.1125
G01 X20.4878 Y40.1157
G01 X20.4831 Y40.1185
G01 X20.4782 Y40.1208
G01 X20.4732 Y40.1226
G01 X20.4679 Y40.1239
G01 X20.4626 Y40.1247
G01 X20.4572 Y40.1250
G01 X19.5428 Y40.1250
G01 X19.5374 Y40.1247
G01 X19.5321 Y40.1239
G01 X19.5268 Y40.1226
G01 X19.5218 Y40.1208
G01 X19.5169 Y40.1185
G01 X19.5122 Y40.1157
G01 X19.5079 Y40.1125
G01 X19.5039 Y40.1089
G01 X19.1991 Y39.8041
G01 X19.1955 Y39.8001
G01 X19.1923 Y39.7958
G01 X19.1895 Y39.7911
G01 X19.1872 Y39.7862
G01 X19.1854 Y39.7812
G01 X19.1841 Y39.7759
G01 X19.1833 Y39.7706
G01 X19.1830 Y39.7652
G01 X19.1830 Y38.8084
G01 X19.1827 Y38.8018
G01 X19.1830 Y38.7902
G01 X19.1830 Y38.5350
G01 X19.1665 Y38.5164
G01 X19.1189 Y38.4518
G01 X19.0779 Y38.3829
G01 X19.0439 Y38.3103
G01 X19.0171 Y38.2347
G01 X18.9979 Y38.1568
G01 X18.9864 Y38.0774
G01 X18.9826 Y38.0000
G01 X18.9826 Y31.1000
G01 X18.9830 Y31.0909
G01 X18.9830 Y30.1348
G01 X18.9833 Y30.1294
G01 X18.9841 Y30.1241
G01 X18.9854 Y30.1188
G01 X18.9872 Y30.1138
G01 X18.9895 Y30.1089
G01 X18.9923 Y30.1042
G01 X18.9955 Y30.0999
G01 X18.9991 Y30.0959
G01 X19.1097 Y29.9853
G01 X19.1097 Y29.3785
G01 X19.1128 Y29.3135
G01 X19.1225 Y29.2465
G01 X19.1387 Y29.1807
G01 X19.1613 Y29.1168
G01 X19.1633 Y29.1118
G01 X19.1900 Y29.0555
G01 X19.2246 Y28.9972
G01 X19.2647 Y28.9427
G01 X19.3119 Y28.8903
G01 X20.2361 Y27.9661
G01 X20.2842 Y27.9224
G01 X20.3385 Y27.8818
G01 X20.3430 Y27.8788
G01 X20.4012 Y27.8442
G01 X20.4576 Y27.8176
G01 X20.4626 Y27.8155
G01 X20.5264 Y27.7929
G01 X20.5869 Y27.7778
G01 X20.6539 Y27.7676
G01 X20.7242 Y27.7639
G01 X28.6961 Y27.7639
G01 X29.7678 Y26.6923
G01 X29.7668 Y26.6717
G01 X29.5991 Y26.5041
G01 X29.5955 Y26.5001
G01 X29.5923 Y26.4958
G01 X29.5895 Y26.4911
G01 X29.5872 Y26.4862
G01 X29.5854 Y26.4812
G01 X29.5841 Y26.4759
G01 X29.5833 Y26.4706
G01 X29.5830 Y26.4652
G01 X29.5830 Y24.5348
G01 X29.5833 Y24.5294
G01 X29.5841 Y24.5241
G01 X29.5854 Y24.5188
G01 X29.5872 Y24.5138
G01 X29.5895 Y24.5089
G01 X29.5923 Y24.5042
G01 X29.5955 Y24.4999
G01 X29.5991 Y24.4959
G01 X29.9039 Y24.1911
G01 X29.9079 Y24.1875
G01 X29.9122 Y24.1843
G01 X29.9169 Y24.1815
G01 X29.9218 Y24.1792
G01 X29.9268 Y24.1774
G01 X29.9321 Y24.1761
G01 X29.9374 Y24.1753
G01 X29.9428 Y24.1750
G01 X30.8572 Y24.1750
G01 X30.8626 Y24.1753
G01 X30.8679 Y24.1761
G01 X30.8732 Y24.1774
G01 X30.8782 Y24.1792
G01 X30.8831 Y24.1815
G01 X30.8878 Y24.1843
G01 X30.8921 Y24.1875
G01 X30.8961 Y24.1911
G01 X31.2009 Y24.4959
G00 Z2.0000
G00 X31.3903 Y14.8323
G01 F25.00
G01 Z-0.0187
G01 F45.00
G01 X31.3903 Y14.9000
G01 X31.3872 Y14.9650
G01 X31.3775 Y15.0320
G01 X31.3613 Y15.0978
G01 X31.3387 Y15.1617
G01 X31.3100 Y15.2230
G01 X31.2754 Y15.2812
G01 X31.2353 Y15.3358
G01 X31.1900 Y15.3862
G01 X26.1881 Y20.3881
G01 X26.1358 Y20.4353
G01 X26.0812 Y20.4754
G01 X26.0278 Y20.5075
G01 X25.9666 Y20.5367
G01 X25.9617 Y20.5387
G01 X25.8978 Y20.5613
G01 X25.8373 Y20.5765
G01 X25.7703 Y20.5867
G01 X25.7027 Y20.5903
G01 X23.1710 Y20.5903
G01 X23.1710 Y20.9160
G01 X23.1707 Y20.9214
G01 X23.1699 Y20.9267
G01 X23.1686 Y20.9320
G01 X23.1668 Y20.9370
G01 X23.1645 Y20.9419
G01 X23.1617 Y20.9466
G01 X23.1585 Y20.9509
G01 X23.1549 Y20.9549
G01 X23.1509 Y20.9585
G01 X23.1466 Y20.9617
G01 X23.1419 Y20.9645
G01 X23.1370 Y20.9668
G01 X23.1320 Y20.9686
G01 X23.1267 Y20.9699
G01 X23.1214 Y20.9707
G01 X23.1160 Y20.9710
G01 X21.0840 Y20.9710
G01 X21.0786 Y20.9707
G01 X21.0733 Y20.9699
G01 X21.0680 Y20.9686
G01 X21.0630 Y20.9668
G01 X21.0581 Y20.9645
G01 X21.0534 Y20.9617
G01 X21.0491 Y20.9585
G01 X21.0451 Y20.9549
G01 X21.0415 Y20.9509
G01 X21.0383 Y20.9466
G01 X21.0355 Y20.9419
G01 X21.0332 Y20.9370
G01 X21.0314 Y20.9320
G01 X21.0301 Y20.9267
G01 X21.0293 Y20.9214
G01 X21.0290 Y20.9160
G01 X21.0290 Y18.8840
G01 X21.0293 Y18.8786
G01 X21.0301 Y18.8733
G01 X21.0314 Y18.8680
G01 X21.0332 Y18.8630
G01 X21.0355 Y18.8581
G01 X21.0383 Y18.8534
G01 X21.0415 Y18.8491
G01 X21.0451 Y18.8451
G01 X21.0491 Y18.8415
G01 X21.0534 Y18.8383
G01 X21.0581 Y18.8355
G01 X21.0630 Y18.8332
G01 X21.0680 Y18.8314
G01 X21.0733 Y18.8301
G01 X21.0786 Y18.8293
G01 X21.0840 Y18.8290
G01 X23.1160 Y18.8290
G01 X23.1214 Y18.8293
G01 X23.1267 Y18.8301
G01 X23.1320 Y18.8314
G01 X23.1370 Y18.8332
G01 X23.1419 Y18.8355
G01 X23.1466 Y18.8383
G01 X23.1509 Y18.8415
G01 X23.1549 Y18.8451
G01 X23.1585 Y18.8491
G01 X23.1617 Y18.8534
G01 X23.1645 Y18.8581
G01 X23.1668 Y18.8630
G01 X23.1686 Y18.8680
G01 X23.1699 Y18.8733
G01 X23.1707 Y18.8786
G01 X23.1710 Y18.8840
G01 X23.1710 Y19.2097
G01 X25.4141 Y19.2097
G01 X29.8569 Y14.7669
G01 X29.7737 Y14.7272
G01 X29.6134 Y14.6311
G01 X29.6089 Y14.6281
G01 X29.4587 Y14.5168
G01 X29.4545 Y14.5133
G01 X29.3160 Y14.3878
G01 X29.3122 Y14.3840
G01 X29.1867 Y14.2455
G01 X29.1832 Y14.2413
G01 X29.0719 Y14.0911
G01 X29.0689 Y14.0866
G01 X28.9728 Y13.9263
G01 X28.9702 Y13.9215
G01 X28.8903 Y13.7525
G01 X28.8882 Y13.7475
G01 X28.8252 Y13.5715
G01 X28.8237 Y13.5664
G01 X28.7783 Y13.3850
G01 X28.7772 Y13.3797
G01 X28.7498 Y13.1948
G01 X28.7492 Y13.1894
G01 X28.7401 Y13.0027
G01 X28.7401 Y12.9973
G01 X28.7492 Y12.8106
G01 X28.7498 Y12.8052
G01 X28.7772 Y12.6203
G01 X28.7783 Y12.6150
G01 X28.8237 Y12.4336
G01 X28.8252 Y12.4285
G01 X28.8882 Y12.2525
G01 X28.8903 Y12.2475
G01 X28.9702 Y12.0785
G01 X28.9728 Y12.0737
G01 X29.0689 Y11.9134
G01 X29.0719 Y11.9089
G01 X29.1832 Y11.7587
G01 X29.1867 Y11.7545
G01 X29.3122 Y11.6160
G01 X29.3160 Y11.6122
G01 X29.4545 Y11.4867
G01 X29.4587 Y11.4832
G01 X29.6089 Y11.3719
G01 X29.6134 Y11.3689
G01 X29.7737 Y11.2728
G01 X29.7785 Y11.2702
G01 X29.9475 Y11.1903
G01 X29.9525 Y11.1882
G01 X30.1285 Y11.1252
G01 X30.1336 Y11.1237
G01 X30.3150 Y11.0783
G01 X30.3203 Y11.0772
G01 X30.5052 Y11.0498
G01 X30.5106 Y11.0492
G01 X30.6973 Y11.0401
G01 X30.7027 Y11.0401
G01 X30.8894 Y11.0492
G01 X30.8948 Y11.0498
G01 X31.0797 Y11.0772
G01 X31.0850 Y11.0783
G01 X31.2664 Y11.1237
G01 X31.2715 Y11.1252
G01 X31.4475 Y11.1882
G01 X31.4525 Y11.1903
G01 X31.6215 Y11.2702
G01 X31.6263 Y11.2728
G01 X31.7866 Y11.3689
G01 X31.7911 Y11.3719
G01 X31.9413 Y11.4832
G01 X31.9455 Y11.4867
G01 X32.0840 Y11.6122
G01 X32.0878 Y11.6160
G01 X32.2133 Y11.7545
G01 X32.2168 Y11.7587
G01 X32.3281 Y11.9089
G01 X32.3311 Y11.9134
G01 X32.4272 Y12.0737
G01 X32.4298 Y12.0785
G01 X32.5097 Y12.2475
G01 X32.5118 Y12.2525
G01 X32.5748 Y12.4285
G01 X32.5763 Y12.4336
G01 X32.6217 Y12.6150
G01 X32.6228 Y12.6203
G01 X32.6502 Y12.8052
G01 X32.6508 Y12.8106
G01 X32.6599 Y12.9973
G01 X32.6599 Y13.0027
G01 X32.6508 Y13.1894
G01 X32.6502 Y13.1948
G01 X32.6228 Y13.3797
G01 X32.6217 Y13.3850
G01 X32.5763 Y13.5664
G01 X32.5748 Y13.5715
G01 X32.5118 Y13.7475
G01 X32.5097 Y13.7525
G01 X32.4298 Y13.9215
G01 X32.4272 Y13.9263
G01 X32.3311 Y14.0866
G01 X32.3281 Y14.0911
G01 X32.2168 Y14.2413
G01 X32.2133 Y14.2455
G01 X32.0878 Y14.3840
G01 X32.0840 Y14.3878
G01 X31.9455 Y14.5133
G01 X31.9413 Y14.5168
G01 X31.7911 Y14.6281
G01 X31.7866 Y14.6311
G01 X31.6263 Y14.7272
G01 X31.6215 Y14.7298
G01 X31.4525 Y14.8097
G01 X31.3903 Y14.8323
G00 Z2.0000
G00 X51.4160 Y5.4733
G01 F25.00
G01 Z-0.0187
G01 F45.00
G01 X51.4287 Y5.4739
G01 X51.4439 Y5.4759
G01 X51.4589 Y5.4794
G01 X51.4734 Y5.4843
G01 X51.4784 Y5.4864
G01 X51.4922 Y5.4932
G01 X51.5052 Y5.5013
G01 X51.5174 Y5.5107
G01 X51.5286 Y5.5212
G01 X51.5353 Y5.5286
G01 X51.5447 Y5.5408
G01 X51.5528 Y5.5538
G01 X51.5596 Y5.5676
G01 X51.5617 Y5.5726
G01 X51.5666 Y5.5871
G01 X51.5701 Y5.6021
G01 X51.5721 Y5.6173
G01 X51.5726 Y5.6327
G01 X51.5721 Y5.6427
G01 X51.5701 Y5.6579
G01 X51.5666 Y5.6729
G01 X51.5617 Y5.6874
G01 X51.5596 Y5.6924
G01 X51.5528 Y5.7062
G01 X51.5447 Y5.7192
G01 X51.5353 Y5.7314
G01 X51.5248 Y5.7426
G01 X51.5174 Y5.7493
G01 X51.5052 Y5.7587
G01 X51.4922 Y5.7668
G01 X51.4784 Y5.7736
G01 X51.4734 Y5.7757
G01 X51.4589 Y5.7806
G01 X51.4439 Y5.7841
G01 X51.4287 Y5.7861
G01 X51.4160 Y5.7867
G01 X50.5567 Y5.7867
G01 X50.5567 Y6.2353
G01 X51.9240 Y6.2353
G01 X51.9367 Y6.2359
G01 X51.9519 Y6.2379
G01 X51.9572 Y6.2390
G01 X51.9720 Y6.2429
G01 X51.9864 Y6.2484
G01 X51.9954 Y6.2526
G01 X52.0087 Y6.2603
G01 X52.0132 Y6.2633
G01 X52.0254 Y6.2727
G01 X52.0328 Y6.2794
G01 X52.0366 Y6.2832
G01 X52.0468 Y6.2948
G01 X52.0557 Y6.3073
G01 X52.0608 Y6.3158
G01 X52.0676 Y6.3296
G01 X52.0697 Y6.3346
G01 X52.0746 Y6.3491
G01 X52.0770 Y6.3588
G01 X52.0796 Y6.3740
G01 X52.0801 Y6.3793
G01 X52.0806 Y6.3947
G01 X52.0801 Y6.4047
G01 X52.0781 Y6.4199
G01 X52.0770 Y6.4252
G01 X52.0731 Y6.4400
G01 X52.0676 Y6.4544
G01 X52.0634 Y6.4634
G01 X52.0557 Y6.4767
G01 X52.0527 Y6.4812
G01 X52.0433 Y6.4934
G01 X52.0328 Y6.5046
G01 X52.0254 Y6.5113
G01 X52.0132 Y6.5207
G01 X52.0002 Y6.5288
G01 X51.9864 Y6.5356
G01 X51.9814 Y6.5377
G01 X51.9669 Y6.5426
G01 X51.9519 Y6.5461
G01 X51.9367 Y6.5481
G01 X51.9240 Y6.5487
G01 X50.4000 Y6.5487
G01 X50.3820 Y6.5476
G01 X50.3668 Y6.5450
G01 X50.3520 Y6.5411
G01 X50.3376 Y6.5356
G01 X50.3238 Y6.5288
G01 X50.3108 Y6.5207
G01 X50.2986 Y6.5113
G01 X50.2912 Y6.5046
G01 X50.2807 Y6.4934
G01 X50.2713 Y6.4812
G01 X50.2632 Y6.4682
G01 X50.2564 Y6.4544
G01 X50.2543 Y6.4494
G01 X50.2494 Y6.4349
G01 X50.2459 Y6.4199
G01 X50.2439 Y6.4047
G01 X50.2433 Y6.3920
G01 X50.2433 Y4.8680
G01 X50.2444 Y4.8500
G01 X50.2470 Y4.8348
G01 X50.2509 Y4.8200
G01 X50.2564 Y4.8056
G01 X50.2632 Y4.7918
G01 X50.2713 Y4.7788
G01 X50.2807 Y4.7666
G01 X50.2874 Y4.7592
G01 X50.2986 Y4.7487
G01 X50.3108 Y4.7393
G01 X50.3238 Y4.7312
G01 X50.3376 Y4.7244
G01 X50.3426 Y4.7223
G01 X50.3571 Y4.7174
G01 X50.3721 Y4.7139
G01 X50.3873 Y4.7119
G01 X50.4000 Y4.7113
G01 X51.9240 Y4.7113
G01 X51.9367 Y4.7119
G01 X51.9519 Y4.7139
G01 X51.9669 Y4.7174
G01 X51.9814 Y4.7223
G01 X51.9864 Y4.7244
G01 X52.0002 Y4.7312
G01 X52.0132 Y4.7393
G01 X52.0254 Y4.7487
G01 X52.0366 Y4.7592
G01 X52.0433 Y4.7666
G01 X52.0527 Y4.7788
G01 X52.0557 Y4.7833
G01 X52.0634 Y4.7966
G01 X52.0676 Y4.8056
G01 X52.0731 Y4.8200
G01 X52.0770 Y4.8348
G01 X52.0781 Y4.8401
G01 X52.0801 Y4.8553
G01 X52.0806 Y4.8653
G01 X52.0801 Y4.8807
G01 X52.0796 Y4.8860
G01 X52.0770 Y4.9012
G01 X52.0746 Y4.9109
G01 X52.0697 Y4.9254
G01 X52.0676 Y4.9304
G01 X52.0634 Y4.9394
G01 X52.0557 Y4.9527
G01 X52.0527 Y4.9572
G01 X52.0433 Y4.9694
G01 X52.0328 Y4.9806
G01 X52.0254 Y4.9873
G01 X52.0132 Y4.9967
G01 X52.0087 Y4.9997
G01 X51.9954 Y5.0074
G01 X51.9864 Y5.0116
G01 X51.9720 Y5.0171
G01 X51.9572 Y5.0210
G01 X51.9519 Y5.0221
G01 X51.9367 Y5.0241
G01 X51.9240 Y5.0247
G01 X50.5567 Y5.0247
G01 X50.5567 Y5.4733
G01 X51.4160 Y5.4733
G00 Z2.0000
G00 X52.2753 Y4.8680
G01 F25.00
G01 Z-0.0187
G01 F45.00
G01 X52.2759 Y4.8553
G01 X52.2779 Y4.8401
G01 X52.2814 Y4.8251
G01 X52.2863 Y4.8106
G01 X52.2926 Y4.7966
G01 X52.3003 Y4.7833
G01 X52.3092 Y4.7708
G01 X52.3194 Y4.7592
G01 X52.3306 Y4.7487
G01 X52.3428 Y4.7393
G01 X52.3473 Y4.7363
G01 X52.3606 Y4.7286
G01 X52.3746 Y4.7223
G01 X52.3891 Y4.7174
G01 X52.4041 Y4.7139
G01 X52.4193 Y4.7119
G01 X52.4320 Y4.7113
G01 X53.9560 Y4.7113
G01 X53.9740 Y4.7124
G01 X53.9892 Y4.7150
G01 X54.0040 Y4.7189
G01 X54.0184 Y4.7244
G01 X54.0322 Y4.7312
G01 X54.0452 Y4.7393
G01 X54.0574 Y4.7487
G01 X54.0686 Y4.7592
G01 X54.0788 Y4.7708
G01 X54.0877 Y4.7833
G01 X54.0954 Y4.7966
G01 X54.1017 Y4.8106
G01 X54.1066 Y4.8251
G01 X54.1101 Y4.8401
G01 X54.1121 Y4.8553
G01 X54.1126 Y4.8707
G01 X54.1116 Y4.8860
G01 X54.1090 Y4.9012
G01 X54.1051 Y4.9160
G01 X54.0996 Y4.9304
G01 X54.0954 Y4.9394
G01 X54.0877 Y4.9527
G01 X54.0788 Y4.9652
G01 X54.0686 Y4.9768
G01 X54.0574 Y4.9873
G01 X54.0452 Y4.9967
G01 X54.0407 Y4.9997
G01 X54.0274 Y5.0074
G01 X54.0184 Y5.0116
G01 X54.0040 Y5.0171
G01 X53.9892 Y5.0210
G01 X53.9740 Y5.0236
G01 X53.9560 Y5.0247
G01 X52.5887 Y5.0247
G01 X52.5887 Y6.3920
G01 X52.5876 Y6.4100
G01 X52.5850 Y6.4252
G01 X52.5811 Y6.4400
G01 X52.5756 Y6.4544
G01 X52.5714 Y6.4634
G01 X52.5637 Y6.4767
G01 X52.5548 Y6.4892
G01 X52.5446 Y6.5008
G01 X52.5334 Y6.5113
G01 X52.5212 Y6.5207
G01 X52.5082 Y6.5288
G01 X52.4944 Y6.5356
G01 X52.4894 Y6.5377
G01 X52.4749 Y6.5426
G01 X52.4599 Y6.5461
G01 X52.4447 Y6.5481
G01 X52.4293 Y6.5486
G01 X52.4140 Y6.5476
G01 X52.3988 Y6.5450
G01 X52.3840 Y6.5411
G01 X52.3696 Y6.5356
G01 X52.3606 Y6.5314
G01 X52.3473 Y6.5237
G01 X52.3348 Y6.5148
G01 X52.3232 Y6.5046
G01 X52.3127 Y6.4934
G01 X52.3033 Y6.4812
G01 X52.3003 Y6.4767
G01 X52.2926 Y6.4634
G01 X52.2863 Y6.4494
G01 X52.2814 Y6.4349
G01 X52.2779 Y6.4199
G01 X52.2759 Y6.4047
G01 X52.2753 Y6.3920
G01 X52.2753 Y4.8680
G00 Z2.0000
G00 X53.9348 Y3.5812
G01 F25.00
G01 Z-0.0187
G01 F45.00
G01 X53.9468 Y3.5948
G01 X53.9557 Y3.6073
G01 X53.9608 Y3.6158
G01 X53.9676 Y3.6296
G01 X53.9697 Y3.6346
G01 X53.9746 Y3.6491
G01 X53.9770 Y3.6588
G01 X53.9796 Y3.6740
G01 X53.9801 Y3.6793
G01 X53.9806 Y3.6947
G01 X53.9801 Y3.7047
G01 X53.9781 Y3.7199
G01 X53.9770 Y3.7252
G01 X53.9731 Y3.7400
G01 X53.9676 Y3.7544
G01 X53.9634 Y3.7634
G01 X53.9557 Y3.7767
G01 X53.9527 Y3.7812
G01 X53.9433 Y3.7934
G01 X53.9328 Y3.8046
G01 X53.9254 Y3.8113
G01 X53.9132 Y3.8207
G01 X53.9087 Y3.8237
G01 X53.8954 Y3.8314
G01 X53.8864 Y3.8356
G01 X53.8720 Y3.8411
G01 X53.8572 Y3.8450
G01 X53.8519 Y3.8461
G01 X53.8367 Y3.8481
G01 X53.8267 Y3.8486
G01 X53.8113 Y3.8481
G01 X53.7961 Y3.8461
G01 X53.7908 Y3.8450
G01 X53.7811 Y3.8426
G01 X53.7666 Y3.8377
G01 X53.7526 Y3.8314
G01 X53.7393 Y3.8237
G01 X53.7348 Y3.8207
G01 X53.7226 Y3.8113
G01 X53.7132 Y3.8028
G01 X53.6970 Y3.7865
G01 X53.6788 Y3.8046
G01 X53.6672 Y3.8148
G01 X53.6547 Y3.8237
G01 X53.6414 Y3.8314
G01 X53.6274 Y3.8377
G01 X53.6129 Y3.8426
G01 X53.6032 Y3.8450
G01 X53.5880 Y3.8476
G01 X53.5700 Y3.8487
G01 X52.5513 Y3.8486
G01 X52.5413 Y3.8481
G01 X52.5261 Y3.8461
G01 X52.5111 Y3.8426
G01 X52.4966 Y3.8377
G01 X52.4916 Y3.8356
G01 X52.4778 Y3.8288
G01 X52.4648 Y3.8207
G01 X52.4526 Y3.8113
G01 X52.4432 Y3.8028
G01 X52.1892 Y3.5488
G01 X52.1807 Y3.5394
G01 X52.1713 Y3.5272
G01 X52.1683 Y3.5227
G01 X52.1606 Y3.5094
G01 X52.1564 Y3.5004
G01 X52.1509 Y3.4860
G01 X52.1470 Y3.4712
G01 X52.1459 Y3.4659
G01 X52.1439 Y3.4507
G01 X52.1433 Y3.4380
G01 X52.1433 Y2.4220
G01 X52.1439 Y2.4093
G01 X52.1459 Y2.3941
G01 X52.1470 Y2.3888
G01 X52.1509 Y2.3740
G01 X52.1564 Y2.3596
G01 X52.1632 Y2.3458
G01 X52.1713 Y2.3328
G01 X52.1807 Y2.3206
G01 X52.1892 Y2.3112
G01 X52.2055 Y2.2950
G01 X52.1874 Y2.2768
G01 X52.1772 Y2.2652
G01 X52.1683 Y2.2527
G01 X52.1606 Y2.2394
G01 X52.1543 Y2.2254
G01 X52.1494 Y2.2109
G01 X52.1470 Y2.2012
G01 X52.1444 Y2.1860
G01 X52.1439 Y2.1807
G01 X52.1434 Y2.1653
G01 X52.1439 Y2.1553
G01 X52.1459 Y2.1401
G01 X52.1494 Y2.1251
G01 X52.1543 Y2.1106
G01 X52.1564 Y2.1056
G01 X52.1632 Y2.0918
G01 X52.1713 Y2.0788
G01 X52.1807 Y2.0666
G01 X52.1912 Y2.0554
G01 X52.2028 Y2.0452
G01 X52.2153 Y2.0363
G01 X52.2286 Y2.0286
G01 X52.2426 Y2.0223
G01 X52.2571 Y2.0174
G01 X52.2668 Y2.0150
G01 X52.2820 Y2.0124
G01 X52.2973 Y2.0114
G01 X52.3127 Y2.0119
G01 X52.3180 Y2.0124
G01 X52.3332 Y2.0150
G01 X52.3429 Y2.0174
G01 X52.3574 Y2.0223
G01 X52.3714 Y2.0286
G01 X52.3847 Y2.0363
G01 X52.3972 Y2.0452
G01 X52.4088 Y2.0554
G01 X52.4270 Y2.0735
G01 X52.4452 Y2.0554
G01 X52.4568 Y2.0452
G01 X52.4693 Y2.0363
G01 X52.4826 Y2.0286
G01 X52.4966 Y2.0223
G01 X52.5111 Y2.0174
G01 X52.5208 Y2.0150
G01 X52.5360 Y2.0124
G01 X52.5540 Y2.0113
G01 X53.5727 Y2.0114
G01 X53.5827 Y2.0119
G01 X53.5979 Y2.0139
G01 X53.6129 Y2.0174
G01 X53.6274 Y2.0223
G01 X53.6324 Y2.0244
G01 X53.6462 Y2.0312
G01 X53.6592 Y2.0393
G01 X53.6714 Y2.0487
G01 X53.6808 Y2.0572
G01 X53.9348 Y2.3112
G01 X53.9433 Y2.3206
G01 X53.9527 Y2.3328
G01 X53.9557 Y2.3373
G01 X53.9634 Y2.3506
G01 X53.9676 Y2.3596
G01 X53.9731 Y2.3740
G01 X53.9770 Y2.3888
G01 X53.9781 Y2.3941
G01 X53.9801 Y2.4093
G01 X53.9807 Y2.4220
G01 X53.9806 Y3.4407
G01 X53.9796 Y3.4560
G01 X53.9770 Y3.4712
G01 X53.9746 Y3.4809
G01 X53.9697 Y3.4954
G01 X53.9634 Y3.5094
G01 X53.9557 Y3.5227
G01 X53.9468 Y3.5352
G01 X53.9366 Y3.5468
G01 X53.9185 Y3.5650
G01 X53.9348 Y3.5812
G00 Z2.0000
G00 X52.6782 Y2.3247
G01 F25.00
G01 Z-0.0187
G01 F45.00
G01 X53.5051 Y2.3247
G01 X53.6673 Y2.4869
G01 X53.6673 Y3.3138
G01 X52.6782 Y2.3247
G00 Z2.0000
G00 X52.4567 Y2.5462
G01 F25.00
G01 Z-0.0187
G01 F45.00
G01 X53.4458 Y3.5353
G01 X52.6189 Y3.5353
G01 X52.4567 Y3.3731
G01 X52.4567 Y2.5462
G00 Z2.0000
G00 X55.6993 Y2.8073
G01 F25.00
G01 Z-0.0187
G01 F45.00
G01 X55.6993 Y2.4869
G01 X55.5371 Y2.3247
G01 X54.8400 Y2.3247
G01 X54.8273 Y2.3241
G01 X54.8121 Y2.3221
G01 X54.7971 Y2.3186
G01 X54.7826 Y2.3137
G01 X54.7776 Y2.3116
G01 X54.7638 Y2.3048
G01 X54.7508 Y2.2967
G01 X54.7428 Y2.2908
G01 X54.7312 Y2.2806
G01 X54.7274 Y2.2768
G01 X54.7207 Y2.2694
G01 X54.7113 Y2.2572
G01 X54.7083 Y2.2527
G01 X54.7006 Y2.2394
G01 X54.6943 Y2.2254
G01 X54.6894 Y2.2109
G01 X54.6870 Y2.2012
G01 X54.6859 Y2.1959
G01 X54.6839 Y2.1807
G01 X54.6834 Y2.1707
G01 X54.6839 Y2.1553
G01 X54.6859 Y2.1401
G01 X54.6870 Y2.1348
G01 X54.6894 Y2.1251
G01 X54.6943 Y2.1106
G01 X54.7006 Y2.0966
G01 X54.7083 Y2.0833
G01 X54.7113 Y2.0788
G01 X54.7207 Y2.0666
G01 X54.7274 Y2.0592
G01 X54.7312 Y2.0554
G01 X54.7428 Y2.0452
G01 X54.7553 Y2.0363
G01 X54.7638 Y2.0312
G01 X54.7776 Y2.0244
G01 X54.7826 Y2.0223
G01 X54.7971 Y2.0174
G01 X54.8068 Y2.0150
G01 X54.8220 Y2.0124
G01 X54.8400 Y2.0113
G01 X55.6020 Y2.0113
G01 X55.6200 Y2.0124
G01 X55.6352 Y2.0150
G01 X55.6449 Y2.0174
G01 X55.6594 Y2.0223
G01 X55.6734 Y2.0286
G01 X55.6867 Y2.0363
G01 X55.6912 Y2.0393
G01 X55.7034 Y2.0487
G01 X55.7128 Y2.0572
G01 X55.9668 Y2.3112
G01 X55.9753 Y2.3206
G01 X55.9847 Y2.3328
G01 X55.9928 Y2.3458
G01 X55.9996 Y2.3596
G01 X56.0017 Y2.3646
G01 X56.0066 Y2.3791
G01 X56.0101 Y2.3941
G01 X56.0121 Y2.4093
G01 X56.0126 Y2.4193
G01 X56.0127 Y3.4380
G01 X56.0116 Y3.4560
G01 X56.0090 Y3.4712
G01 X56.0066 Y3.4809
G01 X56.0017 Y3.4954
G01 X55.9954 Y3.5094
G01 X55.9877 Y3.5227
G01 X55.9847 Y3.5272
G01 X55.9753 Y3.5394
G01 X55.9668 Y3.5488
G01 X55.7108 Y3.8046
G01 X55.7034 Y3.8113
G01 X55.6912 Y3.8207
G01 X55.6782 Y3.8288
G01 X55.6644 Y3.8356
G01 X55.6500 Y3.8411
G01 X55.6352 Y3.8450
G01 X55.6200 Y3.8476
G01 X55.6047 Y3.8486
G01 X54.8400 Y3.8487
G01 X54.8220 Y3.8476
G01 X54.8068 Y3.8450
G01 X54.7971 Y3.8426
G01 X54.7826 Y3.8377
G01 X54.7776 Y3.8356
G01 X54.7638 Y3.8288
G01 X54.7508 Y3.8207
G01 X54.7428 Y3.8148
G01 X54.7312 Y3.8046
G01 X54.4752 Y3.5488
G01 X54.4632 Y3.5352
G01 X54.4543 Y3.5227
G01 X54.4492 Y3.5142
G01 X54.4424 Y3.5004
G01 X54.4403 Y3.4954
G01 X54.4354 Y3.4809
G01 X54.4330 Y3.4712
G01 X54.4304 Y3.4560
G01 X54.4293 Y3.4380
G01 X54.4294 Y3.1813
G01 X54.4304 Y3.1660
G01 X54.4330 Y3.1508
G01 X54.4369 Y3.1360
G01 X54.4424 Y3.1216
G01 X54.4492 Y3.1078
G01 X54.4573 Y3.0948
G01 X54.4667 Y3.0826
G01 X54.4752 Y3.0732
G01 X54.7292 Y2.8192
G01 X54.7428 Y2.8072
G01 X54.7553 Y2.7983
G01 X54.7638 Y2.7932
G01 X54.7776 Y2.7864
G01 X54.7826 Y2.7843
G01 X54.7971 Y2.7794
G01 X54.8068 Y2.7770
G01 X54.8220 Y2.7744
G01 X54.8400 Y2.7733
G01 X55.6020 Y2.7733
G01 X55.6147 Y2.7739
G01 X55.6299 Y2.7759
G01 X55.6352 Y2.7770
G01 X55.6500 Y2.7809
G01 X55.6644 Y2.7864
G01 X55.6782 Y2.7932
G01 X55.6912 Y2.8013
G01 X55.6993 Y2.8073
G00 Z2.0000
G00 X55.6993 Y3.2489
G01 F25.00
G01 Z-0.0187
G01 F45.00
G01 X55.6993 Y3.3731
G01 X55.5371 Y3.5353
G01 X54.9049 Y3.5353
G01 X54.7427 Y3.3731
G01 X54.7427 Y3.2489
G01 X54.9049 Y3.0867
G01 X55.5371 Y3.0867
G01 X55.6993 Y3.2489
G00 Z2.0000
G00 X56.9369 Y3.0867
G01 F25.00
G01 Z-0.0187
G01 F45.00
G01 X57.5691 Y3.0867
G01 X57.7313 Y3.2489
G01 X57.7313 Y3.3731
G01 X57.5691 Y3.5353
G01 X56.9369 Y3.5353
G01 X56.7747 Y3.3731
G01 X56.7747 Y3.2489
G01 X56.9369 Y3.0867
G00 Z2.0000
G00 X57.5691 Y2.7733
G01 F25.00
G01 Z-0.0187
G01 F45.00
G01 X56.9369 Y2.7733
G01 X56.7747 Y2.6111
G01 X56.7747 Y2.4869
G01 X56.9369 Y2.3247
G01 X57.5691 Y2.3247
G01 X57.7313 Y2.4869
G01 X57.7313 Y2.6111
G01 X57.5691 Y2.7733
G00 Z2.0000
G00 X57.9988 Y2.3112
G01 F25.00
G01 Z-0.0187
G01 F45.00
G01 X58.0073 Y2.3206
G01 X58.0167 Y2.3328
G01 X58.0197 Y2.3373
G01 X58.0274 Y2.3506
G01 X58.0316 Y2.3596
G01 X58.0371 Y2.3740
G01 X58.0410 Y2.3888
G01 X58.0436 Y2.4040
G01 X58.0447 Y2.4220
G01 X58.0447 Y2.6760
G01 X58.0436 Y2.6940
G01 X58.0410 Y2.7092
G01 X58.0386 Y2.7189
G01 X58.0337 Y2.7334
G01 X58.0274 Y2.7474
G01 X58.0197 Y2.7607
G01 X58.0167 Y2.7652
G01 X58.0073 Y2.7774
G01 X57.9988 Y2.7868
G01 X57.8555 Y2.9300
G01 X57.9988 Y3.0732
G01 X58.0073 Y3.0826
G01 X58.0167 Y3.0948
G01 X58.0197 Y3.0993
G01 X58.0274 Y3.1126
G01 X58.0337 Y3.1266
G01 X58.0386 Y3.1411
G01 X58.0410 Y3.1508
G01 X58.0436 Y3.1660
G01 X58.0447 Y3.1840
G01 X58.0447 Y3.4380
G01 X58.0441 Y3.4507
G01 X58.0421 Y3.4659
G01 X58.0410 Y3.4712
G01 X58.0386 Y3.4809
G01 X58.0337 Y3.4954
G01 X58.0316 Y3.5004
G01 X58.0248 Y3.5142
G01 X58.0167 Y3.5272
G01 X58.0108 Y3.5352
G01 X57.9988 Y3.5488
G01 X57.7448 Y3.8028
G01 X57.7354 Y3.8113
G01 X57.7232 Y3.8207
G01 X57.7187 Y3.8237
G01 X57.7054 Y3.8314
G01 X57.6914 Y3.8377
G01 X57.6769 Y3.8426
G01 X57.6672 Y3.8450
G01 X57.6520 Y3.8476
G01 X57.6340 Y3.8487
G01 X56.8693 Y3.8486
G01 X56.8593 Y3.8481
G01 X56.8441 Y3.8461
G01 X56.8291 Y3.8426
G01 X56.8146 Y3.8377
G01 X56.8096 Y3.8356
G01 X56.7958 Y3.8288
G01 X56.7828 Y3.8207
G01 X56.7748 Y3.8148
G01 X56.7612 Y3.8028
G01 X56.5072 Y3.5488
G01 X56.4987 Y3.5394
G01 X56.4893 Y3.5272
G01 X56.4863 Y3.5227
G01 X56.4786 Y3.5094
G01 X56.4744 Y3.5004
G01 X56.4689 Y3.4860
G01 X56.4650 Y3.4712
G01 X56.4639 Y3.4659
G01 X56.4619 Y3.4507
G01 X56.4613 Y3.4380
G01 X56.4613 Y3.1840
G01 X56.4619 Y3.1713
G01 X56.4639 Y3.1561
G01 X56.4650 Y3.1508
G01 X56.4689 Y3.1360
G01 X56.4744 Y3.1216
G01 X56.4812 Y3.1078
G01 X56.4893 Y3.0948
G01 X56.4987 Y3.0826
G01 X56.5072 Y3.0732
G01 X56.6505 Y2.9300
G01 X56.5072 Y2.7868
G01 X56.4987 Y2.7774
G01 X56.4893 Y2.7652
G01 X56.4863 Y2.7607
G01 X56.4786 Y2.7474
G01 X56.4723 Y2.7334
G01 X56.4674 Y2.7189
G01 X56.4650 Y2.7092
G01 X56.4624 Y2.6940
G01 X56.4613 Y2.6760
G01 X56.4613 Y2.4220
G01 X56.4619 Y2.4093
G01 X56.4639 Y2.3941
G01 X56.4650 Y2.3888
G01 X56.4674 Y2.3791
G01 X56.4723 Y2.3646
G01 X56.4744 Y2.3596
G01 X56.4812 Y2.3458
G01 X56.4893 Y2.3328
G01 X56.4952 Y2.3248
G01 X56.5072 Y2.3112
G01 X56.7612 Y2.0572
G01 X56.7706 Y2.0487
G01 X56.7828 Y2.0393
G01 X56.7958 Y2.0312
G01 X56.8096 Y2.0244
G01 X56.8146 Y2.0223
G01 X56.8291 Y2.0174
G01 X56.8441 Y2.0139
G01 X56.8593 Y2.0119
G01 X56.8720 Y2.0113
G01 X57.6340 Y2.0113
G01 X57.6520 Y2.0124
G01 X57.6672 Y2.0150
G01 X57.6769 Y2.0174
G01 X57.6914 Y2.0223
G01 X57.6964 Y2.0244
G01 X57.7102 Y2.0312
G01 X57.7232 Y2.0393
G01 X57.7312 Y2.0452
G01 X57.7428 Y2.0554
G01 X57.9988 Y2.3112
G00 Z2.0000
G00 X60.0308 Y3.3272
G01 F25.00
G01 Z-0.0187
G01 F45.00
G01 X60.0393 Y3.3366
G01 X60.0487 Y3.3488
G01 X60.0517 Y3.3533
G01 X60.0594 Y3.3666
G01 X60.0636 Y3.3756
G01 X60.0691 Y3.3900
G01 X60.0730 Y3.4048
G01 X60.0756 Y3.4200
G01 X60.0767 Y3.4380
G01 X60.0767 Y3.6920
G01 X60.0756 Y3.7100
G01 X60.0730 Y3.7252
G01 X60.0706 Y3.7349
G01 X60.0657 Y3.7494
G01 X60.0636 Y3.7544
G01 X60.0594 Y3.7634
G01 X60.0517 Y3.7767
G01 X60.0487 Y3.7812
G01 X60.0393 Y3.7934
G01 X60.0288 Y3.8046
G01 X60.0214 Y3.8113
G01 X60.0092 Y3.8207
G01 X60.0047 Y3.8237
G01 X59.9914 Y3.8314
G01 X59.9824 Y3.8356
G01 X59.9680 Y3.8411
G01 X59.9532 Y3.8450
G01 X59.9479 Y3.8461
G01 X59.9327 Y3.8481
G01 X59.9200 Y3.8487
G01 X58.6500 Y3.8487
G01 X58.6373 Y3.8481
G01 X58.6221 Y3.8461
G01 X58.6071 Y3.8426
G01 X58.5926 Y3.8377
G01 X58.5876 Y3.8356
G01 X58.5738 Y3.8288
G01 X58.5608 Y3.8207
G01 X58.5486 Y3.8113
G01 X58.5374 Y3.8008
G01 X58.5307 Y3.7934
G01 X58.5213 Y3.7812
G01 X58.5183 Y3.7767
G01 X58.5106 Y3.7634
G01 X58.5064 Y3.7544
G01 X58.5009 Y3.7400
G01 X58.4970 Y3.7252
G01 X58.4959 Y3.7199
G01 X58.4939 Y3.7047
G01 X58.4934 Y3.6947
G01 X58.4939 Y3.6793
G01 X58.4944 Y3.6740
G01 X58.4970 Y3.6588
G01 X58.4994 Y3.6491
G01 X58.5043 Y3.6346
G01 X58.5106 Y3.6206
G01 X58.5183 Y3.6073
G01 X58.5213 Y3.6028
G01 X58.5307 Y3.5906
G01 X58.5374 Y3.5832
G01 X58.5412 Y3.5794
G01 X58.5528 Y3.5692
G01 X58.5653 Y3.5603
G01 X58.5738 Y3.5552
G01 X58.5876 Y3.5484
G01 X58.5926 Y3.5463
G01 X58.6071 Y3.5414
G01 X58.6168 Y3.5390
G01 X58.6320 Y3.5364
G01 X58.6500 Y3.5353
G01 X59.7633 Y3.5353
G01 X59.7633 Y3.5029
G01 X58.5392 Y2.2788
G01 X58.5307 Y2.2694
G01 X58.5213 Y2.2572
G01 X58.5132 Y2.2442
G01 X58.5064 Y2.2304
G01 X58.5043 Y2.2254
G01 X58.4994 Y2.2109
G01 X58.4959 Y2.1959
G01 X58.4939 Y2.1807
G01 X58.4934 Y2.1653
G01 X58.4939 Y2.1553
G01 X58.4959 Y2.1401
G01 X58.4994 Y2.1251
G01 X58.5043 Y2.1106
G01 X58.5064 Y2.1056
G01 X58.5132 Y2.0918
G01 X58.5213 Y2.0788
G01 X58.5307 Y2.0666
G01 X58.5412 Y2.0554
G01 X58.5528 Y2.0452
G01 X58.5653 Y2.0363
G01 X58.5786 Y2.0286
G01 X58.5926 Y2.0223
G01 X58.6071 Y2.0174
G01 X58.6221 Y2.0139
G01 X58.6373 Y2.0119
G01 X58.6527 Y2.0114
G01 X58.6680 Y2.0124
G01 X58.6832 Y2.0150
G01 X58.6980 Y2.0189
G01 X58.7124 Y2.0244
G01 X58.7262 Y2.0312
G01 X58.7392 Y2.0393
G01 X58.7514 Y2.0487
G01 X58.7608 Y2.0572
G01 X60.0308 Y3.3272
G00 Z2.0000
G00 X62.0628 Y3.3272
G01 F25.00
G01 Z-0.0187
G01 F45.00
G01 X62.0713 Y3.3366
G01 X62.0807 Y3.3488
G01 X62.0837 Y3.3533
G01 X62.0914 Y3.3666
G01 X62.0956 Y3.3756
G01 X62.1011 Y3.3900
G01 X62.1050 Y3.4048
G01 X62.1076 Y3.4200
G01 X62.1087 Y3.4380
G01 X62.1087 Y3.6920
G01 X62.1076 Y3.7100
G01 X62.1050 Y3.7252
G01 X62.1026 Y3.7349
G01 X62.0977 Y3.7494
G01 X62.0956 Y3.7544
G01 X62.0914 Y3.7634
G01 X62.0837 Y3.7767
G01 X62.0807 Y3.7812
G01 X62.0713 Y3.7934
G01 X62.0608 Y3.8046
G01 X62.0534 Y3.8113
G01 X62.0412 Y3.8207
G01 X62.0367 Y3.8237
G01 X62.0234 Y3.8314
G01 X62.0144 Y3.8356
G01 X62.0000 Y3.8411
G01 X61.9852 Y3.8450
G01 X61.9799 Y3.8461
G01 X61.9647 Y3.8481
G01 X61.9520 Y3.8487
G01 X60.6820 Y3.8487
G01 X60.6693 Y3.8481
G01 X60.6541 Y3.8461
G01 X60.6391 Y3.8426
G01 X60.6246 Y3.8377
G01 X60.6196 Y3.8356
G01 X60.6058 Y3.8288
G01 X60.5928 Y3.8207
G01 X60.5806 Y3.8113
G01 X60.5694 Y3.8008
G01 X60.5627 Y3.7934
G01 X60.5533 Y3.7812
G01 X60.5503 Y3.7767
G01 X60.5426 Y3.7634
G01 X60.5384 Y3.7544
G01 X60.5329 Y3.7400
G01 X60.5290 Y3.7252
G01 X60.5279 Y3.7199
G01 X60.5259 Y3.7047
G01 X60.5254 Y3.6947
G01 X60.5259 Y3.6793
G01 X60.5264 Y3.6740
G01 X60.5290 Y3.6588
G01 X60.5314 Y3.6491
G01 X60.5363 Y3.6346
G01 X60.5426 Y3.6206
G01 X60.5503 Y3.6073
G01 X60.5533 Y3.6028
G01 X60.5627 Y3.5906
G01 X60.5694 Y3.5832
G01 X60.5732 Y3.5794
G01 X60.5848 Y3.5692
G01 X60.5973 Y3.5603
G01 X60.6058 Y3.5552
G01 X60.6196 Y3.5484
G01 X60.6246 Y3.5463
G01 X60.6391 Y3.5414
G01 X60.6488 Y3.5390
G01 X60.6640 Y3.5364
G01 X60.6820 Y3.5353
G01 X61.7953 Y3.5353
G01 X61.7953 Y3.5029
G01 X60.5712 Y2.2788
G01 X60.5627 Y2.2694
G01 X60.5533 Y2.2572
G01 X60.5452 Y2.2442
G01 X60.5384 Y2.2304
G01 X60.5363 Y2.2254
G01 X60.5314 Y2.2109
G01 X60.5279 Y2.1959
G01 X60.5259 Y2.1807
G01 X60.5254 Y2.1653
G01 X60.5259 Y2.1553
G01 X60.5279 Y2.1401
G01 X60.5314 Y2.1251
G01 X60.5363 Y2.1106
G01 X60.5384 Y2.1056
G01 X60.5452 Y2.0918
G01 X60.5533 Y2.0788
G01 X60.5627 Y2.0666
G01 X60.5732 Y2.0554
G01 X60.5848 Y2.0452
G01 X60.5973 Y2.0363
G01 X60.6106 Y2.0286
G01 X60.6246 Y2.0223
G01 X60.6391 Y2.0174
G01 X60.6541 Y2.0139
G01 X60.6693 Y2.0119
G01 X60.6847 Y2.0114
G01 X60.7000 Y2.0124
G01 X60.7152 Y2.0150
G01 X60.7300 Y2.0189
G01 X60.7444 Y2.0244
G01 X60.7582 Y2.0312
G01 X60.7712 Y2.0393
G01 X60.7834 Y2.0487
G01 X60.7928 Y2.0572
G01 X62.0628 Y3.3272
G00 Z2.0000
G00 X63.8273 Y3.2489
G01 F25.00
G01 Z-0.0187
G01 F45.00
G01 X63.8273 Y3.3731
G01 X63.6651 Y3.5353
G01 X63.0329 Y3.5353
G01 X62.8707 Y3.3731
G01 X62.8707 Y3.2489
G01 X63.0329 Y3.0867
G01 X63.6651 Y3.0867
G01 X63.8273 Y3.2489
G00 Z2.0000
G00 X63.8273 Y2.8073
G01 F25.00
G01 Z-0.0187
G01 F45.00
G01 X63.8273 Y2.4869
G01 X63.6651 Y2.3247
G01 X62.9680 Y2.3247
G01 X62.9553 Y2.3241
G01 X62.9401 Y2.3221
G01 X62.9251 Y2.3186
G01 X62.9106 Y2.3137
G01 X62.9056 Y2.3116
G01 X62.8918 Y2.3048
G01 X62.8788 Y2.2967
G01 X62.8708 Y2.2908
G01 X62.8592 Y2.2806
G01 X62.8554 Y2.2768
G01 X62.8487 Y2.2694
G01 X62.8393 Y2.2572
G01 X62.8363 Y2.2527
G01 X62.8286 Y2.2394
G01 X62.8223 Y2.2254
G01 X62.8174 Y2.2109
G01 X62.8150 Y2.2012
G01 X62.8139 Y2.1959
G01 X62.8119 Y2.1807
G01 X62.8114 Y2.1707
G01 X62.8119 Y2.1553
G01 X62.8139 Y2.1401
G01 X62.8150 Y2.1348
G01 X62.8174 Y2.1251
G01 X62.8223 Y2.1106
G01 X62.8286 Y2.0966
G01 X62.8363 Y2.0833
G01 X62.8393 Y2.0788
G01 X62.8487 Y2.0666
G01 X62.8554 Y2.0592
G01 X62.8592 Y2.0554
G01 X62.8708 Y2.0452
G01 X62.8833 Y2.0363
G01 X62.8918 Y2.0312
G01 X62.9056 Y2.0244
G01 X62.9106 Y2.0223
G01 X62.9251 Y2.0174
G01 X62.9348 Y2.0150
G01 X62.9500 Y2.0124
G01 X62.9680 Y2.0113
G01 X63.7300 Y2.0113
G01 X63.7480 Y2.0124
G01 X63.7632 Y2.0150
G01 X63.7729 Y2.0174
G01 X63.7874 Y2.0223
G01 X63.8014 Y2.0286
G01 X63.8147 Y2.0363
G01 X63.8192 Y2.0393
G01 X63.8314 Y2.0487
G01 X63.8408 Y2.0572
G01 X64.0948 Y2.3112
G01 X64.1033 Y2.3206
G01 X64.1127 Y2.3328
G01 X64.1208 Y2.3458
G01 X64.1276 Y2.3596
G01 X64.1297 Y2.3646
G01 X64.1346 Y2.3791
G01 X64.1381 Y2.3941
G01 X64.1401 Y2.4093
G01 X64.1406 Y2.4193
G01 X64.1407 Y3.4380
G01 X64.1396 Y3.4560
G01 X64.1370 Y3.4712
G01 X64.1346 Y3.4809
G01 X64.1297 Y3.4954
G01 X64.1234 Y3.5094
G01 X64.1157 Y3.5227
G01 X64.1127 Y3.5272
G01 X64.1033 Y3.5394
G01 X64.0948 Y3.5488
G01 X63.8388 Y3.8046
G01 X63.8314 Y3.8113
G01 X63.8192 Y3.8207
G01 X63.8062 Y3.8288
G01 X63.7924 Y3.8356
G01 X63.7780 Y3.8411
G01 X63.7632 Y3.8450
G01 X63.7480 Y3.8476
G01 X63.7327 Y3.8486
G01 X62.9680 Y3.8487
G01 X62.9500 Y3.8476
G01 X62.9348 Y3.8450
G01 X62.9251 Y3.8426
G01 X62.9106 Y3.8377
G01 X62.9056 Y3.8356
G01 X62.8918 Y3.8288
G01 X62.8788 Y3.8207
G01 X62.8708 Y3.8148
G01 X62.8592 Y3.8046
G01 X62.6032 Y3.5488
G01 X62.5912 Y3.5352
G01 X62.5823 Y3.5227
G01 X62.5772 Y3.5142
G01 X62.5704 Y3.5004
G01 X62.5683 Y3.4954
G01 X62.5634 Y3.4809
G01 X62.5610 Y3.4712
G01 X62.5584 Y3.4560
G01 X62.5573 Y3.4380
G01 X62.5574 Y3.1813
G01 X62.5584 Y3.1660
G01 X62.5610 Y3.1508
G01 X62.5649 Y3.1360
G01 X62.5704 Y3.1216
G01 X62.5772 Y3.1078
G01 X62.5853 Y3.0948
G01 X62.5947 Y3.0826
G01 X62.6032 Y3.0732
G01 X62.8572 Y2.8192
G01 X62.8708 Y2.8072
G01 X62.8833 Y2.7983
G01 X62.8918 Y2.7932
G01 X62.9056 Y2.7864
G01 X62.9106 Y2.7843
G01 X62.9251 Y2.7794
G01 X62.9348 Y2.7770
G01 X62.9500 Y2.7744
G01 X62.9680 Y2.7733
G01 X63.7300 Y2.7733
G01 X63.7427 Y2.7739
G01 X63.7579 Y2.7759
G01 X63.7632 Y2.7770
G01 X63.7780 Y2.7809
G01 X63.7924 Y2.7864
G01 X63.8062 Y2.7932
G01 X63.8192 Y2.8013
G01 X63.8273 Y2.8073
G00 Z2.0000
G00 X66.1268 Y3.0732
G01 F25.00
G01 Z-0.0187
G01 F45.00
G01 X66.1353 Y3.0826
G01 X66.1447 Y3.0948
G01 X66.1528 Y3.1078
G01 X66.1596 Y3.1216
G01 X66.1651 Y3.1360
G01 X66.1690 Y3.1508
G01 X66.1701 Y3.1561
G01 X66.1721 Y3.1713
G01 X66.1727 Y3.1840
G01 X66.1726 Y3.4407
G01 X66.1721 Y3.4507
G01 X66.1701 Y3.4659
G01 X66.1666 Y3.4809
G01 X66.1617 Y3.4954
G01 X66.1554 Y3.5094
G01 X66.1477 Y3.5227
G01 X66.1388 Y3.5352
G01 X66.1268 Y3.5488
G01 X65.8728 Y3.8028
G01 X65.8592 Y3.8148
G01 X65.8467 Y3.8237
G01 X65.8334 Y3.8314
G01 X65.8244 Y3.8356
G01 X65.8194 Y3.8377
G01 X65.8049 Y3.8426
G01 X65.7952 Y3.8450
G01 X65.7800 Y3.8476
G01 X65.7620 Y3.8487
G01 X64.9973 Y3.8486
G01 X64.9820 Y3.8476
G01 X64.9668 Y3.8450
G01 X64.9571 Y3.8426
G01 X64.9426 Y3.8377
G01 X64.9376 Y3.8356
G01 X64.9286 Y3.8314
G01 X64.9153 Y3.8237
G01 X64.9028 Y3.8148
G01 X64.8892 Y3.8028
G01 X64.6352 Y3.5488
G01 X64.6267 Y3.5394
G01 X64.6173 Y3.5272
G01 X64.6143 Y3.5227
G01 X64.6066 Y3.5094
G01 X64.6024 Y3.5004
G01 X64.5969 Y3.4860
G01 X64.5930 Y3.4712
G01 X64.5904 Y3.4560
G01 X64.5894 Y3.4407
G01 X64.5899 Y3.4253
G01 X64.5919 Y3.4101
G01 X64.5954 Y3.3951
G01 X64.6003 Y3.3806
G01 X64.6024 Y3.3756
G01 X64.6092 Y3.3618
G01 X64.6173 Y3.3488
G01 X64.6267 Y3.3366
G01 X64.6372 Y3.3254
G01 X64.6488 Y3.3152
G01 X64.6613 Y3.3063
G01 X64.6746 Y3.2986
G01 X64.6836 Y3.2944
G01 X64.6980 Y3.2889
G01 X64.7128 Y3.2850
G01 X64.7181 Y3.2839
G01 X64.7333 Y3.2819
G01 X64.7433 Y3.2814
G01 X64.7587 Y3.2819
G01 X64.7640 Y3.2824
G01 X64.7792 Y3.2850
G01 X64.7889 Y3.2874
G01 X64.8034 Y3.2923
G01 X64.8084 Y3.2944
G01 X64.8222 Y3.3012
G01 X64.8352 Y3.3093
G01 X64.8432 Y3.3152
G01 X64.8568 Y3.3272
G01 X65.0649 Y3.5353
G01 X65.6971 Y3.5353
G01 X65.8593 Y3.3731
G01 X65.8593 Y3.2489
G01 X65.6971 Y3.0867
G01 X65.0000 Y3.0867
G01 X64.9873 Y3.0861
G01 X64.9721 Y3.0841
G01 X64.9668 Y3.0830
G01 X64.9520 Y3.0791
G01 X64.9376 Y3.0736
G01 X64.9238 Y3.0668
G01 X64.9108 Y3.0587
G01 X64.8986 Y3.0493
G01 X64.8912 Y3.0426
G01 X64.6334 Y2.7848
G01 X64.6232 Y2.7732
G01 X64.6143 Y2.7607
G01 X64.6092 Y2.7522
G01 X64.6024 Y2.7384
G01 X64.6003 Y2.7334
G01 X64.5954 Y2.7189
G01 X64.5930 Y2.7092
G01 X64.5904 Y2.6940
G01 X64.5893 Y2.6760
G01 X64.5894 Y2.1653
G01 X64.5904 Y2.1500
G01 X64.5930 Y2.1348
G01 X64.5954 Y2.1251
G01 X64.6003 Y2.1106
G01 X64.6024 Y2.1056
G01 X64.6066 Y2.0966
G01 X64.6143 Y2.0833
G01 X64.6173 Y2.0788
G01 X64.6267 Y2.0666
G01 X64.6372 Y2.0554
G01 X64.6446 Y2.0487
G01 X64.6568 Y2.0393
G01 X64.6698 Y2.0312
G01 X64.6836 Y2.0244
G01 X64.6886 Y2.0223
G01 X64.7031 Y2.0174
G01 X64.7128 Y2.0150
G01 X64.7280 Y2.0124
G01 X64.7433 Y2.0114
G01 X66.0160 Y2.0113
G01 X66.0340 Y2.0124
G01 X66.0492 Y2.0150
G01 X66.0589 Y2.0174
G01 X66.0734 Y2.0223
G01 X66.0784 Y2.0244
G01 X66.0874 Y2.0286
G01 X66.1007 Y2.0363
G01 X66.1052 Y2.0393
G01 X66.1174 Y2.0487
G01 X66.1286 Y2.0592
G01 X66.1353 Y2.0666
G01 X66.1447 Y2.0788
G01 X66.1477 Y2.0833
G01 X66.1554 Y2.0966
G01 X66.1596 Y2.1056
G01 X66.1617 Y2.1106
G01 X66.1666 Y2.1251
G01 X66.1690 Y2.1348
G01 X66.1716 Y2.1500
G01 X66.1721 Y2.1553
G01 X66.1726 Y2.1707
G01 X66.1721 Y2.1807
G01 X66.1701 Y2.1959
G01 X66.1690 Y2.2012
G01 X66.1651 Y2.2160
G01 X66.1596 Y2.2304
G01 X66.1554 Y2.2394
G01 X66.1477 Y2.2527
G01 X66.1447 Y2.2572
G01 X66.1353 Y2.2694
G01 X66.1286 Y2.2768
G01 X66.1248 Y2.2806
G01 X66.1132 Y2.2908
G01 X66.1007 Y2.2997
G01 X66.0922 Y2.3048
G01 X66.0784 Y2.3116
G01 X66.0734 Y2.3137
G01 X66.0589 Y2.3186
G01 X66.0492 Y2.3210
G01 X66.0340 Y2.3236
G01 X66.0160 Y2.3247
G01 X64.9027 Y2.3247
G01 X64.9027 Y2.6111
G01 X65.0649 Y2.7733
G01 X65.7620 Y2.7733
G01 X65.7747 Y2.7739
G01 X65.7899 Y2.7759
G01 X65.8049 Y2.7794
G01 X65.8194 Y2.7843
G01 X65.8334 Y2.7906
G01 X65.8467 Y2.7983
G01 X65.8592 Y2.8072
G01 X65.8708 Y2.8174
G01 X66.1268 Y3.0732
G00 Z2.0000
G00 X67.8913 Y3.2489
G01 F25.00
G01 Z-0.0187
G01 F45.00
G01 X67.8913 Y3.3731
G01 X67.7291 Y3.5353
G01 X67.0969 Y3.5353
G01 X66.9347 Y3.3731
G01 X66.9347 Y3.2489
G01 X67.0969 Y3.0867
G01 X67.7291 Y3.0867
G01 X67.8913 Y3.2489
G00 Z2.0000
G00 X67.8913 Y2.8073
G01 F25.00
G01 Z-0.0187
G01 F45.00
G01 X67.8913 Y2.4869
G01 X67.7291 Y2.3247
G01 X67.0320 Y2.3247
G01 X67.0193 Y2.3241
G01 X67.0041 Y2.3221
G01 X66.9891 Y2.3186
G01 X66.9746 Y2.3137
G01 X66.9696 Y2.3116
G01 X66.9558 Y2.3048
G01 X66.9428 Y2.2967
G01 X66.9348 Y2.2908
G01 X66.9232 Y2.2806
G01 X66.9194 Y2.2768
G01 X66.9127 Y2.2694
G01 X66.9033 Y2.2572
G01 X66.9003 Y2.2527
G01 X66.8926 Y2.2394
G01 X66.8863 Y2.2254
G01 X66.8814 Y2.2109
G01 X66.8790 Y2.2012
G01 X66.8779 Y2.1959
G01 X66.8759 Y2.1807
G01 X66.8754 Y2.1707
G01 X66.8759 Y2.1553
G01 X66.8779 Y2.1401
G01 X66.8790 Y2.1348
G01 X66.8814 Y2.1251
G01 X66.8863 Y2.1106
G01 X66.8926 Y2.0966
G01 X66.9003 Y2.0833
G01 X66.9033 Y2.0788
G01 X66.9127 Y2.0666
G01 X66.9194 Y2.0592
G01 X66.9232 Y2.0554
G01 X66.9348 Y2.0452
G01 X66.9473 Y2.0363
G01 X66.9558 Y2.0312
G01 X66.9696 Y2.0244
G01 X66.9746 Y2.0223
G01 X66.9891 Y2.0174
G01 X66.9988 Y2.0150
G01 X67.0140 Y2.0124
G01 X67.0320 Y2.0113
G01 X67.7940 Y2.0113
G01 X67.8120 Y2.0124
G01 X67.8272 Y2.0150
G01 X67.8369 Y2.0174
G01 X67.8514 Y2.0223
G01 X67.8654 Y2.0286
G01 X67.8787 Y2.0363
G01 X67.8832 Y2.0393
G01 X67.8954 Y2.0487
G01 X67.9048 Y2.0572
G01 X68.1588 Y2.3112
G01 X68.1673 Y2.3206
G01 X68.1767 Y2.3328
G01 X68.1848 Y2.3458
G01 X68.1916 Y2.3596
G01 X68.1937 Y2.3646
G01 X68.1986 Y2.3791
G01 X68.2021 Y2.3941
G01 X68.2041 Y2.4093
G01 X68.2046 Y2.4193
G01 X68.2047 Y3.4380
G01 X68.2036 Y3.4560
G01 X68.2010 Y3.4712
G01 X68.1986 Y3.4809
G01 X68.1937 Y3.4954
G01 X68.1874 Y3.5094
G01 X68.1797 Y3.5227
G01 X68.1767 Y3.5272
G01 X68.1673 Y3.5394
G01 X68.1588 Y3.5488
G01 X67.9028 Y3.8046
G01 X67.8954 Y3.8113
G01 X67.8832 Y3.8207
G01 X67.8702 Y3.8288
G01 X67.8564 Y3.8356
G01 X67.8420 Y3.8411
G01 X67.8272 Y3.8450
G01 X67.8120 Y3.8476
G01 X67.7967 Y3.8486
G01 X67.0320 Y3.8487
G01 X67.0140 Y3.8476
G01 X66.9988 Y3.8450
G01 X66.9891 Y3.8426
G01 X66.9746 Y3.8377
G01 X66.9696 Y3.8356
G01 X66.9558 Y3.8288
G01 X66.9428 Y3.8207
G01 X66.9348 Y3.8148
G01 X66.9232 Y3.8046
G01 X66.6672 Y3.5488
G01 X66.6552 Y3.5352
G01 X66.6463 Y3.5227
G01 X66.6412 Y3.5142
G01 X66.6344 Y3.5004
G01 X66.6323 Y3.4954
G01 X66.6274 Y3.4809
G01 X66.6250 Y3.4712
G01 X66.6224 Y3.4560
G01 X66.6213 Y3.4380
G01 X66.6214 Y3.1813
G01 X66.6224 Y3.1660
G01 X66.6250 Y3.1508
G01 X66.6289 Y3.1360
G01 X66.6344 Y3.1216
G01 X66.6412 Y3.1078
G01 X66.6493 Y3.0948
G01 X66.6587 Y3.0826
G01 X66.6672 Y3.0732
G01 X66.9212 Y2.8192
G01 X66.9348 Y2.8072
G01 X66.9473 Y2.7983
G01 X66.9558 Y2.7932
G01 X66.9696 Y2.7864
G01 X66.9746 Y2.7843
G01 X66.9891 Y2.7794
G01 X66.9988 Y2.7770
G01 X67.0140 Y2.7744
G01 X67.0320 Y2.7733
G01 X67.7940 Y2.7733
G01 X67.8067 Y2.7739
G01 X67.8219 Y2.7759
G01 X67.8272 Y2.7770
G01 X67.8420 Y2.7809
G01 X67.8564 Y2.7864
G01 X67.8702 Y2.7932
G01 X67.8832 Y2.8013
G01 X67.8913 Y2.8073
G00 Z2.0000
G00 X70.1908 Y2.3112
G01 F25.00
G01 Z-0.0187
G01 F45.00
G01 X70.1993 Y2.3206
G01 X70.2087 Y2.3328
G01 X70.2168 Y2.3458
G01 X70.2236 Y2.3596
G01 X70.2291 Y2.3740
G01 X70.2330 Y2.3888
G01 X70.2341 Y2.3941
G01 X70.2361 Y2.4093
G01 X70.2367 Y2.4220
G01 X70.2367 Y2.9300
G01 X70.2356 Y2.9480
G01 X70.2330 Y2.9632
G01 X70.2306 Y2.9729
G01 X70.2257 Y2.9874
G01 X70.2236 Y2.9924
G01 X70.2168 Y3.0062
G01 X70.2087 Y3.0192
G01 X70.2028 Y3.0272
G01 X70.1926 Y3.0388
G01 X69.9368 Y3.2948
G01 X69.9274 Y3.3033
G01 X69.9152 Y3.3127
G01 X69.9022 Y3.3208
G01 X69.8884 Y3.3276
G01 X69.8740 Y3.3331
G01 X69.8592 Y3.3370
G01 X69.8440 Y3.3396
G01 X69.8287 Y3.3406
G01 X68.9667 Y3.3407
G01 X68.9667 Y3.5353
G01 X70.0800 Y3.5353
G01 X70.0980 Y3.5364
G01 X70.1132 Y3.5390
G01 X70.1229 Y3.5414
G01 X70.1374 Y3.5463
G01 X70.1514 Y3.5526
G01 X70.1647 Y3.5603
G01 X70.1692 Y3.5633
G01 X70.1814 Y3.5727
G01 X70.1888 Y3.5794
G01 X70.1993 Y3.5906
G01 X70.2087 Y3.6028
G01 X70.2117 Y3.6073
G01 X70.2194 Y3.6206
G01 X70.2236 Y3.6296
G01 X70.2291 Y3.6440
G01 X70.2330 Y3.6588
G01 X70.2341 Y3.6641
G01 X70.2361 Y3.6793
G01 X70.2366 Y3.6893
G01 X70.2361 Y3.7047
G01 X70.2356 Y3.7100
G01 X70.2330 Y3.7252
G01 X70.2306 Y3.7349
G01 X70.2257 Y3.7494
G01 X70.2194 Y3.7634
G01 X70.2117 Y3.7767
G01 X70.2087 Y3.7812
G01 X70.1993 Y3.7934
G01 X70.1926 Y3.8008
G01 X70.1814 Y3.8113
G01 X70.1692 Y3.8207
G01 X70.1562 Y3.8288
G01 X70.1424 Y3.8356
G01 X70.1280 Y3.8411
G01 X70.1132 Y3.8450
G01 X70.0980 Y3.8476
G01 X70.0800 Y3.8487
G01 X68.8073 Y3.8486
G01 X68.7973 Y3.8481
G01 X68.7821 Y3.8461
G01 X68.7671 Y3.8426
G01 X68.7526 Y3.8377
G01 X68.7386 Y3.8314
G01 X68.7253 Y3.8237
G01 X68.7128 Y3.8148
G01 X68.7012 Y3.8046
G01 X68.6907 Y3.7934
G01 X68.6813 Y3.7812
G01 X68.6732 Y3.7682
G01 X68.6664 Y3.7544
G01 X68.6609 Y3.7400
G01 X68.6570 Y3.7252
G01 X68.6544 Y3.7100
G01 X68.6533 Y3.6920
G01 X68.6533 Y3.1840
G01 X68.6539 Y3.1713
G01 X68.6559 Y3.1561
G01 X68.6570 Y3.1508
G01 X68.6609 Y3.1360
G01 X68.6664 Y3.1216
G01 X68.6706 Y3.1126
G01 X68.6783 Y3.0993
G01 X68.6872 Y3.0868
G01 X68.6974 Y3.0752
G01 X68.7086 Y3.0647
G01 X68.7208 Y3.0553
G01 X68.7338 Y3.0472
G01 X68.7476 Y3.0404
G01 X68.7620 Y3.0349
G01 X68.7768 Y3.0310
G01 X68.7920 Y3.0284
G01 X68.8073 Y3.0274
G01 X69.7611 Y3.0273
G01 X69.9233 Y2.8651
G01 X69.9233 Y2.4869
G01 X69.7611 Y2.3247
G01 X69.1289 Y2.3247
G01 X68.9208 Y2.5328
G01 X68.9072 Y2.5448
G01 X68.8947 Y2.5537
G01 X68.8814 Y2.5614
G01 X68.8674 Y2.5677
G01 X68.8529 Y2.5726
G01 X68.8379 Y2.5761
G01 X68.8227 Y2.5781
G01 X68.8073 Y2.5786
G01 X68.7920 Y2.5776
G01 X68.7768 Y2.5750
G01 X68.7671 Y2.5726
G01 X68.7526 Y2.5677
G01 X68.7476 Y2.5656
G01 X68.7386 Y2.5614
G01 X68.7253 Y2.5537
G01 X68.7208 Y2.5507
G01 X68.7086 Y2.5413
G01 X68.6974 Y2.5308
G01 X68.6907 Y2.5234
G01 X68.6813 Y2.5112
G01 X68.6783 Y2.5067
G01 X68.6706 Y2.4934
G01 X68.6664 Y2.4844
G01 X68.6609 Y2.4700
G01 X68.6570 Y2.4552
G01 X68.6559 Y2.4499
G01 X68.6539 Y2.4347
G01 X68.6534 Y2.4247
G01 X68.6539 Y2.4093
G01 X68.6544 Y2.4040
G01 X68.6570 Y2.3888
G01 X68.6594 Y2.3791
G01 X68.6643 Y2.3646
G01 X68.6664 Y2.3596
G01 X68.6732 Y2.3458
G01 X68.6813 Y2.3328
G01 X68.6872 Y2.3248
G01 X68.6992 Y2.3112
G01 X68.9532 Y2.0572
G01 X68.9626 Y2.0487
G01 X68.9748 Y2.0393
G01 X68.9878 Y2.0312
G01 X69.0016 Y2.0244
G01 X69.0066 Y2.0223
G01 X69.0211 Y2.0174
G01 X69.0361 Y2.0139
G01 X69.0513 Y2.0119
G01 X69.0640 Y2.0113
G01 X69.8260 Y2.0113
G01 X69.8440 Y2.0124
G01 X69.8592 Y2.0150
G01 X69.8689 Y2.0174
G01 X69.8834 Y2.0223
G01 X69.8884 Y2.0244
G01 X69.9022 Y2.0312
G01 X69.9152 Y2.0393
G01 X69.9232 Y2.0452
G01 X69.9348 Y2.0554
G01 X70.1908 Y2.3112
G00 Z2.0000
G00 X71.4473 Y2.8327
G01 F25.00
G01 Z-0.0187
G01 F45.00
G01 X71.4473 Y3.3138
G01 X70.9662 Y2.8327
G01 X71.4473 Y2.8327
G00 Z2.0000
G00 X71.7607 Y2.5193
G01 F25.00
G01 Z-0.0187
G01 F45.00
G01 X72.1120 Y2.5193
G01 X72.1247 Y2.5199
G01 X72.1399 Y2.5219
G01 X72.1452 Y2.5230
G01 X72.1600 Y2.5269
G01 X72.1744 Y2.5324
G01 X72.1834 Y2.5366
G01 X72.1967 Y2.5443
G01 X72.2092 Y2.5532
G01 X72.2208 Y2.5634
G01 X72.2246 Y2.5672
G01 X72.2348 Y2.5788
G01 X72.2437 Y2.5913
G01 X72.2514 Y2.6046
G01 X72.2556 Y2.6136
G01 X72.2611 Y2.6280
G01 X72.2650 Y2.6428
G01 X72.2661 Y2.6481
G01 X72.2681 Y2.6633
G01 X72.2686 Y2.6787
G01 X72.2676 Y2.6940
G01 X72.2650 Y2.7092
G01 X72.2626 Y2.7189
G01 X72.2577 Y2.7334
G01 X72.2556 Y2.7384
G01 X72.2514 Y2.7474
G01 X72.2437 Y2.7607
G01 X72.2407 Y2.7652
G01 X72.2313 Y2.7774
G01 X72.2208 Y2.7886
G01 X72.2134 Y2.7953
G01 X72.2012 Y2.8047
G01 X72.1967 Y2.8077
G01 X72.1834 Y2.8154
G01 X72.1744 Y2.8196
G01 X72.1694 Y2.8217
G01 X72.1549 Y2.8266
G01 X72.1452 Y2.8290
G01 X72.1300 Y2.8316
G01 X72.1120 Y2.8327
G01 X71.7607 Y2.8327
G01 X71.7607 Y3.6920
G01 X71.7601 Y3.7047
G01 X71.7581 Y3.7199
G01 X71.7546 Y3.7349
G01 X71.7497 Y3.7494
G01 X71.7434 Y3.7634
G01 X71.7357 Y3.7767
G01 X71.7268 Y3.7892
G01 X71.7166 Y3.8008
G01 X71.7054 Y3.8113
G01 X71.6932 Y3.8207
G01 X71.6802 Y3.8288
G01 X71.6664 Y3.8356
G01 X71.6520 Y3.8411
G01 X71.6372 Y3.8450
G01 X71.6319 Y3.8461
G01 X71.6167 Y3.8481
G01 X71.6013 Y3.8486
G01 X71.5860 Y3.8476
G01 X71.5708 Y3.8450
G01 X71.5560 Y3.8411
G01 X71.5416 Y3.8356
G01 X71.5326 Y3.8314
G01 X71.5193 Y3.8237
G01 X71.5148 Y3.8207
G01 X71.5026 Y3.8113
G01 X71.4932 Y3.8028
G01 X70.4772 Y2.7868
G01 X70.4652 Y2.7732
G01 X70.4563 Y2.7607
G01 X70.4486 Y2.7474
G01 X70.4444 Y2.7384
G01 X70.4389 Y2.7240
G01 X70.4350 Y2.7092
G01 X70.4339 Y2.7039
G01 X70.4319 Y2.6887
G01 X70.4314 Y2.6733
G01 X70.4324 Y2.6580
G01 X70.4350 Y2.6428
G01 X70.4374 Y2.6331
G01 X70.4423 Y2.6186
G01 X70.4444 Y2.6136
G01 X70.4486 Y2.6046
G01 X70.4563 Y2.5913
G01 X70.4652 Y2.5788
G01 X70.4754 Y2.5672
G01 X70.4866 Y2.5567
G01 X70.4988 Y2.5473
G01 X70.5033 Y2.5443
G01 X70.5166 Y2.5366
G01 X70.5256 Y2.5324
G01 X70.5400 Y2.5269
G01 X70.5548 Y2.5230
G01 X70.5700 Y2.5204
G01 X70.5880 Y2.5193
G01 X71.4473 Y2.5193
G01 X71.4473 Y2.1680
G01 X71.4484 Y2.1500
G01 X71.4510 Y2.1348
G01 X71.4534 Y2.1251
G01 X71.4583 Y2.1106
G01 X71.4604 Y2.1056
G01 X71.4646 Y2.0966
G01 X71.4723 Y2.0833
G01 X71.4753 Y2.0788
G01 X71.4847 Y2.0666
G01 X71.4952 Y2.0554
G01 X71.5026 Y2.0487
G01 X71.5148 Y2.0393
G01 X71.5193 Y2.0363
G01 X71.5326 Y2.0286
G01 X71.5416 Y2.0244
G01 X71.5466 Y2.0223
G01 X71.5611 Y2.0174
G01 X71.5708 Y2.0150
G01 X71.5860 Y2.0124
G01 X71.6013 Y2.0114
G01 X71.6167 Y2.0119
G01 X71.6319 Y2.0139
G01 X71.6372 Y2.0150
G01 X71.6520 Y2.0189
G01 X71.6664 Y2.0244
G01 X71.6754 Y2.0286
G01 X71.6887 Y2.0363
G01 X71.7012 Y2.0452
G01 X71.7128 Y2.0554
G01 X71.7166 Y2.0592
G01 X71.7268 Y2.0708
G01 X71.7357 Y2.0833
G01 X71.7434 Y2.0966
G01 X71.7476 Y2.1056
G01 X71.7531 Y2.1200
G01 X71.7570 Y2.1348
G01 X71.7581 Y2.1401
G01 X71.7601 Y2.1553
G01 X71.7607 Y2.1680
G01 X71.7607 Y2.5193
G00 Z2.0000
G00 X72.3566 Y4.9768
G01 F25.00
G01 Z-0.0187
G01 F45.00
G01 X71.7035 Y5.6300
G01 X72.3548 Y6.2812
G01 X72.3633 Y6.2906
G01 X72.3727 Y6.3028
G01 X72.3808 Y6.3158
G01 X72.3876 Y6.3296
G01 X72.3931 Y6.3440
G01 X72.3970 Y6.3588
G01 X72.3981 Y6.3641
G01 X72.4001 Y6.3793
G01 X72.4006 Y6.3947
G01 X72.3996 Y6.4100
G01 X72.3970 Y6.4252
G01 X72.3931 Y6.4400
G01 X72.3876 Y6.4544
G01 X72.3834 Y6.4634
G01 X72.3757 Y6.4767
G01 X72.3668 Y6.4892
G01 X72.3566 Y6.5008
G01 X72.3454 Y6.5113
G01 X72.3332 Y6.5207
G01 X72.3202 Y6.5288
G01 X72.3064 Y6.5356
G01 X72.3014 Y6.5377
G01 X72.2869 Y6.5426
G01 X72.2719 Y6.5461
G01 X72.2567 Y6.5481
G01 X72.2467 Y6.5486
G01 X72.2313 Y6.5481
G01 X72.2260 Y6.5476
G01 X72.2108 Y6.5450
G01 X72.1960 Y6.5411
G01 X72.1816 Y6.5356
G01 X72.1726 Y6.5314
G01 X72.1593 Y6.5237
G01 X72.1468 Y6.5148
G01 X72.1332 Y6.5028
G01 X71.4171 Y5.7867
G01 X70.8767 Y5.7867
G01 X70.8767 Y6.3920
G01 X70.8761 Y6.4047
G01 X70.8741 Y6.4199
G01 X70.8706 Y6.4349
G01 X70.8657 Y6.4494
G01 X70.8594 Y6.4634
G01 X70.8517 Y6.4767
G01 X70.8487 Y6.4812
G01 X70.8393 Y6.4934
G01 X70.8326 Y6.5008
G01 X70.8214 Y6.5113
G01 X70.8092 Y6.5207
G01 X70.8047 Y6.5237
G01 X70.7914 Y6.5314
G01 X70.7824 Y6.5356
G01 X70.7680 Y6.5411
G01 X70.7532 Y6.5450
G01 X70.7479 Y6.5461
G01 X70.7327 Y6.5481
G01 X70.7227 Y6.5486
G01 X70.7073 Y6.5481
G01 X70.6921 Y6.5461
G01 X70.6868 Y6.5450
G01 X70.6771 Y6.5426
G01 X70.6626 Y6.5377
G01 X70.6486 Y6.5314
G01 X70.6353 Y6.5237
G01 X70.6308 Y6.5207
G01 X70.6186 Y6.5113
G01 X70.6112 Y6.5046
G01 X70.6007 Y6.4934
G01 X70.5913 Y6.4812
G01 X70.5832 Y6.4682
G01 X70.5764 Y6.4544
G01 X70.5743 Y6.4494
G01 X70.5694 Y6.4349
G01 X70.5659 Y6.4199
G01 X70.5639 Y6.4047
G01 X70.5633 Y6.3920
G01 X70.5633 Y4.8680
G01 X70.5644 Y4.8500
G01 X70.5670 Y4.8348
G01 X70.5709 Y4.8200
G01 X70.5764 Y4.8056
G01 X70.5832 Y4.7918
G01 X70.5913 Y4.7788
G01 X70.6007 Y4.7666
G01 X70.6074 Y4.7592
G01 X70.6186 Y4.7487
G01 X70.6308 Y4.7393
G01 X70.6353 Y4.7363
G01 X70.6486 Y4.7286
G01 X70.6626 Y4.7223
G01 X70.6771 Y4.7174
G01 X70.6868 Y4.7150
G01 X70.7020 Y4.7124
G01 X70.7073 Y4.7119
G01 X70.7227 Y4.7114
G01 X70.7327 Y4.7119
G01 X70.7479 Y4.7139
G01 X70.7629 Y4.7174
G01 X70.7774 Y4.7223
G01 X70.7824 Y4.7244
G01 X70.7962 Y4.7312
G01 X70.8092 Y4.7393
G01 X70.8214 Y4.7487
G01 X70.8288 Y4.7554
G01 X70.8393 Y4.7666
G01 X70.8487 Y4.7788
G01 X70.8517 Y4.7833
G01 X70.8594 Y4.7966
G01 X70.8636 Y4.8056
G01 X70.8691 Y4.8200
G01 X70.8730 Y4.8348
G01 X70.8741 Y4.8401
G01 X70.8761 Y4.8553
G01 X70.8767 Y4.8680
G01 X70.8767 Y5.4733
G01 X71.4171 Y5.4733
G01 X72.1332 Y4.7572
G01 X72.1468 Y4.7452
G01 X72.1593 Y4.7363
G01 X72.1726 Y4.7286
G01 X72.1816 Y4.7244
G01 X72.1960 Y4.7189
G01 X72.2108 Y4.7150
G01 X72.2260 Y4.7124
G01 X72.2313 Y4.7119
G01 X72.2467 Y4.7114
G01 X72.2567 Y4.7119
G01 X72.2719 Y4.7139
G01 X72.2869 Y4.7174
G01 X72.3014 Y4.7223
G01 X72.3064 Y4.7244
G01 X72.3202 Y4.7312
G01 X72.3332 Y4.7393
G01 X72.3412 Y4.7452
G01 X72.3528 Y4.7554
G01 X72.3566 Y4.7592
G01 X72.3668 Y4.7708
G01 X72.3757 Y4.7833
G01 X72.3834 Y4.7966
G01 X72.3876 Y4.8056
G01 X72.3931 Y4.8200
G01 X72.3970 Y4.8348
G01 X72.3981 Y4.8401
G01 X72.4001 Y4.8553
G01 X72.4006 Y4.8707
G01 X72.3996 Y4.8860
G01 X72.3970 Y4.9012
G01 X72.3931 Y4.9160
G01 X72.3876 Y4.9304
G01 X72.3834 Y4.9394
G01 X72.3757 Y4.9527
G01 X72.3727 Y4.9572
G01 X72.3633 Y4.9694
G01 X72.3566 Y4.9768
G00 Z2.0000
G00 X70.3246 Y5.4848
G01 F25.00
G01 Z-0.0187
G01 F45.00
G01 X70.1795 Y5.6300
G01 X70.3228 Y5.7732
G01 X70.3313 Y5.7826
G01 X70.3407 Y5.7948
G01 X70.3488 Y5.8078
G01 X70.3556 Y5.8216
G01 X70.3611 Y5.8360
G01 X70.3650 Y5.8508
G01 X70.3661 Y5.8561
G01 X70.3681 Y5.8713
G01 X70.3687 Y5.8840
G01 X70.3687 Y6.1380
G01 X70.3676 Y6.1560
G01 X70.3650 Y6.1712
G01 X70.3626 Y6.1809
G01 X70.3577 Y6.1954
G01 X70.3556 Y6.2004
G01 X70.3488 Y6.2142
G01 X70.3407 Y6.2272
G01 X70.3348 Y6.2352
G01 X70.3246 Y6.2468
G01 X70.0688 Y6.5028
G01 X70.0552 Y6.5148
G01 X70.0427 Y6.5237
G01 X70.0342 Y6.5288
G01 X70.0204 Y6.5356
G01 X70.0154 Y6.5377
G01 X70.0009 Y6.5426
G01 X69.9912 Y6.5450
G01 X69.9760 Y6.5476
G01 X69.9580 Y6.5487
G01 X68.6853 Y6.5486
G01 X68.6700 Y6.5476
G01 X68.6548 Y6.5450
G01 X68.6451 Y6.5426
G01 X68.6306 Y6.5377
G01 X68.6256 Y6.5356
G01 X68.6118 Y6.5288
G01 X68.5988 Y6.5207
G01 X68.5866 Y6.5113
G01 X68.5792 Y6.5046
G01 X68.5754 Y6.5008
G01 X68.5652 Y6.4892
G01 X68.5563 Y6.4767
G01 X68.5512 Y6.4682
G01 X68.5444 Y6.4544
G01 X68.5423 Y6.4494
G01 X68.5374 Y6.4349
G01 X68.5350 Y6.4252
G01 X68.5324 Y6.4100
G01 X68.5313 Y6.3920
G01 X68.5314 Y4.8653
G01 X68.5324 Y4.8500
G01 X68.5350 Y4.8348
G01 X68.5374 Y4.8251
G01 X68.5423 Y4.8106
G01 X68.5444 Y4.8056
G01 X68.5512 Y4.7918
G01 X68.5593 Y4.7788
G01 X68.5687 Y4.7666
G01 X68.5754 Y4.7592
G01 X68.5792 Y4.7554
G01 X68.5908 Y4.7452
G01 X68.6033 Y4.7363
G01 X68.6118 Y4.7312
G01 X68.6256 Y4.7244
G01 X68.6400 Y4.7189
G01 X68.6548 Y4.7150
G01 X68.6601 Y4.7139
G01 X68.6753 Y4.7119
G01 X68.6907 Y4.7114
G01 X68.7060 Y4.7124
G01 X68.7212 Y4.7150
G01 X68.7309 Y4.7174
G01 X68.7454 Y4.7223
G01 X68.7594 Y4.7286
G01 X68.7727 Y4.7363
G01 X68.7772 Y4.7393
G01 X68.7894 Y4.7487
G01 X68.8006 Y4.7592
G01 X68.8073 Y4.7666
G01 X68.8167 Y4.7788
G01 X68.8248 Y4.7918
G01 X68.8316 Y4.8056
G01 X68.8371 Y4.8200
G01 X68.8410 Y4.8348
G01 X68.8421 Y4.8401
G01 X68.8441 Y4.8553
G01 X68.8447 Y4.8680
G01 X68.8447 Y5.4733
G01 X69.8931 Y5.4733
G01 X70.0553 Y5.3111
G01 X70.0554 Y4.8653
