(G-CODE GENERATED BY FLATCAM v8.991 - www.flatcam.org - Version Date: 2019/12/27)

(Name: cargador)
(Type: G-code from Geometry)
(Units: MM)

(Created on Monday, 28 October 2024 at 09:52)

(TOOL DIAMETER: 0.11 mm)
(Feedrate: 120.0 mm/min)
(Feedrate_Z: 60.0 mm/min)
(Feedrate rapids 1500.0 mm/min)

(Z_Cut: -0.0187 mm)
(Z_Move: 2.0 mm)
(Z Toolchange: 15.0 mm)
(X,Y Toolchange: 0.0000, 0.0000 mm)
(Z Start: None mm)
(Z End: 15.0 mm)
(Steps per circle: 64)
(Preprocessor Geometry: default)

(X range:    0.3567 ...   87.0433  mm)
(Y range:    0.3567 ...   48.6433  mm)

(Spindle Speed: None RPM)
G21
G90
G94




G01 F120.00
G00 Z2.0000

M03
G00 X8.4072 Y2.1890
G01 F60.00
G01 Z-0.0187
G01 F120.00
G01 X8.4505 Y2.0973
G01 X8.4530 Y2.0925
G01 X8.5043 Y2.0070
G01 X8.5073 Y2.0025
G01 X8.5667 Y1.9224
G01 X8.5702 Y1.9182
G01 X8.6371 Y1.8443
G01 X8.6410 Y1.8405
G01 X8.7149 Y1.7735
G01 X8.7191 Y1.7701
G01 X8.7992 Y1.7106
G01 X8.8037 Y1.7076
G01 X8.8892 Y1.6563
G01 X8.8940 Y1.6538
G01 X8.9842 Y1.6111
G01 X8.9892 Y1.6091
G01 X9.0831 Y1.5755
G01 X9.0882 Y1.5739
G01 X9.1850 Y1.5497
G01 X9.1903 Y1.5486
G01 X9.2890 Y1.5340
G01 X9.2943 Y1.5335
G01 X9.3967 Y1.5285
G01 X51.1000 Y1.5285
G01 X51.2023 Y1.5335
G01 X51.2077 Y1.5340
G01 X51.3064 Y1.5486
G01 X51.3117 Y1.5497
G01 X51.4084 Y1.5739
G01 X51.4136 Y1.5755
G01 X51.5075 Y1.6091
G01 X51.5125 Y1.6111
G01 X51.6027 Y1.6538
G01 X51.6075 Y1.6563
G01 X51.6930 Y1.7076
G01 X51.6975 Y1.7106
G01 X51.7776 Y1.7701
G01 X51.7818 Y1.7735
G01 X51.8577 Y1.8423
G01 X54.8443 Y4.8290
G01 X55.4160 Y4.8290
G01 X55.4214 Y4.8293
G01 X55.4267 Y4.8301
G01 X55.4320 Y4.8314
G01 X55.4370 Y4.8332
G01 X55.4419 Y4.8355
G01 X55.4466 Y4.8383
G01 X55.4509 Y4.8415
G01 X55.4549 Y4.8451
G01 X55.4585 Y4.8491
G01 X55.4617 Y4.8534
G01 X55.4645 Y4.8581
G01 X55.4668 Y4.8630
G01 X55.4686 Y4.8680
G01 X55.4699 Y4.8733
G01 X55.4707 Y4.8786
G01 X55.4710 Y4.8840
G01 X55.4710 Y5.8883
G01 X55.4714 Y5.9027
G01 X55.4710 Y5.9117
G01 X55.4710 Y6.9160
G01 X55.4707 Y6.9214
G01 X55.4699 Y6.9267
G01 X55.4686 Y6.9320
G01 X55.4668 Y6.9370
G01 X55.4645 Y6.9419
G01 X55.4617 Y6.9466
G01 X55.4585 Y6.9509
G01 X55.4549 Y6.9549
G01 X55.4509 Y6.9585
G01 X55.4466 Y6.9617
G01 X55.4419 Y6.9645
G01 X55.4370 Y6.9668
G01 X55.4320 Y6.9686
G01 X55.4267 Y6.9699
G01 X55.4214 Y6.9707
G01 X55.4160 Y6.9710
G01 X54.4117 Y6.9710
G01 X54.4027 Y6.9714
G01 X54.3883 Y6.9710
G01 X53.3840 Y6.9710
G01 X53.3786 Y6.9707
G01 X53.3733 Y6.9699
G01 X53.3680 Y6.9686
G01 X53.3630 Y6.9668
G01 X53.3581 Y6.9645
G01 X53.3534 Y6.9617
G01 X53.3491 Y6.9585
G01 X53.3451 Y6.9549
G01 X53.3415 Y6.9509
G01 X53.3383 Y6.9466
G01 X53.3355 Y6.9419
G01 X53.3332 Y6.9370
G01 X53.3314 Y6.9320
G01 X53.3301 Y6.9267
G01 X53.3293 Y6.9214
G01 X53.3290 Y6.9160
G01 X53.3290 Y6.3443
G01 X50.6562 Y3.6715
G01 X9.9554 Y3.6715
G01 X7.6715 Y5.9554
G01 X7.6715 Y37.7285
G01 X9.5426 Y37.7285
G01 X9.5854 Y37.6816
G01 X9.6962 Y37.5812
G01 X9.7004 Y37.5778
G01 X9.8205 Y37.4887
G01 X9.8250 Y37.4857
G01 X9.9533 Y37.4088
G01 X9.9581 Y37.4062
G01 X10.0933 Y37.3423
G01 X10.0983 Y37.3402
G01 X10.2391 Y37.2898
G01 X10.2442 Y37.2883
G01 X10.3893 Y37.2519
G01 X10.3946 Y37.2509
G01 X10.5426 Y37.2289
G01 X10.5479 Y37.2284
G01 X10.6973 Y37.2211
G01 X10.7027 Y37.2211
G01 X10.8521 Y37.2284
G01 X10.8574 Y37.2289
G01 X11.0054 Y37.2509
G01 X11.0107 Y37.2519
G01 X11.1558 Y37.2883
G01 X11.1609 Y37.2898
G01 X11.3017 Y37.3402
G01 X11.3067 Y37.3423
G01 X11.4419 Y37.4062
G01 X11.4467 Y37.4088
G01 X11.5561 Y37.4744
G01 X20.0000 Y37.4744
G01 X20.1272 Y37.4805
G01 X20.1326 Y37.4811
G01 X20.2560 Y37.4994
G01 X20.2613 Y37.5004
G01 X20.3822 Y37.5307
G01 X20.3874 Y37.5323
G01 X20.5048 Y37.5743
G01 X20.5098 Y37.5764
G01 X20.6225 Y37.6297
G01 X20.6272 Y37.6322
G01 X20.7342 Y37.6963
G01 X20.7387 Y37.6993
G01 X20.8388 Y37.7736
G01 X20.8430 Y37.7770
G01 X20.9374 Y37.8626
G01 X21.0392 Y37.9646
G01 X21.1230 Y38.0570
G01 X21.1264 Y38.0612
G01 X21.2007 Y38.1613
G01 X21.2037 Y38.1658
G01 X21.2678 Y38.2728
G01 X21.2703 Y38.2775
G01 X21.3236 Y38.3902
G01 X21.3257 Y38.3952
G01 X21.3677 Y38.5126
G01 X21.3693 Y38.5178
G01 X21.3996 Y38.6387
G01 X21.4006 Y38.6440
G01 X21.4189 Y38.7674
G01 X21.4195 Y38.7728
G01 X21.4256 Y38.8973
G01 X21.4256 Y38.9027
G01 X21.4195 Y39.0272
G01 X21.4189 Y39.0326
G01 X21.4006 Y39.1560
G01 X21.3996 Y39.1613
G01 X21.3693 Y39.2822
G01 X21.3677 Y39.2874
G01 X21.3257 Y39.4048
G01 X21.3236 Y39.4098
G01 X21.2703 Y39.5225
G01 X21.2678 Y39.5272
G01 X21.2037 Y39.6342
G01 X21.2007 Y39.6387
G01 X21.1264 Y39.7388
G01 X21.1230 Y39.7430
G01 X21.0392 Y39.8354
G01 X21.0354 Y39.8392
G01 X20.9430 Y39.9230
G01 X20.9388 Y39.9264
G01 X20.8387 Y40.0007
G01 X20.8342 Y40.0037
G01 X20.7272 Y40.0678
G01 X20.7225 Y40.0703
G01 X20.6098 Y40.1236
G01 X20.6048 Y40.1257
G01 X20.4874 Y40.1677
G01 X20.4822 Y40.1693
G01 X20.3613 Y40.1996
G01 X20.3560 Y40.2006
G01 X20.2326 Y40.2189
G01 X20.2272 Y40.2195
G01 X20.1027 Y40.2256
G01 X20.0973 Y40.2256
G01 X19.9728 Y40.2195
G01 X19.9674 Y40.2189
G01 X19.8440 Y40.2006
G01 X19.8387 Y40.1996
G01 X19.7178 Y40.1693
G01 X19.7126 Y40.1677
G01 X19.5951 Y40.1256
G01 X11.5561 Y40.1256
G01 X11.4467 Y40.1912
G01 X11.4419 Y40.1938
G01 X11.3067 Y40.2577
G01 X11.3017 Y40.2598
G01 X11.1609 Y40.3102
G01 X11.1558 Y40.3117
G01 X11.0107 Y40.3481
G01 X11.0054 Y40.3491
G01 X10.8574 Y40.3711
G01 X10.8521 Y40.3716
G01 X10.7027 Y40.3789
G01 X10.6973 Y40.3789
G01 X10.5479 Y40.3716
G01 X10.5426 Y40.3711
G01 X10.3946 Y40.3491
G01 X10.3893 Y40.3481
G01 X10.2442 Y40.3117
G01 X10.2391 Y40.3102
G01 X10.0983 Y40.2598
G01 X10.0933 Y40.2577
G01 X9.9581 Y40.1938
G01 X9.9533 Y40.1912
G01 X9.8250 Y40.1143
G01 X9.8205 Y40.1113
G01 X9.7004 Y40.0222
G01 X9.6962 Y40.0188
G01 X9.5854 Y39.9184
G01 X9.5426 Y39.8715
G01 X6.6000 Y39.8715
G01 X6.4977 Y39.8665
G01 X6.4923 Y39.8660
G01 X6.3936 Y39.8514
G01 X6.3883 Y39.8503
G01 X6.2916 Y39.8261
G01 X6.2864 Y39.8245
G01 X6.1925 Y39.7909
G01 X6.1875 Y39.7889
G01 X6.0973 Y39.7462
G01 X6.0925 Y39.7437
G01 X6.0070 Y39.6924
G01 X6.0025 Y39.6894
G01 X5.9224 Y39.6299
G01 X5.9182 Y39.6265
G01 X5.8443 Y39.5595
G01 X5.8405 Y39.5557
G01 X5.7735 Y39.4818
G01 X5.7701 Y39.4776
G01 X5.7106 Y39.3975
G01 X5.7076 Y39.3930
G01 X5.6563 Y39.3075
G01 X5.6538 Y39.3027
G01 X5.6111 Y39.2125
G01 X5.6091 Y39.2075
G01 X5.5755 Y39.1136
G01 X5.5739 Y39.1084
G01 X5.5497 Y39.0117
G01 X5.5486 Y39.0064
G01 X5.5340 Y38.9077
G01 X5.5335 Y38.9023
G01 X5.5285 Y38.8000
G01 X5.5285 Y5.5116
G01 X5.5335 Y5.4092
G01 X5.5340 Y5.4039
G01 X5.5486 Y5.3052
G01 X5.5497 Y5.2999
G01 X5.5739 Y5.2031
G01 X5.5755 Y5.1980
G01 X5.6091 Y5.1040
G01 X5.6111 Y5.0991
G01 X5.6538 Y5.0089
G01 X5.6563 Y5.0041
G01 X5.7076 Y4.9186
G01 X5.7106 Y4.9141
G01 X5.7701 Y4.8339
G01 X5.7735 Y4.8298
G01 X5.8423 Y4.7539
G01 X8.4072 Y2.1890
G00 Z2.0000
G00 X25.9710 Y16.2160
G01 F60.00
G01 Z-0.0187
G01 F120.00
G01 X25.9707 Y16.2214
G01 X25.9699 Y16.2267
G01 X25.9686 Y16.2320
G01 X25.9668 Y16.2370
G01 X25.9645 Y16.2419
G01 X25.9617 Y16.2466
G01 X25.9585 Y16.2509
G01 X25.9549 Y16.2549
G01 X25.9509 Y16.2585
G01 X25.9466 Y16.2617
G01 X25.9419 Y16.2645
G01 X25.9370 Y16.2668
G01 X25.9320 Y16.2686
G01 X25.9267 Y16.2699
G01 X25.9214 Y16.2707
G01 X25.9160 Y16.2710
G01 X23.8840 Y16.2710
G01 X23.8786 Y16.2707
G01 X23.8733 Y16.2699
G01 X23.8680 Y16.2686
G01 X23.8630 Y16.2668
G01 X23.8581 Y16.2645
G01 X23.8534 Y16.2617
G01 X23.8491 Y16.2585
G01 X23.8451 Y16.2549
G01 X23.8415 Y16.2509
G01 X23.8383 Y16.2466
G01 X23.8355 Y16.2419
G01 X23.8332 Y16.2370
G01 X23.8314 Y16.2320
G01 X23.8301 Y16.2267
G01 X23.8293 Y16.2214
G01 X23.8290 Y16.2160
G01 X23.8290 Y16.0174
G01 X21.8997 Y16.0173
G01 X21.8196 Y16.0131
G01 X21.7403 Y16.0011
G01 X21.6626 Y15.9813
G01 X21.5872 Y15.9541
G01 X21.5148 Y15.9195
G01 X21.4461 Y15.8781
G01 X21.3818 Y15.8301
G01 X21.3264 Y15.7798
G01 X20.6156 Y15.0691
G01 X20.2478 Y14.8115
G01 X20.2311 Y14.8154
G01 X20.1201 Y14.8319
G01 X20.1147 Y14.8324
G01 X20.0027 Y14.8379
G01 X19.9973 Y14.8379
G01 X19.8853 Y14.8324
G01 X19.8799 Y14.8319
G01 X19.7689 Y14.8154
G01 X19.7636 Y14.8144
G01 X19.6548 Y14.7871
G01 X19.6497 Y14.7856
G01 X19.5441 Y14.7478
G01 X19.5391 Y14.7457
G01 X19.4377 Y14.6978
G01 X19.4329 Y14.6952
G01 X19.3367 Y14.6375
G01 X19.3322 Y14.6345
G01 X19.2421 Y14.5677
G01 X19.2380 Y14.5643
G01 X19.1548 Y14.4890
G01 X19.1510 Y14.4852
G01 X19.0757 Y14.4020
G01 X19.0723 Y14.3979
G01 X19.0055 Y14.3078
G01 X19.0025 Y14.3033
G01 X18.9448 Y14.2071
G01 X18.9422 Y14.2023
G01 X18.8943 Y14.1009
G01 X18.8922 Y14.0959
G01 X18.8544 Y13.9903
G01 X18.8529 Y13.9852
G01 X18.8256 Y13.8764
G01 X18.8246 Y13.8711
G01 X18.8081 Y13.7601
G01 X18.8076 Y13.7547
G01 X18.8021 Y13.6427
G01 X18.8021 Y13.6373
G01 X18.8076 Y13.5253
G01 X18.8081 Y13.5199
G01 X18.8246 Y13.4089
G01 X18.8256 Y13.4036
G01 X18.8529 Y13.2948
G01 X18.8544 Y13.2897
G01 X18.8922 Y13.1841
G01 X18.8943 Y13.1791
G01 X18.9422 Y13.0777
G01 X18.9448 Y13.0729
G01 X19.0025 Y12.9767
G01 X19.0055 Y12.9722
G01 X19.0723 Y12.8821
G01 X19.0757 Y12.8780
G01 X19.1510 Y12.7948
G01 X19.1548 Y12.7910
G01 X19.2380 Y12.7157
G01 X19.2421 Y12.7123
G01 X19.3322 Y12.6455
G01 X19.3367 Y12.6425
G01 X19.4329 Y12.5848
G01 X19.4377 Y12.5822
G01 X19.5391 Y12.5343
G01 X19.5441 Y12.5322
G01 X19.6497 Y12.4944
G01 X19.6548 Y12.4929
G01 X19.7636 Y12.4656
G01 X19.7689 Y12.4646
G01 X19.8799 Y12.4481
G01 X19.8853 Y12.4476
G01 X19.9973 Y12.4421
G01 X20.0027 Y12.4421
G01 X20.1147 Y12.4476
G01 X20.1201 Y12.4481
G01 X20.2311 Y12.4646
G01 X20.2364 Y12.4656
G01 X20.3452 Y12.4929
G01 X20.3503 Y12.4944
G01 X20.4559 Y12.5322
G01 X20.4609 Y12.5343
G01 X20.5623 Y12.5822
G01 X20.5671 Y12.5848
G01 X20.6633 Y12.6425
G01 X20.6678 Y12.6455
G01 X20.7579 Y12.7123
G01 X20.7620 Y12.7157
G01 X20.8452 Y12.7910
G01 X20.8490 Y12.7948
G01 X20.9243 Y12.8780
G01 X20.9277 Y12.8821
G01 X20.9945 Y12.9722
G01 X20.9975 Y12.9767
G01 X21.0552 Y13.0729
G01 X21.0578 Y13.0777
G01 X21.1057 Y13.1791
G01 X21.1078 Y13.1841
G01 X21.1456 Y13.2897
G01 X21.1471 Y13.2948
G01 X21.1744 Y13.4036
G01 X21.1848 Y13.4719
G01 X21.6119 Y13.7711
G01 X21.6702 Y13.8160
G01 X21.7210 Y13.8626
G01 X22.2410 Y14.3826
G01 X23.8290 Y14.3826
G01 X23.8290 Y14.1840
G01 X23.8293 Y14.1786
G01 X23.8301 Y14.1733
G01 X23.8314 Y14.1680
G01 X23.8332 Y14.1630
G01 X23.8355 Y14.1581
G01 X23.8383 Y14.1534
G01 X23.8415 Y14.1491
G01 X23.8451 Y14.1451
G01 X23.8491 Y14.1415
G01 X23.8534 Y14.1383
G01 X23.8581 Y14.1355
G01 X23.8630 Y14.1332
G01 X23.8680 Y14.1314
G01 X23.8733 Y14.1301
G01 X23.8786 Y14.1293
G01 X23.8840 Y14.1290
G01 X25.9160 Y14.1290
G01 X25.9214 Y14.1293
G01 X25.9267 Y14.1301
G01 X25.9320 Y14.1314
G01 X25.9370 Y14.1332
G01 X25.9419 Y14.1355
G01 X25.9466 Y14.1383
G01 X25.9509 Y14.1415
G01 X25.9549 Y14.1451
G01 X25.9585 Y14.1491
G01 X25.9617 Y14.1534
G01 X25.9645 Y14.1581
G01 X25.9668 Y14.1630
G01 X25.9686 Y14.1680
G01 X25.9699 Y14.1733
G01 X25.9707 Y14.1786
G01 X25.9710 Y14.1840
G01 X25.9710 Y16.2160
G00 Z2.0000
G00 X31.9041 Y14.2963
G01 F60.00
G01 Z-0.0187
G01 F120.00
G01 X31.6523 Y14.2840
G01 X31.6469 Y14.2834
G01 X31.4003 Y14.2468
G01 X31.3950 Y14.2458
G01 X31.1530 Y14.1852
G01 X31.1479 Y14.1836
G01 X30.9131 Y14.0996
G01 X30.9081 Y14.0975
G01 X30.6826 Y13.9909
G01 X30.6779 Y13.9884
G01 X30.4640 Y13.8602
G01 X30.4595 Y13.8572
G01 X30.2592 Y13.7086
G01 X30.2550 Y13.7052
G01 X30.0683 Y13.5358
G01 X27.6911 Y11.1586
G01 X13.4330 Y11.1586
G01 X12.8358 Y11.7558
G01 X12.6491 Y11.9252
G01 X12.6449 Y11.9286
G01 X12.4446 Y12.0772
G01 X12.4401 Y12.0802
G01 X12.2262 Y12.2084
G01 X12.2215 Y12.2109
G01 X11.9960 Y12.3175
G01 X11.9910 Y12.3196
G01 X11.7562 Y12.4036
G01 X11.7511 Y12.4052
G01 X11.5091 Y12.4658
G01 X11.5038 Y12.4668
G01 X11.2572 Y12.5034
G01 X11.2518 Y12.5040
G01 X11.0027 Y12.5162
G01 X10.9973 Y12.5162
G01 X10.7482 Y12.5040
G01 X10.7428 Y12.5034
G01 X10.4962 Y12.4668
G01 X10.4909 Y12.4658
G01 X10.2489 Y12.4052
G01 X10.2438 Y12.4036
G01 X10.0090 Y12.3196
G01 X10.0040 Y12.3175
G01 X9.7785 Y12.2109
G01 X9.7738 Y12.2084
G01 X9.5599 Y12.0802
G01 X9.5554 Y12.0772
G01 X9.3551 Y11.9286
G01 X9.3509 Y11.9252
G01 X9.1661 Y11.7577
G01 X9.1623 Y11.7539
G01 X8.9948 Y11.5691
G01 X8.9914 Y11.5649
G01 X8.8428 Y11.3646
G01 X8.8398 Y11.3601
G01 X8.7116 Y11.1462
G01 X8.7091 Y11.1415
G01 X8.6025 Y10.9160
G01 X8.6004 Y10.9110
G01 X8.5164 Y10.6762
G01 X8.5148 Y10.6711
G01 X8.4542 Y10.4291
G01 X8.4532 Y10.4238
G01 X8.4166 Y10.1772
G01 X8.4160 Y10.1718
G01 X8.4038 Y9.9227
G01 X8.4038 Y9.9173
G01 X8.4160 Y9.6682
G01 X8.4166 Y9.6628
G01 X8.4532 Y9.4162
G01 X8.4542 Y9.4109
G01 X8.5148 Y9.1689
G01 X8.5164 Y9.1638
G01 X8.6004 Y8.9290
G01 X8.6025 Y8.9240
G01 X8.7091 Y8.6985
G01 X8.7116 Y8.6938
G01 X8.8398 Y8.4799
G01 X8.8428 Y8.4754
G01 X8.9914 Y8.2751
G01 X8.9948 Y8.2709
G01 X9.1642 Y8.0842
G01 X10.5218 Y6.7265
G01 X10.7085 Y6.5572
G01 X10.7127 Y6.5538
G01 X10.9130 Y6.4052
G01 X10.9175 Y6.4022
G01 X11.1314 Y6.2740
G01 X11.1362 Y6.2715
G01 X11.3616 Y6.1648
G01 X11.3666 Y6.1628
G01 X11.6014 Y6.0787
G01 X11.6066 Y6.0772
G01 X11.8485 Y6.0166
G01 X11.8538 Y6.0155
G01 X12.1005 Y5.9789
G01 X12.1058 Y5.9784
G01 X12.3576 Y5.9661
G01 X28.7692 Y5.9662
G01 X29.0183 Y5.9784
G01 X29.0236 Y5.9789
G01 X29.2703 Y6.0155
G01 X29.2756 Y6.0166
G01 X29.5175 Y6.0772
G01 X29.5227 Y6.0787
G01 X29.7575 Y6.1628
G01 X29.7625 Y6.1648
G01 X29.9879 Y6.2715
G01 X29.9927 Y6.2740
G01 X30.2066 Y6.4022
G01 X30.2111 Y6.4052
G01 X30.4114 Y6.5538
G01 X30.4156 Y6.5572
G01 X30.6023 Y6.7265
G01 X32.9795 Y9.1037
G01 X40.3000 Y9.1037
G01 X40.5518 Y9.1160
G01 X40.5572 Y9.1166
G01 X40.8038 Y9.1532
G01 X40.8091 Y9.1542
G01 X41.0511 Y9.2148
G01 X41.0562 Y9.2164
G01 X41.2910 Y9.3004
G01 X41.2960 Y9.3025
G01 X41.5215 Y9.4091
G01 X41.5262 Y9.4116
G01 X41.7401 Y9.5398
G01 X41.7446 Y9.5428
G01 X41.9449 Y9.6914
G01 X41.9491 Y9.6948
G01 X42.1339 Y9.8623
G01 X42.1377 Y9.8661
G01 X42.3052 Y10.0509
G01 X42.3086 Y10.0551
G01 X42.4572 Y10.2554
G01 X42.4602 Y10.2599
G01 X42.5884 Y10.4738
G01 X42.5909 Y10.4785
G01 X42.6975 Y10.7040
G01 X42.6996 Y10.7090
G01 X42.7836 Y10.9438
G01 X42.7852 Y10.9489
G01 X42.8458 Y11.1909
G01 X42.8468 Y11.1962
G01 X42.8834 Y11.4428
G01 X42.8840 Y11.4482
G01 X42.8962 Y11.6973
G01 X42.8962 Y11.7027
G01 X42.8840 Y11.9518
G01 X42.8834 Y11.9572
G01 X42.8468 Y12.2038
G01 X42.8458 Y12.2091
G01 X42.7852 Y12.4511
G01 X42.7836 Y12.4562
G01 X42.6996 Y12.6910
G01 X42.6975 Y12.6960
G01 X42.5909 Y12.9215
G01 X42.5884 Y12.9262
G01 X42.4602 Y13.1401
G01 X42.4572 Y13.1446
G01 X42.3086 Y13.3449
G01 X42.3052 Y13.3491
G01 X42.1377 Y13.5339
G01 X42.1339 Y13.5377
G01 X41.9491 Y13.7052
G01 X41.9449 Y13.7086
G01 X41.7446 Y13.8572
G01 X41.7401 Y13.8602
G01 X41.5262 Y13.9884
G01 X41.5215 Y13.9909
G01 X41.2960 Y14.0975
G01 X41.2910 Y14.0996
G01 X41.0562 Y14.1836
G01 X41.0511 Y14.1852
G01 X40.8091 Y14.2458
G01 X40.8038 Y14.2468
G01 X40.5572 Y14.2834
G01 X40.5518 Y14.2840
G01 X40.3000 Y14.2963
G01 X31.9041 Y14.2963
G00 Z2.0000
G00 X34.9838 Y21.2285
G01 F60.00
G01 Z-0.0187
G01 F120.00
G01 X35.0027 Y21.2286
G01 X35.1023 Y21.2335
G01 X35.1077 Y21.2340
G01 X35.2064 Y21.2486
G01 X35.2117 Y21.2497
G01 X35.3084 Y21.2739
G01 X35.3136 Y21.2755
G01 X35.4075 Y21.3091
G01 X35.4125 Y21.3111
G01 X35.5027 Y21.3538
G01 X35.5075 Y21.3563
G01 X35.5930 Y21.4076
G01 X35.5975 Y21.4106
G01 X35.6776 Y21.4701
G01 X35.6818 Y21.4735
G01 X35.7557 Y21.5405
G01 X35.7595 Y21.5443
G01 X35.8265 Y21.6182
G01 X35.8299 Y21.6224
G01 X35.8894 Y21.7025
G01 X35.8924 Y21.7070
G01 X35.9437 Y21.7925
G01 X35.9462 Y21.7973
G01 X35.9889 Y21.8875
G01 X35.9909 Y21.8925
G01 X36.0245 Y21.9864
G01 X36.0261 Y21.9916
G01 X36.0503 Y22.0883
G01 X36.0514 Y22.0936
G01 X36.0660 Y22.1923
G01 X36.0665 Y22.1977
G01 X36.0714 Y22.2973
G01 X36.0714 Y22.3027
G01 X36.0665 Y22.4023
G01 X36.0660 Y22.4077
G01 X36.0514 Y22.5064
G01 X36.0503 Y22.5117
G01 X36.0261 Y22.6084
G01 X36.0245 Y22.6136
G01 X35.9909 Y22.7075
G01 X35.9889 Y22.7125
G01 X35.9462 Y22.8027
G01 X35.9437 Y22.8075
G01 X35.8924 Y22.8930
G01 X35.8894 Y22.8975
G01 X35.8299 Y22.9776
G01 X35.8265 Y22.9818
G01 X35.7595 Y23.0557
G01 X35.7557 Y23.0595
G01 X35.6818 Y23.1265
G01 X35.6776 Y23.1299
G01 X35.5975 Y23.1894
G01 X35.5930 Y23.1924
G01 X35.5075 Y23.2437
G01 X35.5027 Y23.2462
G01 X35.4125 Y23.2889
G01 X35.4075 Y23.2909
G01 X35.3136 Y23.3245
G01 X35.3084 Y23.3261
G01 X35.2117 Y23.3503
G01 X35.2064 Y23.3514
G01 X35.1077 Y23.3660
G01 X35.1023 Y23.3665
G01 X35.0000 Y23.3715
G01 X34.5373 Y23.3714
G01 X34.4377 Y23.3665
G01 X34.4323 Y23.3660
G01 X34.3336 Y23.3514
G01 X34.3283 Y23.3503
G01 X34.2316 Y23.3261
G01 X34.2264 Y23.3245
G01 X34.1325 Y23.2909
G01 X34.1275 Y23.2889
G01 X34.0373 Y23.2462
G01 X34.0325 Y23.2437
G01 X33.9470 Y23.1924
G01 X33.9425 Y23.1894
G01 X33.8624 Y23.1299
G01 X33.8582 Y23.1265
G01 X33.7823 Y23.0577
G01 X26.9957 Y16.2710
G01 X26.4240 Y16.2710
G01 X26.4186 Y16.2707
G01 X26.4133 Y16.2699
G01 X26.4080 Y16.2686
G01 X26.4030 Y16.2668
G01 X26.3981 Y16.2645
G01 X26.3934 Y16.2617
G01 X26.3891 Y16.2585
G01 X26.3851 Y16.2549
G01 X26.3815 Y16.2509
G01 X26.3783 Y16.2466
G01 X26.3755 Y16.2419
G01 X26.3732 Y16.2370
G01 X26.3714 Y16.2320
G01 X26.3701 Y16.2267
G01 X26.3693 Y16.2214
G01 X26.3690 Y16.2160
G01 X26.3690 Y15.2117
G01 X26.3686 Y15.2027
G01 X26.3690 Y15.1883
G01 X26.3690 Y14.1840
G01 X26.3693 Y14.1786
G01 X26.3701 Y14.1733
G01 X26.3714 Y14.1680
G01 X26.3732 Y14.1630
G01 X26.3755 Y14.1581
G01 X26.3783 Y14.1534
G01 X26.3815 Y14.1491
G01 X26.3851 Y14.1451
G01 X26.3891 Y14.1415
G01 X26.3934 Y14.1383
G01 X26.3981 Y14.1355
G01 X26.4030 Y14.1332
G01 X26.4080 Y14.1314
G01 X26.4133 Y14.1301
G01 X26.4186 Y14.1293
G01 X26.4240 Y14.1290
G01 X27.4283 Y14.1290
G01 X27.4373 Y14.1286
G01 X27.4517 Y14.1290
G01 X28.4560 Y14.1290
G01 X28.4614 Y14.1293
G01 X28.4667 Y14.1301
G01 X28.4720 Y14.1314
G01 X28.4770 Y14.1332
G01 X28.4819 Y14.1355
G01 X28.4866 Y14.1383
G01 X28.4909 Y14.1415
G01 X28.4949 Y14.1451
G01 X28.4985 Y14.1491
G01 X28.5017 Y14.1534
G01 X28.5045 Y14.1581
G01 X28.5068 Y14.1630
G01 X28.5086 Y14.1680
G01 X28.5099 Y14.1733
G01 X28.5107 Y14.1786
G01 X28.5110 Y14.1840
G01 X28.5110 Y14.7557
G01 X34.9838 Y21.2285
G00 Z2.0000
G00 X39.2160 Y30.2290
G01 F60.00
G01 Z-0.0187
G01 F120.00
G01 X39.2214 Y30.2293
G01 X39.2267 Y30.2301
G01 X39.2320 Y30.2314
G01 X39.2370 Y30.2332
G01 X39.2419 Y30.2355
G01 X39.2466 Y30.2383
G01 X39.2509 Y30.2415
G01 X39.2549 Y30.2451
G01 X39.2585 Y30.2491
G01 X39.2617 Y30.2534
G01 X39.2645 Y30.2581
G01 X39.2668 Y30.2630
G01 X39.2686 Y30.2680
G01 X39.2699 Y30.2733
G01 X39.2707 Y30.2786
G01 X39.2710 Y30.2840
G01 X39.2710 Y32.3160
G01 X39.2707 Y32.3214
G01 X39.2699 Y32.3267
G01 X39.2686 Y32.3320
G01 X39.2668 Y32.3370
G01 X39.2645 Y32.3419
G01 X39.2617 Y32.3466
G01 X39.2585 Y32.3509
G01 X39.2549 Y32.3549
G01 X39.2509 Y32.3585
G01 X39.2466 Y32.3617
G01 X39.2419 Y32.3645
G01 X39.2370 Y32.3668
G01 X39.2320 Y32.3686
G01 X39.2267 Y32.3699
G01 X39.2214 Y32.3707
G01 X39.2160 Y32.3710
G01 X37.1840 Y32.3710
G01 X37.1786 Y32.3707
G01 X37.1733 Y32.3699
G01 X37.1680 Y32.3686
G01 X37.1630 Y32.3668
G01 X37.1581 Y32.3645
G01 X37.1534 Y32.3617
G01 X37.1491 Y32.3585
G01 X37.1451 Y32.3549
G01 X37.1415 Y32.3509
G01 X37.1383 Y32.3466
G01 X37.1355 Y32.3419
G01 X37.1332 Y32.3370
G01 X37.1314 Y32.3320
G01 X37.1301 Y32.3267
G01 X37.1293 Y32.3214
G01 X37.1290 Y32.3160
G01 X37.1290 Y32.1174
G01 X32.5400 Y32.1174
G01 X32.4626 Y32.1136
G01 X32.3832 Y32.1021
G01 X32.3053 Y32.0829
G01 X32.2297 Y32.0561
G01 X32.1571 Y32.0221
G01 X32.0882 Y31.9811
G01 X32.0236 Y31.9335
G01 X32.0194 Y31.9301
G01 X31.9620 Y31.8780
G01 X27.3550 Y27.2710
G01 X26.7240 Y27.2710
G01 X26.7186 Y27.2707
G01 X26.7133 Y27.2699
G01 X26.7080 Y27.2686
G01 X26.7030 Y27.2668
G01 X26.6981 Y27.2645
G01 X26.6934 Y27.2617
G01 X26.6891 Y27.2585
G01 X26.6851 Y27.2549
G01 X26.6815 Y27.2509
G01 X26.6783 Y27.2466
G01 X26.6755 Y27.2419
G01 X26.6732 Y27.2370
G01 X26.6714 Y27.2320
G01 X26.6701 Y27.2267
G01 X26.6693 Y27.2214
G01 X26.6690 Y27.2160
G01 X26.6690 Y25.1840
G01 X26.6693 Y25.1786
G01 X26.6701 Y25.1733
G01 X26.6714 Y25.1680
G01 X26.6732 Y25.1630
G01 X26.6755 Y25.1581
G01 X26.6783 Y25.1534
G01 X26.6815 Y25.1491
G01 X26.6851 Y25.1451
G01 X26.6891 Y25.1415
G01 X26.6934 Y25.1383
G01 X26.6981 Y25.1355
G01 X26.7030 Y25.1332
G01 X26.7080 Y25.1314
G01 X26.7133 Y25.1301
G01 X26.7186 Y25.1293
G01 X26.7240 Y25.1290
G01 X28.7560 Y25.1290
G01 X28.7614 Y25.1293
G01 X28.7667 Y25.1301
G01 X28.7720 Y25.1314
G01 X28.7770 Y25.1332
G01 X28.7819 Y25.1355
G01 X28.7866 Y25.1383
G01 X28.7909 Y25.1415
G01 X28.7949 Y25.1451
G01 X28.7985 Y25.1491
G01 X28.8017 Y25.1534
G01 X28.8045 Y25.1581
G01 X28.8068 Y25.1630
G01 X28.8086 Y25.1680
G01 X28.8099 Y25.1733
G01 X28.8107 Y25.1786
G01 X28.8110 Y25.1840
G01 X28.8110 Y26.4150
G01 X32.8786 Y30.4826
G01 X37.1290 Y30.4826
G01 X37.1290 Y30.2840
G01 X37.1293 Y30.2786
G01 X37.1301 Y30.2733
G01 X37.1314 Y30.2680
G01 X37.1332 Y30.2630
G01 X37.1355 Y30.2581
G01 X37.1383 Y30.2534
G01 X37.1415 Y30.2491
G01 X37.1451 Y30.2451
G01 X37.1491 Y30.2415
G01 X37.1534 Y30.2383
G01 X37.1581 Y30.2355
G01 X37.1630 Y30.2332
G01 X37.1680 Y30.2314
G01 X37.1733 Y30.2301
G01 X37.1786 Y30.2293
G01 X37.1840 Y30.2290
G01 X39.2160 Y30.2290
G00 Z2.0000
G00 X36.9565 Y39.7286
G01 F60.00
G01 Z-0.0187
G01 F120.00
G01 X37.0608 Y39.7338
G01 X37.1623 Y39.7490
G01 X37.1676 Y39.7500
G01 X37.2692 Y39.7759
G01 X37.3678 Y39.8116
G01 X37.4624 Y39.8568
G01 X37.5476 Y39.9080
G01 X37.5563 Y39.9138
G01 X37.6320 Y39.9702
G01 X37.6409 Y39.9776
G01 X37.7098 Y40.0405
G01 X37.7189 Y40.0496
G01 X37.7806 Y40.1182
G01 X37.7893 Y40.1289
G01 X37.8435 Y40.2025
G01 X37.8502 Y40.2124
G01 X38.7790 Y41.6290
G01 X39.2160 Y41.6290
G01 X39.2214 Y41.6293
G01 X39.2267 Y41.6301
G01 X39.2320 Y41.6314
G01 X39.2370 Y41.6332
G01 X39.2419 Y41.6355
G01 X39.2466 Y41.6383
G01 X39.2509 Y41.6415
G01 X39.2549 Y41.6451
G01 X39.2585 Y41.6491
G01 X39.2617 Y41.6534
G01 X39.2645 Y41.6581
G01 X39.2668 Y41.6630
G01 X39.2686 Y41.6680
G01 X39.2699 Y41.6733
G01 X39.2707 Y41.6786
G01 X39.2710 Y41.6840
G01 X39.2710 Y42.6961
G01 X39.2714 Y42.7066
G01 X39.2710 Y42.7185
G01 X39.2710 Y43.7160
G01 X39.2707 Y43.7214
G01 X39.2699 Y43.7267
G01 X39.2686 Y43.7320
G01 X39.2668 Y43.7370
G01 X39.2645 Y43.7419
G01 X39.2617 Y43.7466
G01 X39.2585 Y43.7509
G01 X39.2549 Y43.7549
G01 X39.2509 Y43.7585
G01 X39.2466 Y43.7617
G01 X39.2419 Y43.7645
G01 X39.2370 Y43.7668
G01 X39.2320 Y43.7686
G01 X39.2267 Y43.7699
G01 X39.2214 Y43.7707
G01 X39.2160 Y43.7710
G01 X38.2039 Y43.7710
G01 X38.1934 Y43.7714
G01 X38.1815 Y43.7710
G01 X37.1840 Y43.7710
G01 X37.1786 Y43.7707
G01 X37.1733 Y43.7699
G01 X37.1680 Y43.7686
G01 X37.1630 Y43.7668
G01 X37.1581 Y43.7645
G01 X37.1534 Y43.7617
G01 X37.1491 Y43.7585
G01 X37.1451 Y43.7549
G01 X37.1415 Y43.7509
G01 X37.1383 Y43.7466
G01 X37.1355 Y43.7419
G01 X37.1332 Y43.7370
G01 X37.1314 Y43.7320
G01 X37.1301 Y43.7267
G01 X37.1293 Y43.7214
G01 X37.1290 Y43.7160
G01 X37.1290 Y43.0208
G01 X36.3754 Y41.8715
G01 X28.4110 Y41.8715
G01 X28.4110 Y42.0160
G01 X28.4107 Y42.0214
G01 X28.4099 Y42.0267
G01 X28.4086 Y42.0320
G01 X28.4068 Y42.0370
G01 X28.4045 Y42.0419
G01 X28.4017 Y42.0466
G01 X28.3985 Y42.0509
G01 X28.3949 Y42.0549
G01 X28.3909 Y42.0585
G01 X28.3866 Y42.0617
G01 X28.3819 Y42.0645
G01 X28.3770 Y42.0668
G01 X28.3720 Y42.0686
G01 X28.3667 Y42.0699
G01 X28.3614 Y42.0707
G01 X28.3560 Y42.0710
G01 X27.3517 Y42.0710
G01 X27.3427 Y42.0714
G01 X27.3283 Y42.0710
G01 X26.3240 Y42.0710
G01 X26.3186 Y42.0707
G01 X26.3133 Y42.0699
G01 X26.3080 Y42.0686
G01 X26.3030 Y42.0668
G01 X26.2981 Y42.0645
G01 X26.2934 Y42.0617
G01 X26.2891 Y42.0585
G01 X26.2851 Y42.0549
G01 X26.2815 Y42.0509
G01 X26.2783 Y42.0466
G01 X26.2755 Y42.0419
G01 X26.2732 Y42.0370
G01 X26.2714 Y42.0320
G01 X26.2701 Y42.0267
G01 X26.2693 Y42.0214
G01 X26.2690 Y42.0160
G01 X26.2690 Y41.0117
G01 X26.2685 Y41.0000
G01 X26.2685 Y40.8000
G01 X26.2690 Y40.7883
G01 X26.2690 Y39.9840
G01 X26.2693 Y39.9786
G01 X26.2701 Y39.9733
G01 X26.2714 Y39.9680
G01 X26.2732 Y39.9630
G01 X26.2755 Y39.9581
G01 X26.2783 Y39.9534
G01 X26.2815 Y39.9491
G01 X26.2851 Y39.9451
G01 X26.2891 Y39.9415
G01 X26.2934 Y39.9383
G01 X26.2981 Y39.9355
G01 X26.3030 Y39.9332
G01 X26.3080 Y39.9314
G01 X26.3133 Y39.9301
G01 X26.3186 Y39.9293
G01 X26.3240 Y39.9290
G01 X26.7177 Y39.9290
G01 X26.7470 Y39.9076
G01 X26.8325 Y39.8563
G01 X26.8373 Y39.8538
G01 X26.9275 Y39.8111
G01 X26.9325 Y39.8091
G01 X27.0264 Y39.7755
G01 X27.0316 Y39.7739
G01 X27.1283 Y39.7497
G01 X27.1336 Y39.7486
G01 X27.2323 Y39.7340
G01 X27.2377 Y39.7335
G01 X27.3400 Y39.7285
G01 X36.9565 Y39.7286
G00 Z2.0000
G00 X56.7082 Y42.9903
G01 F60.00
G01 Z-0.0187
G01 F120.00
G01 X53.1300 Y42.9903
G01 X53.1007 Y43.0387
G01 X53.0264 Y43.1388
G01 X53.0230 Y43.1430
G01 X52.9392 Y43.2354
G01 X52.9354 Y43.2392
G01 X52.8430 Y43.3230
G01 X52.8388 Y43.3264
G01 X52.7387 Y43.4007
G01 X52.7342 Y43.4037
G01 X52.6272 Y43.4678
G01 X52.6225 Y43.4703
G01 X52.5098 Y43.5236
G01 X52.5048 Y43.5257
G01 X52.3874 Y43.5677
G01 X52.3822 Y43.5693
G01 X52.2613 Y43.5996
G01 X52.2560 Y43.6006
G01 X52.1326 Y43.6189
G01 X52.1272 Y43.6195
G01 X52.0000 Y43.6256
G01 X51.1710 Y43.6256
G01 X51.1710 Y43.7160
G01 X51.1707 Y43.7214
G01 X51.1699 Y43.7267
G01 X51.1686 Y43.7320
G01 X51.1668 Y43.7370
G01 X51.1645 Y43.7419
G01 X51.1617 Y43.7466
G01 X51.1585 Y43.7509
G01 X51.1549 Y43.7549
G01 X51.1509 Y43.7585
G01 X51.1466 Y43.7617
G01 X51.1419 Y43.7645
G01 X51.1370 Y43.7668
G01 X51.1320 Y43.7686
G01 X51.1267 Y43.7699
G01 X51.1214 Y43.7707
G01 X51.1160 Y43.7710
G01 X50.7062 Y43.7710
G01 X50.6098 Y43.8166
G01 X50.6048 Y43.8187
G01 X50.4874 Y43.8607
G01 X50.4822 Y43.8623
G01 X50.3613 Y43.8926
G01 X50.3560 Y43.8936
G01 X50.2326 Y43.9119
G01 X50.2272 Y43.9124
G01 X50.1027 Y43.9186
G01 X50.0973 Y43.9186
G01 X49.9728 Y43.9124
G01 X49.9674 Y43.9119
G01 X49.8440 Y43.8936
G01 X49.8387 Y43.8926
G01 X49.7178 Y43.8623
G01 X49.7126 Y43.8607
G01 X49.5952 Y43.8187
G01 X49.5902 Y43.8166
G01 X49.4938 Y43.7710
G01 X49.0840 Y43.7710
G01 X49.0786 Y43.7707
G01 X49.0733 Y43.7699
G01 X49.0680 Y43.7686
G01 X49.0630 Y43.7668
G01 X49.0581 Y43.7645
G01 X49.0534 Y43.7617
G01 X49.0491 Y43.7585
G01 X49.0451 Y43.7549
G01 X49.0415 Y43.7509
G01 X49.0383 Y43.7466
G01 X49.0355 Y43.7419
G01 X49.0332 Y43.7370
G01 X49.0314 Y43.7320
G01 X49.0301 Y43.7267
G01 X49.0293 Y43.7214
G01 X49.0290 Y43.7160
G01 X49.0290 Y43.3717
G01 X48.9963 Y43.3272
G01 X48.9322 Y43.2202
G01 X48.9297 Y43.2155
G01 X48.8764 Y43.1028
G01 X48.8743 Y43.0978
G01 X48.8323 Y42.9804
G01 X48.8307 Y42.9752
G01 X48.8004 Y42.8542
G01 X48.7994 Y42.8489
G01 X48.7811 Y42.7256
G01 X48.7805 Y42.7202
G01 X48.7744 Y42.5957
G01 X48.7744 Y42.5903
G01 X48.7805 Y42.4657
G01 X48.7811 Y42.4604
G01 X48.7994 Y42.3370
G01 X48.8004 Y42.3317
G01 X48.8307 Y42.2108
G01 X48.8323 Y42.2056
G01 X48.8743 Y42.0882
G01 X48.8764 Y42.0832
G01 X48.9297 Y41.9705
G01 X48.9322 Y41.9657
G01 X48.9963 Y41.8588
G01 X49.0290 Y41.8143
G01 X49.0290 Y41.6840
G01 X49.0293 Y41.6786
G01 X49.0301 Y41.6733
G01 X49.0314 Y41.6680
G01 X49.0332 Y41.6630
G01 X49.0355 Y41.6581
G01 X49.0383 Y41.6534
G01 X49.0415 Y41.6491
G01 X49.0451 Y41.6451
G01 X49.0491 Y41.6415
G01 X49.0534 Y41.6383
G01 X49.0581 Y41.6355
G01 X49.0630 Y41.6332
G01 X49.0680 Y41.6314
G01 X49.0733 Y41.6301
G01 X49.0786 Y41.6293
G01 X49.0840 Y41.6290
G01 X49.1893 Y41.6290
G01 X49.4556 Y41.3626
G01 X49.5500 Y41.2770
G01 X49.5541 Y41.2736
G01 X49.6543 Y41.1993
G01 X49.6588 Y41.1963
G01 X49.7657 Y41.1322
G01 X49.7705 Y41.1297
G01 X49.8832 Y41.0764
G01 X49.8882 Y41.0743
G01 X50.0056 Y41.0323
G01 X50.0108 Y41.0307
G01 X50.1317 Y41.0004
G01 X50.1370 Y40.9994
G01 X50.2604 Y40.9811
G01 X50.2657 Y40.9805
G01 X50.3930 Y40.9744
G01 X50.6744 Y40.9744
G01 X50.6744 Y36.9000
G01 X50.6805 Y36.7728
G01 X50.6811 Y36.7674
G01 X50.6994 Y36.6440
G01 X50.7004 Y36.6387
G01 X50.7307 Y36.5178
G01 X50.7323 Y36.5126
G01 X50.7743 Y36.3952
G01 X50.7764 Y36.3902
G01 X50.8297 Y36.2775
G01 X50.8322 Y36.2728
G01 X50.8963 Y36.1658
G01 X50.9290 Y36.1213
G01 X50.9290 Y35.8840
G01 X50.9293 Y35.8786
G01 X50.9301 Y35.8733
G01 X50.9314 Y35.8680
G01 X50.9332 Y35.8630
G01 X50.9355 Y35.8581
G01 X50.9383 Y35.8534
G01 X50.9415 Y35.8491
G01 X50.9451 Y35.8451
G01 X50.9491 Y35.8415
G01 X50.9534 Y35.8383
G01 X50.9581 Y35.8355
G01 X50.9630 Y35.8332
G01 X50.9680 Y35.8314
G01 X50.9733 Y35.8301
G01 X50.9786 Y35.8293
G01 X50.9840 Y35.8290
G01 X51.2213 Y35.8290
G01 X51.2658 Y35.7963
G01 X51.3728 Y35.7322
G01 X51.3775 Y35.7297
G01 X51.4902 Y35.6764
G01 X51.4952 Y35.6743
G01 X51.6126 Y35.6323
G01 X51.6178 Y35.6307
G01 X51.7387 Y35.6004
G01 X51.7440 Y35.5994
G01 X51.8674 Y35.5811
G01 X51.8728 Y35.5805
G01 X51.9973 Y35.5744
G01 X52.0027 Y35.5744
G01 X52.1272 Y35.5805
G01 X52.1326 Y35.5811
G01 X52.2560 Y35.5994
G01 X52.2613 Y35.6004
G01 X52.3822 Y35.6307
G01 X52.3874 Y35.6323
G01 X52.5048 Y35.6743
G01 X52.5098 Y35.6764
G01 X52.6225 Y35.7297
G01 X52.6272 Y35.7322
G01 X52.7342 Y35.7963
G01 X52.7787 Y35.8290
G01 X53.0160 Y35.8290
G01 X53.0214 Y35.8293
G01 X53.0267 Y35.8301
G01 X53.0320 Y35.8314
G01 X53.0370 Y35.8332
G01 X53.0419 Y35.8355
G01 X53.0466 Y35.8383
G01 X53.0509 Y35.8415
G01 X53.0549 Y35.8451
G01 X53.0585 Y35.8491
G01 X53.0617 Y35.8534
G01 X53.0645 Y35.8581
G01 X53.0668 Y35.8630
G01 X53.0686 Y35.8680
G01 X53.0699 Y35.8733
G01 X53.0707 Y35.8786
G01 X53.0710 Y35.8840
G01 X53.0710 Y36.1213
G01 X53.1037 Y36.1658
G01 X53.1678 Y36.2728
G01 X53.1703 Y36.2775
G01 X53.2236 Y36.3902
G01 X53.2257 Y36.3952
G01 X53.2677 Y36.5126
G01 X53.2693 Y36.5178
G01 X53.2996 Y36.6387
G01 X53.3006 Y36.6440
G01 X53.3189 Y36.7674
G01 X53.3195 Y36.7728
G01 X53.3256 Y36.8973
G01 X53.3256 Y41.6097
G01 X57.0005 Y41.6097
G01 X57.0421 Y41.5723
G01 X57.1322 Y41.5055
G01 X57.1367 Y41.5025
G01 X57.2329 Y41.4448
G01 X57.2377 Y41.4422
G01 X57.3391 Y41.3943
G01 X57.3441 Y41.3922
G01 X57.4497 Y41.3544
G01 X57.4548 Y41.3529
G01 X57.5636 Y41.3256
G01 X57.5689 Y41.3246
G01 X57.6799 Y41.3081
G01 X57.6853 Y41.3076
G01 X57.7973 Y41.3021
G01 X57.8027 Y41.3021
G01 X57.9147 Y41.3076
G01 X58.0033 Y41.3204
G01 X60.6769 Y38.6469
G01 X60.7292 Y38.5997
G01 X60.7838 Y38.5596
G01 X60.8372 Y38.5275
G01 X60.8984 Y38.4983
G01 X60.9033 Y38.4963
G01 X60.9672 Y38.4737
G01 X61.0277 Y38.4585
G01 X61.0947 Y38.4483
G01 X61.1650 Y38.4447
G01 X65.8697 Y38.4447
G01 X65.8697 Y37.2801
G01 X65.8613 Y37.2617
G01 X65.8403 Y37.2030
G01 X65.8235 Y37.1373
G01 X65.8133 Y37.0703
G01 X65.8128 Y37.0650
G01 X65.8097 Y36.9973
G01 X65.8133 Y36.9297
G01 X65.8235 Y36.8627
G01 X65.8403 Y36.7970
G01 X65.8613 Y36.7383
G01 X65.8697 Y36.7199
G01 X65.8697 Y33.8459
G01 X64.9661 Y32.9424
G01 X64.9048 Y32.9391
G01 X64.8132 Y32.9253
G01 X64.7234 Y32.9025
G01 X64.6363 Y32.8710
G01 X64.5574 Y32.8337
G01 X64.4778 Y32.7864
G01 X64.4033 Y32.7314
G01 X64.3344 Y32.6694
G01 X64.2720 Y32.6009
G01 X64.2166 Y32.5267
G01 X64.2136 Y32.5222
G01 X64.1663 Y32.4426
G01 X64.1269 Y32.3587
G01 X64.0959 Y32.2714
G01 X64.0747 Y32.1868
G01 X64.0609 Y32.0952
G01 X64.0561 Y32.0027
G01 X64.0561 Y31.9973
G01 X64.0609 Y31.9048
G01 X64.0747 Y31.8132
G01 X64.0975 Y31.7234
G01 X64.1290 Y31.6363
G01 X64.1688 Y31.5527
G01 X64.2166 Y31.4733
G01 X64.2720 Y31.3991
G01 X64.3344 Y31.3306
G01 X64.4033 Y31.2686
G01 X64.4778 Y31.2136
G01 X64.5574 Y31.1663
G01 X64.6413 Y31.1269
G01 X64.7286 Y31.0959
G01 X64.8132 Y31.0747
G01 X64.8185 Y31.0737
G01 X64.9102 Y31.0603
G01 X65.0027 Y31.0561
G01 X65.0898 Y31.0603
G01 X65.1815 Y31.0737
G01 X65.2714 Y31.0959
G01 X65.2766 Y31.0975
G01 X65.3637 Y31.1290
G01 X65.4473 Y31.1688
G01 X65.5267 Y31.2166
G01 X65.6009 Y31.2720
G01 X65.6656 Y31.3306
G01 X65.7280 Y31.3991
G01 X65.7834 Y31.4733
G01 X65.8312 Y31.5527
G01 X65.8710 Y31.6363
G01 X65.9025 Y31.7234
G01 X65.9253 Y31.8132
G01 X65.9391 Y31.9048
G01 X65.9424 Y31.9661
G01 X67.0500 Y33.0738
G01 X67.0919 Y33.1200
G01 X67.1324 Y33.1743
G01 X67.1675 Y33.2322
G01 X67.1967 Y33.2934
G01 X67.2197 Y33.3570
G01 X67.2365 Y33.4227
G01 X67.2467 Y33.4897
G01 X67.2503 Y33.5600
G01 X67.2503 Y36.3097
G01 X73.4818 Y36.3097
G01 X73.5088 Y36.2533
G01 X73.5857 Y36.1250
G01 X73.5887 Y36.1205
G01 X73.6778 Y36.0004
G01 X73.6812 Y35.9962
G01 X73.7816 Y35.8854
G01 X73.7854 Y35.8816
G01 X73.8962 Y35.7812
G01 X73.9004 Y35.7778
G01 X74.0205 Y35.6887
G01 X74.0250 Y35.6857
G01 X74.1533 Y35.6088
G01 X74.1581 Y35.6062
G01 X74.2933 Y35.5423
G01 X74.2983 Y35.5402
G01 X74.4391 Y35.4898
G01 X74.4442 Y35.4883
G01 X74.5893 Y35.4519
G01 X74.5946 Y35.4509
G01 X74.7426 Y35.4289
G01 X74.7479 Y35.4284
G01 X74.8973 Y35.4211
G01 X74.9027 Y35.4211
G01 X75.0521 Y35.4284
G01 X75.0574 Y35.4289
G01 X75.2054 Y35.4509
G01 X75.2107 Y35.4519
G01 X75.3558 Y35.4883
G01 X75.3609 Y35.4898
G01 X75.5017 Y35.5402
G01 X75.5067 Y35.5423
G01 X75.6419 Y35.6062
G01 X75.6467 Y35.6088
G01 X75.7750 Y35.6857
G01 X75.7795 Y35.6887
G01 X75.8996 Y35.7778
G01 X75.9038 Y35.7812
G01 X76.0146 Y35.8816
G01 X76.0184 Y35.8854
G01 X76.1188 Y35.9962
G01 X76.1222 Y36.0004
G01 X76.2113 Y36.1205
G01 X76.2143 Y36.1250
G01 X76.2912 Y36.2533
G01 X76.2938 Y36.2581
G01 X76.3577 Y36.3933
G01 X76.3598 Y36.3983
G01 X76.4102 Y36.5391
G01 X76.4117 Y36.5442
G01 X76.4481 Y36.6893
G01 X76.4491 Y36.6946
G01 X76.4711 Y36.8426
G01 X76.4716 Y36.8479
G01 X76.4789 Y36.9973
G01 X76.4789 Y37.0027
G01 X76.4716 Y37.1521
G01 X76.4711 Y37.1574
G01 X76.4491 Y37.3054
G01 X76.4481 Y37.3107
G01 X76.4117 Y37.4558
G01 X76.4102 Y37.4609
G01 X76.3598 Y37.6017
G01 X76.3577 Y37.6067
G01 X76.2938 Y37.7419
G01 X76.2912 Y37.7467
G01 X76.2143 Y37.8750
G01 X76.2113 Y37.8795
G01 X76.1222 Y37.9996
G01 X76.1188 Y38.0038
G01 X76.0184 Y38.1146
G01 X76.0146 Y38.1184
G01 X75.9038 Y38.2188
G01 X75.8996 Y38.2222
G01 X75.7795 Y38.3113
G01 X75.7750 Y38.3143
G01 X75.6467 Y38.3912
G01 X75.6419 Y38.3938
G01 X75.5067 Y38.4577
G01 X75.5017 Y38.4598
G01 X75.3609 Y38.5102
G01 X75.3558 Y38.5117
G01 X75.2107 Y38.5481
G01 X75.2054 Y38.5491
G01 X75.0574 Y38.5711
G01 X75.0521 Y38.5716
G01 X74.9027 Y38.5789
G01 X74.8973 Y38.5789
G01 X74.7479 Y38.5716
G01 X74.7426 Y38.5711
G01 X74.5946 Y38.5491
G01 X74.5893 Y38.5481
G01 X74.4442 Y38.5117
G01 X74.4391 Y38.5102
G01 X74.2983 Y38.4598
G01 X74.2933 Y38.4577
G01 X74.1581 Y38.3938
G01 X74.1533 Y38.3912
G01 X74.0250 Y38.3143
G01 X74.0205 Y38.3113
G01 X73.9004 Y38.2222
G01 X73.8962 Y38.2188
G01 X73.7854 Y38.1184
G01 X73.7816 Y38.1146
G01 X73.6812 Y38.0038
G01 X73.6778 Y37.9996
G01 X73.5887 Y37.8795
G01 X73.5857 Y37.8750
G01 X73.5088 Y37.7467
G01 X73.4818 Y37.6903
G01 X67.2503 Y37.6903
G01 X67.2503 Y39.1350
G01 X67.2472 Y39.2000
G01 X67.2375 Y39.2670
G01 X67.2213 Y39.3328
G01 X67.1987 Y39.3967
G01 X67.1700 Y39.4580
G01 X67.1354 Y39.5162
G01 X67.1324 Y39.5207
G01 X67.0919 Y39.5750
G01 X67.0500 Y39.6212
G01 X67.0000 Y39.6669
G01 X66.9457 Y39.7074
G01 X66.9412 Y39.7104
G01 X66.8830 Y39.7450
G01 X66.8217 Y39.7737
G01 X66.7578 Y39.7963
G01 X66.6973 Y39.8115
G01 X66.6303 Y39.8217
G01 X66.5600 Y39.8253
G01 X61.4509 Y39.8253
G01 X58.9796 Y42.2967
G01 X58.9924 Y42.3853
G01 X58.9979 Y42.4973
G01 X58.9979 Y42.5027
G01 X58.9924 Y42.6147
G01 X58.9919 Y42.6201
G01 X58.9754 Y42.7311
G01 X58.9744 Y42.7364
G01 X58.9471 Y42.8452
G01 X58.9456 Y42.8503
G01 X58.9078 Y42.9559
G01 X58.9057 Y42.9609
G01 X58.8578 Y43.0623
G01 X58.8552 Y43.0671
G01 X58.7975 Y43.1633
G01 X58.7945 Y43.1678
G01 X58.7277 Y43.2579
G01 X58.7243 Y43.2620
G01 X58.6490 Y43.3452
G01 X58.6452 Y43.3490
G01 X58.5620 Y43.4243
G01 X58.5579 Y43.4277
G01 X58.4678 Y43.4945
G01 X58.4633 Y43.4975
G01 X58.3671 Y43.5552
G01 X58.3623 Y43.5578
G01 X58.2609 Y43.6057
G01 X58.2559 Y43.6078
G01 X58.1503 Y43.6456
G01 X58.1452 Y43.6471
G01 X58.0364 Y43.6744
G01 X58.0311 Y43.6754
G01 X57.9201 Y43.6919
G01 X57.9147 Y43.6924
G01 X57.8027 Y43.6979
G01 X57.7973 Y43.6979
G01 X57.6853 Y43.6924
G01 X57.6799 Y43.6919
G01 X57.5689 Y43.6754
G01 X57.5636 Y43.6744
G01 X57.4548 Y43.6471
G01 X57.4497 Y43.6456
G01 X57.3441 Y43.6078
G01 X57.3391 Y43.6057
G01 X57.2377 Y43.5578
G01 X57.2329 Y43.5552
G01 X57.1367 Y43.4975
G01 X57.1322 Y43.4945
G01 X57.0421 Y43.4277
G01 X57.0380 Y43.4243
G01 X56.9548 Y43.3490
G01 X56.9510 Y43.3452
G01 X56.8757 Y43.2620
G01 X56.8723 Y43.2579
G01 X56.8055 Y43.1678
G01 X56.8025 Y43.1633
G01 X56.7448 Y43.0671
G01 X56.7082 Y42.9903
G00 Z2.0000
G00 X57.1097 Y30.6453
G01 F60.00
G01 Z-0.0187
G01 F120.00
G01 X57.1097 Y28.5653
G01 X57.1128 Y28.5030
G01 X57.1225 Y28.4360
G01 X57.1235 Y28.4307
G01 X57.1403 Y28.3650
G01 X57.1633 Y28.3014
G01 X57.1900 Y28.2450
G01 X57.2246 Y28.1868
G01 X57.2276 Y28.1823
G01 X57.2681 Y28.1280
G01 X57.3119 Y28.0799
G01 X59.7718 Y25.6199
G01 X59.7870 Y25.5603
G01 X59.8143 Y25.4849
G01 X59.8463 Y25.4173
G01 X59.8872 Y25.3484
G01 X59.9348 Y25.2838
G01 X59.9884 Y25.2242
G01 X59.9922 Y25.2204
G01 X60.0518 Y25.1668
G01 X60.1164 Y25.1192
G01 X60.1805 Y25.0808
G01 X60.2529 Y25.0463
G01 X60.2579 Y25.0442
G01 X60.3334 Y25.0175
G01 X60.4113 Y24.9982
G01 X60.4906 Y24.9867
G01 X60.5653 Y24.9831
G01 X60.5707 Y24.9831
G01 X60.6508 Y24.9873
G01 X60.7300 Y24.9993
G01 X60.8026 Y25.0175
G01 X60.8781 Y25.0442
G01 X60.8831 Y25.0463
G01 X60.9555 Y25.0808
G01 X61.0241 Y25.1222
G01 X61.0883 Y25.1702
G01 X61.1476 Y25.2242
G01 X61.2012 Y25.2838
G01 X61.2488 Y25.3484
G01 X61.2897 Y25.4173
G01 X61.3238 Y25.4899
G01 X61.3505 Y25.5654
G01 X61.3698 Y25.6433
G01 X61.3813 Y25.7226
G01 X61.3849 Y25.8027
G01 X61.3807 Y25.8828
G01 X61.3687 Y25.9620
G01 X61.3490 Y26.0397
G01 X61.3217 Y26.1151
G01 X61.2872 Y26.1875
G01 X61.2458 Y26.2561
G01 X61.1978 Y26.3203
G01 X61.1476 Y26.3758
G01 X61.0883 Y26.4298
G01 X61.0241 Y26.4778
G01 X60.9555 Y26.5192
G01 X60.8831 Y26.5537
G01 X60.8077 Y26.5810
G01 X60.7481 Y26.5962
G01 X58.4903 Y28.8539
G01 X58.4903 Y31.3622
G01 X58.5620 Y31.4157
G01 X58.6452 Y31.4910
G01 X58.6490 Y31.4948
G01 X58.7243 Y31.5780
G01 X58.7277 Y31.5821
G01 X58.7945 Y31.6722
G01 X58.7975 Y31.6767
G01 X58.8552 Y31.7729
G01 X58.8578 Y31.7777
G01 X58.9057 Y31.8791
G01 X58.9078 Y31.8841
G01 X58.9456 Y31.9897
G01 X58.9471 Y31.9948
G01 X58.9744 Y32.1036
G01 X58.9754 Y32.1089
G01 X58.9919 Y32.2199
G01 X58.9924 Y32.2253
G01 X58.9979 Y32.3373
G01 X58.9979 Y32.3427
G01 X58.9924 Y32.4547
G01 X58.9919 Y32.4601
G01 X58.9754 Y32.5711
G01 X58.9744 Y32.5764
G01 X58.9471 Y32.6852
G01 X58.9456 Y32.6903
G01 X58.9078 Y32.7959
G01 X58.9057 Y32.8009
G01 X58.8578 Y32.9023
G01 X58.8552 Y32.9071
G01 X58.7975 Y33.0033
G01 X58.7945 Y33.0078
G01 X58.7277 Y33.0979
G01 X58.7243 Y33.1020
G01 X58.6490 Y33.1852
G01 X58.6452 Y33.1890
G01 X58.5620 Y33.2643
G01 X58.5579 Y33.2677
G01 X58.4678 Y33.3345
G01 X58.4633 Y33.3375
G01 X58.3671 Y33.3952
G01 X58.3623 Y33.3978
G01 X58.2609 Y33.4457
G01 X58.2559 Y33.4478
G01 X58.1503 Y33.4856
G01 X58.1452 Y33.4871
G01 X58.0364 Y33.5144
G01 X58.0311 Y33.5154
G01 X57.9201 Y33.5319
G01 X57.9147 Y33.5324
G01 X57.8027 Y33.5379
G01 X57.7973 Y33.5379
G01 X57.6853 Y33.5324
G01 X57.6799 Y33.5319
G01 X57.5689 Y33.5154
G01 X57.5636 Y33.5144
G01 X57.4548 Y33.4871
G01 X57.4497 Y33.4856
G01 X57.3441 Y33.4478
G01 X57.3391 Y33.4457
G01 X57.2377 Y33.3978
G01 X57.2329 Y33.3952
G01 X57.1367 Y33.3375
G01 X57.1322 Y33.3345
G01 X57.0421 Y33.2677
G01 X57.0380 Y33.2643
G01 X56.9548 Y33.1890
G01 X56.9510 Y33.1852
G01 X56.8757 Y33.1020
G01 X56.8723 Y33.0979
G01 X56.8055 Y33.0078
G01 X56.8025 Y33.0033
G01 X56.7448 Y32.9071
G01 X56.7422 Y32.9023
G01 X56.6943 Y32.8009
G01 X56.6922 Y32.7959
G01 X56.6544 Y32.6903
G01 X56.6529 Y32.6852
G01 X56.6256 Y32.5764
G01 X56.6246 Y32.5711
G01 X56.6081 Y32.4601
G01 X56.6076 Y32.4547
G01 X56.6021 Y32.3427
G01 X56.6021 Y32.3373
G01 X56.6076 Y32.2253
G01 X56.6174 Y32.1575
G01 X56.4666 Y31.9428
G01 X56.4141 Y31.8903
G01 X51.2710 Y31.8903
G01 X51.2710 Y32.2160
G01 X51.2707 Y32.2214
G01 X51.2699 Y32.2267
G01 X51.2686 Y32.2320
G01 X51.2668 Y32.2370
G01 X51.2645 Y32.2419
G01 X51.2617 Y32.2466
G01 X51.2585 Y32.2509
G01 X51.2549 Y32.2549
G01 X51.2509 Y32.2585
G01 X51.2466 Y32.2617
G01 X51.2419 Y32.2645
G01 X51.2370 Y32.2668
G01 X51.2320 Y32.2686
G01 X51.2267 Y32.2699
G01 X51.2214 Y32.2707
G01 X51.2160 Y32.2710
G01 X49.1840 Y32.2710
G01 X49.1786 Y32.2707
G01 X49.1733 Y32.2699
G01 X49.1680 Y32.2686
G01 X49.1630 Y32.2668
G01 X49.1581 Y32.2645
G01 X49.1534 Y32.2617
G01 X49.1491 Y32.2585
G01 X49.1451 Y32.2549
G01 X49.1415 Y32.2509
G01 X49.1383 Y32.2466
G01 X49.1355 Y32.2419
G01 X49.1332 Y32.2370
G01 X49.1314 Y32.2320
G01 X49.1301 Y32.2267
G01 X49.1293 Y32.2214
G01 X49.1290 Y32.2160
G01 X49.1290 Y30.1840
G01 X49.1293 Y30.1786
G01 X49.1301 Y30.1733
G01 X49.1314 Y30.1680
G01 X49.1332 Y30.1630
G01 X49.1355 Y30.1581
G01 X49.1383 Y30.1534
G01 X49.1415 Y30.1491
G01 X49.1451 Y30.1451
G01 X49.1491 Y30.1415
G01 X49.1534 Y30.1383
G01 X49.1581 Y30.1355
G01 X49.1630 Y30.1332
G01 X49.1680 Y30.1314
G01 X49.1733 Y30.1301
G01 X49.1786 Y30.1293
G01 X49.1840 Y30.1290
G01 X51.2160 Y30.1290
G01 X51.2214 Y30.1293
G01 X51.2267 Y30.1301
G01 X51.2320 Y30.1314
G01 X51.2370 Y30.1332
G01 X51.2419 Y30.1355
G01 X51.2466 Y30.1383
G01 X51.2509 Y30.1415
G01 X51.2549 Y30.1451
G01 X51.2585 Y30.1491
G01 X51.2617 Y30.1534
G01 X51.2645 Y30.1581
G01 X51.2668 Y30.1630
G01 X51.2686 Y30.1680
G01 X51.2699 Y30.1733
G01 X51.2707 Y30.1786
G01 X51.2710 Y30.1840
G01 X51.2710 Y30.5097
G01 X56.7000 Y30.5097
G01 X56.7650 Y30.5128
G01 X56.8320 Y30.5225
G01 X56.8373 Y30.5235
G01 X56.9030 Y30.5403
G01 X56.9666 Y30.5633
G01 X57.0230 Y30.5900
G01 X57.0812 Y30.6246
G01 X57.1097 Y30.6453
G00 Z2.0000
G00 X63.2903 Y26.2357
G01 F60.00
G01 Z-0.0187
G01 F120.00
G01 X63.2903 Y30.8400
G01 X63.2872 Y30.9050
G01 X63.2775 Y30.9720
G01 X63.2765 Y30.9773
G01 X63.2597 Y31.0430
G01 X63.2367 Y31.1066
G01 X63.2075 Y31.1678
G01 X63.1724 Y31.2257
G01 X63.1319 Y31.2800
G01 X63.0881 Y31.3281
G01 X62.2424 Y32.1739
G01 X62.2391 Y32.2352
G01 X62.2263 Y32.3215
G01 X62.2041 Y32.4114
G01 X62.1731 Y32.4987
G01 X62.1337 Y32.5826
G01 X62.0864 Y32.6622
G01 X62.0314 Y32.7367
G01 X61.9694 Y32.8056
G01 X61.9009 Y32.8680
G01 X61.8267 Y32.9234
G01 X61.8222 Y32.9264
G01 X61.7426 Y32.9737
G01 X61.6637 Y33.0110
G01 X61.5766 Y33.0425
G01 X61.4868 Y33.0653
G01 X61.4815 Y33.0663
G01 X61.3898 Y33.0797
G01 X61.2973 Y33.0839
G01 X61.2102 Y33.0797
G01 X61.1185 Y33.0663
G01 X61.1132 Y33.0653
G01 X61.0234 Y33.0425
G01 X60.9363 Y33.0110
G01 X60.8527 Y32.9712
G01 X60.7733 Y32.9234
G01 X60.7033 Y32.8714
G01 X60.6344 Y32.8094
G01 X60.6306 Y32.8056
G01 X60.5686 Y32.7367
G01 X60.5136 Y32.6622
G01 X60.4663 Y32.5826
G01 X60.4269 Y32.4987
G01 X60.3959 Y32.4114
G01 X60.3747 Y32.3268
G01 X60.3609 Y32.2352
G01 X60.3561 Y32.1427
G01 X60.3561 Y32.1373
G01 X60.3609 Y32.0448
G01 X60.3747 Y31.9532
G01 X60.3975 Y31.8634
G01 X60.4290 Y31.7763
G01 X60.4663 Y31.6974
G01 X60.5136 Y31.6178
G01 X60.5166 Y31.6133
G01 X60.5720 Y31.5391
G01 X60.6344 Y31.4706
G01 X60.7033 Y31.4086
G01 X60.7778 Y31.3536
G01 X60.8574 Y31.3063
G01 X60.9363 Y31.2690
G01 X61.0234 Y31.2375
G01 X61.1132 Y31.2147
G01 X61.2048 Y31.2009
G01 X61.2661 Y31.1976
G01 X61.9097 Y30.5541
G01 X61.9097 Y26.2357
G01 X61.8783 Y26.1827
G01 X61.8463 Y26.1151
G01 X61.8442 Y26.1101
G01 X61.8175 Y26.0346
G01 X61.7993 Y25.9620
G01 X61.7873 Y25.8828
G01 X61.7831 Y25.8027
G01 X61.7831 Y25.7973
G01 X61.7867 Y25.7226
G01 X61.7982 Y25.6433
G01 X61.8175 Y25.5654
G01 X61.8442 Y25.4899
G01 X61.8463 Y25.4849
G01 X61.8783 Y25.4173
G01 X61.9192 Y25.3484
G01 X61.9668 Y25.2838
G01 X62.0204 Y25.2242
G01 X62.0797 Y25.1702
G01 X62.1439 Y25.1222
G01 X62.2125 Y25.0808
G01 X62.2849 Y25.0463
G01 X62.3603 Y25.0190
G01 X62.4380 Y24.9993
G01 X62.5172 Y24.9873
G01 X62.5973 Y24.9831
G01 X62.6774 Y24.9867
G01 X62.7567 Y24.9982
G01 X62.8346 Y25.0175
G01 X62.9101 Y25.0442
G01 X62.9827 Y25.0783
G01 X63.0516 Y25.1192
G01 X63.1162 Y25.1668
G01 X63.1758 Y25.2204
G01 X63.2298 Y25.2797
G01 X63.2778 Y25.3439
G01 X63.3192 Y25.4125
G01 X63.3537 Y25.4849
G01 X63.3810 Y25.5603
G01 X63.4007 Y25.6380
G01 X63.4127 Y25.7172
G01 X63.4169 Y25.7973
G01 X63.4133 Y25.8774
G01 X63.4018 Y25.9567
G01 X63.3825 Y26.0346
G01 X63.3558 Y26.1101
G01 X63.3217 Y26.1827
G01 X63.2903 Y26.2357
G00 Z2.0000
G00 X63.3823 Y23.4715
G01 F60.00
G01 Z-0.0187
G01 F120.00
G01 X55.2233 Y23.4715
G01 X55.1209 Y23.4665
G01 X55.1155 Y23.4660
G01 X55.0169 Y23.4514
G01 X55.0116 Y23.4503
G01 X54.9148 Y23.4261
G01 X54.9096 Y23.4245
G01 X54.8157 Y23.3909
G01 X54.7741 Y23.3715
G01 X46.2315 Y23.3715
G01 X46.2315 Y31.1064
G01 X46.2265 Y31.2088
G01 X46.2260 Y31.2141
G01 X46.2114 Y31.3128
G01 X46.2103 Y31.3181
G01 X46.1861 Y31.4149
G01 X46.1845 Y31.4200
G01 X46.1509 Y31.5140
G01 X46.1489 Y31.5190
G01 X46.1062 Y31.6091
G01 X46.1037 Y31.6139
G01 X46.0524 Y31.6995
G01 X46.0494 Y31.7039
G01 X45.9899 Y31.7841
G01 X45.9865 Y31.7882
G01 X45.9177 Y31.8641
G01 X40.9037 Y36.8780
G01 X40.8297 Y36.9450
G01 X40.8256 Y36.9484
G01 X40.7454 Y37.0079
G01 X40.7410 Y37.0109
G01 X40.6554 Y37.0622
G01 X40.6506 Y37.0647
G01 X40.5605 Y37.1074
G01 X40.5555 Y37.1094
G01 X40.4615 Y37.1430
G01 X40.4564 Y37.1446
G01 X40.3596 Y37.1688
G01 X40.3543 Y37.1699
G01 X40.2556 Y37.1845
G01 X40.2503 Y37.1850
G01 X40.1479 Y37.1900
G01 X25.8715 Y37.1900
G01 X25.8715 Y41.0000
G01 X25.8710 Y41.0117
G01 X25.8710 Y42.0160
G01 X25.8707 Y42.0214
G01 X25.8699 Y42.0267
G01 X25.8686 Y42.0320
G01 X25.8668 Y42.0370
G01 X25.8645 Y42.0419
G01 X25.8617 Y42.0466
G01 X25.8585 Y42.0509
G01 X25.8549 Y42.0549
G01 X25.8509 Y42.0585
G01 X25.8466 Y42.0617
G01 X25.8419 Y42.0645
G01 X25.8370 Y42.0668
G01 X25.8320 Y42.0686
G01 X25.8267 Y42.0699
G01 X25.8214 Y42.0707
G01 X25.8160 Y42.0710
G01 X24.8117 Y42.0710
G01 X24.8027 Y42.0714
G01 X24.7883 Y42.0710
G01 X23.7840 Y42.0710
G01 X23.7786 Y42.0707
G01 X23.7733 Y42.0699
G01 X23.7680 Y42.0686
G01 X23.7630 Y42.0668
G01 X23.7581 Y42.0645
G01 X23.7534 Y42.0617
G01 X23.7491 Y42.0585
G01 X23.7451 Y42.0549
G01 X23.7415 Y42.0509
G01 X23.7383 Y42.0466
G01 X23.7355 Y42.0419
G01 X23.7332 Y42.0370
G01 X23.7314 Y42.0320
G01 X23.7301 Y42.0267
G01 X23.7293 Y42.0214
G01 X23.7290 Y42.0160
G01 X23.7290 Y41.0117
G01 X23.7285 Y41.0000
G01 X23.7285 Y34.7915
G01 X11.8574 Y34.7915
G01 X11.8146 Y34.8384
G01 X11.7038 Y34.9388
G01 X11.6996 Y34.9422
G01 X11.5795 Y35.0313
G01 X11.5750 Y35.0343
G01 X11.4467 Y35.1112
G01 X11.4419 Y35.1138
G01 X11.3067 Y35.1777
G01 X11.3017 Y35.1798
G01 X11.1609 Y35.2302
G01 X11.1558 Y35.2317
G01 X11.0107 Y35.2681
G01 X11.0054 Y35.2691
G01 X10.8574 Y35.2911
G01 X10.8521 Y35.2916
G01 X10.7027 Y35.2989
G01 X10.6973 Y35.2989
G01 X10.5479 Y35.2916
G01 X10.5426 Y35.2911
G01 X10.3946 Y35.2691
G01 X10.3893 Y35.2681
G01 X10.2442 Y35.2317
G01 X10.2391 Y35.2302
G01 X10.0983 Y35.1798
G01 X10.0933 Y35.1777
G01 X9.9581 Y35.1138
G01 X9.9533 Y35.1112
G01 X9.8250 Y35.0343
G01 X9.8205 Y35.0313
G01 X9.7004 Y34.9422
G01 X9.6962 Y34.9388
G01 X9.5854 Y34.8384
G01 X9.5816 Y34.8346
G01 X9.4812 Y34.7238
G01 X9.4778 Y34.7196
G01 X9.3887 Y34.5995
G01 X9.3857 Y34.5950
G01 X9.3088 Y34.4667
G01 X9.3062 Y34.4619
G01 X9.2423 Y34.3267
G01 X9.2402 Y34.3217
G01 X9.1898 Y34.1809
G01 X9.1883 Y34.1758
G01 X9.1519 Y34.0307
G01 X9.1509 Y34.0254
G01 X9.1289 Y33.8774
G01 X9.1284 Y33.8721
G01 X9.1211 Y33.7227
G01 X9.1211 Y33.7173
G01 X9.1284 Y33.5679
G01 X9.1289 Y33.5626
G01 X9.1509 Y33.4146
G01 X9.1519 Y33.4093
G01 X9.1883 Y33.2642
G01 X9.1898 Y33.2591
G01 X9.2402 Y33.1183
G01 X9.2423 Y33.1133
G01 X9.3062 Y32.9781
G01 X9.3088 Y32.9733
G01 X9.3857 Y32.8450
G01 X9.3887 Y32.8405
G01 X9.4778 Y32.7204
G01 X9.4812 Y32.7162
G01 X9.5816 Y32.6054
G01 X9.5854 Y32.6016
G01 X9.6962 Y32.5012
G01 X9.7004 Y32.4978
G01 X9.8205 Y32.4087
G01 X9.8250 Y32.4057
G01 X9.9533 Y32.3288
G01 X9.9581 Y32.3262
G01 X10.0933 Y32.2623
G01 X10.0983 Y32.2602
G01 X10.2391 Y32.2098
G01 X10.2442 Y32.2083
G01 X10.3893 Y32.1719
G01 X10.3946 Y32.1709
G01 X10.5426 Y32.1489
G01 X10.5479 Y32.1484
G01 X10.6973 Y32.1411
G01 X10.7027 Y32.1411
G01 X10.8521 Y32.1484
G01 X10.8574 Y32.1489
G01 X11.0054 Y32.1709
G01 X11.0107 Y32.1719
G01 X11.1558 Y32.2083
G01 X11.1609 Y32.2098
G01 X11.3017 Y32.2602
G01 X11.3067 Y32.2623
G01 X11.4419 Y32.3262
G01 X11.4467 Y32.3288
G01 X11.5750 Y32.4057
G01 X11.5795 Y32.4087
G01 X11.6996 Y32.4978
G01 X11.7038 Y32.5012
G01 X11.8146 Y32.6016
G01 X11.8574 Y32.6485
G01 X23.7285 Y32.6485
G01 X23.7285 Y29.6100
G01 X23.7335 Y29.5077
G01 X23.7340 Y29.5023
G01 X23.7486 Y29.4036
G01 X23.7497 Y29.3983
G01 X23.7739 Y29.3016
G01 X23.7755 Y29.2964
G01 X23.8091 Y29.2025
G01 X23.8111 Y29.1975
G01 X23.8538 Y29.1073
G01 X23.8563 Y29.1025
G01 X23.9076 Y29.0170
G01 X23.9106 Y29.0125
G01 X23.9701 Y28.9324
G01 X23.9735 Y28.9282
G01 X24.0423 Y28.8523
G01 X24.1285 Y28.7662
G01 X24.1285 Y23.5438
G01 X21.0562 Y20.4715
G01 X15.3973 Y20.4714
G01 X15.2977 Y20.4665
G01 X15.2923 Y20.4660
G01 X15.1936 Y20.4514
G01 X15.1883 Y20.4503
G01 X15.0916 Y20.4261
G01 X15.0864 Y20.4245
G01 X14.9925 Y20.3909
G01 X14.9875 Y20.3889
G01 X14.8973 Y20.3462
G01 X14.8925 Y20.3437
G01 X14.8070 Y20.2924
G01 X14.8025 Y20.2894
G01 X14.7224 Y20.2299
G01 X14.7182 Y20.2265
G01 X14.6423 Y20.1577
G01 X11.0607 Y16.5761
G01 X10.9973 Y16.5789
G01 X10.8479 Y16.5716
G01 X10.8426 Y16.5711
G01 X10.6946 Y16.5491
G01 X10.6893 Y16.5481
G01 X10.5442 Y16.5117
G01 X10.5391 Y16.5102
G01 X10.3983 Y16.4598
G01 X10.3933 Y16.4577
G01 X10.2581 Y16.3938
G01 X10.2533 Y16.3912
G01 X10.1250 Y16.3143
G01 X10.1205 Y16.3113
G01 X10.0004 Y16.2222
G01 X9.9962 Y16.2188
G01 X9.8854 Y16.1184
G01 X9.8816 Y16.1146
G01 X9.7812 Y16.0038
G01 X9.7778 Y15.9996
G01 X9.6887 Y15.8795
G01 X9.6857 Y15.8750
G01 X9.6088 Y15.7467
G01 X9.6062 Y15.7419
G01 X9.5423 Y15.6067
G01 X9.5402 Y15.6017
G01 X9.4898 Y15.4609
G01 X9.4883 Y15.4558
G01 X9.4519 Y15.3107
G01 X9.4509 Y15.3054
G01 X9.4289 Y15.1574
G01 X9.4284 Y15.1521
G01 X9.4211 Y15.0027
G01 X9.4211 Y14.9973
G01 X9.4284 Y14.8479
G01 X9.4289 Y14.8426
G01 X9.4509 Y14.6946
G01 X9.4519 Y14.6893
G01 X9.4883 Y14.5442
G01 X9.4898 Y14.5391
G01 X9.5402 Y14.3983
G01 X9.5423 Y14.3933
G01 X9.6062 Y14.2581
G01 X9.6088 Y14.2533
G01 X9.6857 Y14.1250
G01 X9.6887 Y14.1205
G01 X9.7778 Y14.0004
G01 X9.7812 Y13.9962
G01 X9.8816 Y13.8854
G01 X9.8854 Y13.8816
G01 X9.9962 Y13.7812
G01 X10.0004 Y13.7778
G01 X10.1205 Y13.6887
G01 X10.1250 Y13.6857
G01 X10.2533 Y13.6088
G01 X10.2581 Y13.6062
G01 X10.3933 Y13.5423
G01 X10.3983 Y13.5402
G01 X10.5391 Y13.4898
G01 X10.5442 Y13.4883
G01 X10.6893 Y13.4519
G01 X10.6946 Y13.4509
G01 X10.8426 Y13.4289
G01 X10.8479 Y13.4284
G01 X10.9973 Y13.4211
G01 X11.0027 Y13.4211
G01 X11.1521 Y13.4284
G01 X11.1574 Y13.4289
G01 X11.3054 Y13.4509
G01 X11.3107 Y13.4519
G01 X11.4558 Y13.4883
G01 X11.4609 Y13.4898
G01 X11.6017 Y13.5402
G01 X11.6067 Y13.5423
G01 X11.7419 Y13.6062
G01 X11.7467 Y13.6088
G01 X11.8750 Y13.6857
G01 X11.8795 Y13.6887
G01 X11.9996 Y13.7778
G01 X12.0038 Y13.7812
G01 X12.1146 Y13.8816
G01 X12.1184 Y13.8854
G01 X12.2188 Y13.9962
G01 X12.2222 Y14.0004
G01 X12.3113 Y14.1205
G01 X12.3143 Y14.1250
G01 X12.3912 Y14.2533
G01 X12.3938 Y14.2581
G01 X12.4577 Y14.3933
G01 X12.4598 Y14.3983
G01 X12.5102 Y14.5391
G01 X12.5117 Y14.5442
G01 X12.5481 Y14.6893
G01 X12.5491 Y14.6946
G01 X12.5711 Y14.8426
G01 X12.5716 Y14.8479
G01 X12.5789 Y14.9973
G01 X12.5761 Y15.0607
G01 X15.8438 Y18.3285
G01 X21.5000 Y18.3285
G01 X21.6023 Y18.3335
G01 X21.6077 Y18.3340
G01 X21.7064 Y18.3486
G01 X21.7117 Y18.3497
G01 X21.8084 Y18.3739
G01 X21.8136 Y18.3755
G01 X21.9075 Y18.4091
G01 X21.9125 Y18.4111
G01 X22.0027 Y18.4538
G01 X22.0075 Y18.4563
G01 X22.0930 Y18.5076
G01 X22.0975 Y18.5106
G01 X22.1776 Y18.5701
G01 X22.1818 Y18.5735
G01 X22.2577 Y18.6423
G01 X25.9577 Y22.3423
G01 X26.0265 Y22.4182
G01 X26.0299 Y22.4224
G01 X26.0894 Y22.5025
G01 X26.0924 Y22.5070
G01 X26.1437 Y22.5925
G01 X26.1462 Y22.5973
G01 X26.1889 Y22.6875
G01 X26.1909 Y22.6925
G01 X26.2245 Y22.7864
G01 X26.2261 Y22.7916
G01 X26.2503 Y22.8883
G01 X26.2514 Y22.8936
G01 X26.2660 Y22.9923
G01 X26.2665 Y22.9977
G01 X26.2714 Y23.0973
G01 X26.2715 Y29.2100
G01 X26.2665 Y29.3123
G01 X26.2660 Y29.3177
G01 X26.2514 Y29.4164
G01 X26.2503 Y29.4217
G01 X26.2261 Y29.5184
G01 X26.2245 Y29.5236
G01 X26.1909 Y29.6175
G01 X26.1889 Y29.6225
G01 X26.1462 Y29.7127
G01 X26.1437 Y29.7175
G01 X26.0924 Y29.8030
G01 X26.0894 Y29.8075
G01 X26.0299 Y29.8876
G01 X26.0265 Y29.8918
G01 X25.9577 Y29.9677
G01 X25.8715 Y30.0538
G01 X25.8715 Y35.0470
G01 X39.7041 Y35.0470
G01 X44.0885 Y30.6626
G01 X44.0885 Y22.8532
G01 X44.0691 Y22.8116
G01 X44.0355 Y22.7177
G01 X44.0339 Y22.7125
G01 X44.0097 Y22.6157
G01 X44.0086 Y22.6104
G01 X43.9940 Y22.5118
G01 X43.9935 Y22.5064
G01 X43.9885 Y22.4041
G01 X43.9885 Y21.3315
G01 X42.4000 Y21.3315
G01 X42.2977 Y21.3265
G01 X42.2923 Y21.3260
G01 X42.1936 Y21.3114
G01 X42.1883 Y21.3103
G01 X42.0916 Y21.2861
G01 X42.0864 Y21.2845
G01 X41.9925 Y21.2509
G01 X41.9875 Y21.2489
G01 X41.8973 Y21.2062
G01 X41.8925 Y21.2037
G01 X41.8070 Y21.1524
G01 X41.8025 Y21.1494
G01 X41.7224 Y21.0899
G01 X41.7182 Y21.0865
G01 X41.6443 Y21.0195
G01 X41.6405 Y21.0157
G01 X41.5735 Y20.9418
G01 X41.5701 Y20.9376
G01 X41.5106 Y20.8575
G01 X41.5076 Y20.8530
G01 X41.4563 Y20.7675
G01 X41.4538 Y20.7627
G01 X41.4111 Y20.6725
G01 X41.4091 Y20.6675
G01 X41.3755 Y20.5736
G01 X41.3739 Y20.5684
G01 X41.3497 Y20.4717
G01 X41.3486 Y20.4664
G01 X41.3340 Y20.3677
G01 X41.3335 Y20.3623
G01 X41.3285 Y20.2600
G01 X41.3285 Y17.4000
G01 X41.3290 Y17.3883
G01 X41.3290 Y16.3840
G01 X41.3293 Y16.3786
G01 X41.3301 Y16.3733
G01 X41.3314 Y16.3680
G01 X41.3332 Y16.3630
G01 X41.3355 Y16.3581
G01 X41.3383 Y16.3534
G01 X41.3415 Y16.3491
G01 X41.3451 Y16.3451
G01 X41.3491 Y16.3415
G01 X41.3534 Y16.3383
G01 X41.3581 Y16.3355
G01 X41.3630 Y16.3332
G01 X41.3680 Y16.3314
G01 X41.3733 Y16.3301
G01 X41.3786 Y16.3293
G01 X41.3840 Y16.3290
G01 X42.3883 Y16.3290
G01 X42.3973 Y16.3286
G01 X42.4117 Y16.3290
G01 X43.4160 Y16.3290
G01 X43.4214 Y16.3293
G01 X43.4267 Y16.3301
G01 X43.4320 Y16.3314
G01 X43.4370 Y16.3332
G01 X43.4419 Y16.3355
G01 X43.4466 Y16.3383
G01 X43.4509 Y16.3415
G01 X43.4549 Y16.3451
G01 X43.4585 Y16.3491
G01 X43.4617 Y16.3534
G01 X43.4645 Y16.3581
G01 X43.4668 Y16.3630
G01 X43.4686 Y16.3680
G01 X43.4699 Y16.3733
G01 X43.4707 Y16.3786
G01 X43.4710 Y16.3840
G01 X43.4710 Y17.3883
G01 X43.4715 Y17.4000
G01 X43.4715 Y19.1885
G01 X45.0600 Y19.1885
G01 X45.1623 Y19.1935
G01 X45.1677 Y19.1940
G01 X45.2664 Y19.2086
G01 X45.2717 Y19.2097
G01 X45.3684 Y19.2339
G01 X45.3736 Y19.2355
G01 X45.4675 Y19.2691
G01 X45.4725 Y19.2711
G01 X45.5627 Y19.3138
G01 X45.5675 Y19.3163
G01 X45.6530 Y19.3676
G01 X45.6575 Y19.3706
G01 X45.7376 Y19.4301
G01 X45.7418 Y19.4335
G01 X45.8157 Y19.5005
G01 X45.8195 Y19.5043
G01 X45.8865 Y19.5782
G01 X45.8899 Y19.5824
G01 X45.9494 Y19.6625
G01 X45.9524 Y19.6670
G01 X46.0037 Y19.7525
G01 X46.0062 Y19.7573
G01 X46.0489 Y19.8475
G01 X46.0509 Y19.8525
G01 X46.0845 Y19.9464
G01 X46.0861 Y19.9516
G01 X46.1103 Y20.0483
G01 X46.1114 Y20.0536
G01 X46.1260 Y20.1523
G01 X46.1265 Y20.1577
G01 X46.1315 Y20.2600
G01 X46.1315 Y21.2285
G01 X55.1232 Y21.2285
G01 X55.2256 Y21.2335
G01 X55.2310 Y21.2340
G01 X55.3296 Y21.2486
G01 X55.3349 Y21.2497
G01 X55.4317 Y21.2739
G01 X55.4369 Y21.2755
G01 X55.5308 Y21.3091
G01 X55.5724 Y21.3285
G01 X63.8289 Y21.3285
G01 X63.9312 Y21.3335
G01 X63.9366 Y21.3340
G01 X64.0352 Y21.3486
G01 X64.0405 Y21.3497
G01 X64.1373 Y21.3739
G01 X64.1425 Y21.3755
G01 X64.2364 Y21.4091
G01 X64.2414 Y21.4111
G01 X64.3316 Y21.4538
G01 X64.3363 Y21.4563
G01 X64.4219 Y21.5076
G01 X64.4264 Y21.5106
G01 X64.5065 Y21.5701
G01 X64.5107 Y21.5735
G01 X64.5865 Y21.6423
G01 X65.0267 Y22.0826
G01 X65.1030 Y22.1681
G01 X65.1069 Y22.1729
G01 X65.1731 Y22.2665
G01 X65.1764 Y22.2718
G01 X65.2317 Y22.3722
G01 X65.5993 Y23.1392
G01 X65.6366 Y23.2274
G01 X65.6645 Y23.3138
G01 X65.6859 Y23.4071
G01 X65.6990 Y23.5019
G01 X65.7035 Y23.6000
G01 X65.7035 Y24.7285
G01 X73.1562 Y24.7285
G01 X79.5285 Y18.3562
G01 X79.5285 Y15.1128
G01 X79.5191 Y15.1102
G01 X79.3783 Y15.0598
G01 X79.3733 Y15.0577
G01 X79.2381 Y14.9938
G01 X79.2333 Y14.9912
G01 X79.1050 Y14.9143
G01 X79.1005 Y14.9113
G01 X78.9804 Y14.8222
G01 X78.9762 Y14.8188
G01 X78.8654 Y14.7184
G01 X78.8616 Y14.7146
G01 X78.7612 Y14.6038
G01 X78.7578 Y14.5996
G01 X78.6687 Y14.4795
G01 X78.6657 Y14.4750
G01 X78.5888 Y14.3467
G01 X78.5862 Y14.3419
G01 X78.5223 Y14.2067
G01 X78.5202 Y14.2017
G01 X78.4698 Y14.0609
G01 X78.4683 Y14.0558
G01 X78.4319 Y13.9107
G01 X78.4309 Y13.9054
G01 X78.4089 Y13.7574
G01 X78.4084 Y13.7521
G01 X78.4011 Y13.6027
G01 X78.4011 Y13.5973
G01 X78.4084 Y13.4479
G01 X78.4089 Y13.4426
G01 X78.4309 Y13.2946
G01 X78.4319 Y13.2893
G01 X78.4683 Y13.1442
G01 X78.4698 Y13.1391
G01 X78.5202 Y12.9983
G01 X78.5223 Y12.9933
G01 X78.5862 Y12.8581
G01 X78.5888 Y12.8533
G01 X78.6657 Y12.7250
G01 X78.6687 Y12.7205
G01 X78.7578 Y12.6004
G01 X78.7612 Y12.5962
G01 X78.8616 Y12.4854
G01 X78.8654 Y12.4816
G01 X78.9762 Y12.3812
G01 X78.9804 Y12.3778
G01 X79.1005 Y12.2887
G01 X79.1050 Y12.2857
G01 X79.2333 Y12.2088
G01 X79.2381 Y12.2062
G01 X79.3733 Y12.1423
G01 X79.3783 Y12.1402
G01 X79.5191 Y12.0898
G01 X79.5242 Y12.0883
G01 X79.6693 Y12.0519
G01 X79.6746 Y12.0509
G01 X79.8226 Y12.0289
G01 X79.8279 Y12.0284
G01 X79.9773 Y12.0211
G01 X79.9827 Y12.0211
G01 X80.1321 Y12.0284
G01 X80.1374 Y12.0289
G01 X80.2854 Y12.0509
G01 X80.2907 Y12.0519
G01 X80.4358 Y12.0883
G01 X80.4409 Y12.0898
G01 X80.5817 Y12.1402
G01 X80.5867 Y12.1423
G01 X80.7219 Y12.2062
G01 X80.7267 Y12.2088
G01 X80.8361 Y12.2744
G01 X83.4951 Y12.2744
G01 X83.6126 Y12.2323
G01 X83.6178 Y12.2307
G01 X83.7387 Y12.2004
G01 X83.7440 Y12.1994
G01 X83.8674 Y12.1811
G01 X83.8728 Y12.1805
G01 X83.9973 Y12.1744
G01 X84.0027 Y12.1744
G01 X84.1272 Y12.1805
G01 X84.1326 Y12.1811
G01 X84.2560 Y12.1994
G01 X84.2613 Y12.2004
G01 X84.3822 Y12.2307
G01 X84.3874 Y12.2323
G01 X84.5048 Y12.2743
G01 X84.5098 Y12.2764
G01 X84.6225 Y12.3297
G01 X84.6272 Y12.3322
G01 X84.7342 Y12.3963
G01 X84.7387 Y12.3993
G01 X84.8388 Y12.4736
G01 X84.8430 Y12.4770
G01 X84.9354 Y12.5608
G01 X84.9392 Y12.5646
G01 X85.0230 Y12.6570
G01 X85.0264 Y12.6612
G01 X85.1007 Y12.7613
G01 X85.1037 Y12.7658
G01 X85.1678 Y12.8728
G01 X85.1703 Y12.8775
G01 X85.2236 Y12.9902
G01 X85.2257 Y12.9952
G01 X85.2677 Y13.1126
G01 X85.2693 Y13.1178
G01 X85.2996 Y13.2387
G01 X85.3006 Y13.2440
G01 X85.3189 Y13.3674
G01 X85.3195 Y13.3728
G01 X85.3256 Y13.4973
G01 X85.3256 Y13.5027
G01 X85.3195 Y13.6272
G01 X85.3189 Y13.6326
G01 X85.3006 Y13.7560
G01 X85.2996 Y13.7613
G01 X85.2693 Y13.8822
G01 X85.2677 Y13.8874
G01 X85.2257 Y14.0048
G01 X85.2236 Y14.0098
G01 X85.1703 Y14.1225
G01 X85.1678 Y14.1272
G01 X85.1037 Y14.2342
G01 X85.1007 Y14.2387
G01 X85.0264 Y14.3388
G01 X85.0230 Y14.3430
G01 X84.9374 Y14.4374
G01 X84.8374 Y14.5374
G01 X84.7430 Y14.6230
G01 X84.7388 Y14.6264
G01 X84.6387 Y14.7007
G01 X84.6342 Y14.7037
G01 X84.5272 Y14.7678
G01 X84.5225 Y14.7703
G01 X84.4098 Y14.8236
G01 X84.4048 Y14.8257
G01 X84.2874 Y14.8677
G01 X84.2822 Y14.8693
G01 X84.1613 Y14.8996
G01 X84.1560 Y14.9006
G01 X84.0326 Y14.9189
G01 X84.0272 Y14.9195
G01 X83.9000 Y14.9256
G01 X81.6715 Y14.9256
G01 X81.6714 Y18.8027
G01 X81.6665 Y18.9023
G01 X81.6660 Y18.9077
G01 X81.6514 Y19.0064
G01 X81.6503 Y19.0117
G01 X81.6261 Y19.1084
G01 X81.6245 Y19.1136
G01 X81.5909 Y19.2075
G01 X81.5889 Y19.2125
G01 X81.5462 Y19.3027
G01 X81.5437 Y19.3075
G01 X81.4924 Y19.3930
G01 X81.4894 Y19.3975
G01 X81.4299 Y19.4776
G01 X81.4265 Y19.4818
G01 X81.3577 Y19.5577
G01 X74.3577 Y26.5577
G01 X74.2818 Y26.6265
G01 X74.2776 Y26.6299
G01 X74.1975 Y26.6894
G01 X74.1930 Y26.6924
G01 X74.1075 Y26.7437
G01 X74.1027 Y26.7462
G01 X74.0125 Y26.7889
G01 X74.0075 Y26.7909
G01 X73.9136 Y26.8245
G01 X73.9084 Y26.8261
G01 X73.8117 Y26.8503
G01 X73.8064 Y26.8514
G01 X73.7077 Y26.8660
G01 X73.7023 Y26.8665
G01 X73.6027 Y26.8714
G01 X67.2188 Y26.8715
G01 X69.5577 Y29.2103
G01 X69.6265 Y29.2862
G01 X69.6299 Y29.2904
G01 X69.6894 Y29.3705
G01 X69.6924 Y29.3750
G01 X69.7437 Y29.4605
G01 X69.7462 Y29.4653
G01 X69.7889 Y29.5555
G01 X69.7909 Y29.5605
G01 X69.8245 Y29.6544
G01 X69.8261 Y29.6596
G01 X69.8503 Y29.7563
G01 X69.8514 Y29.7616
G01 X69.8660 Y29.8603
G01 X69.8665 Y29.8657
G01 X69.8715 Y29.9680
G01 X69.8715 Y31.1685
G01 X77.1400 Y31.1685
G01 X77.2423 Y31.1735
G01 X77.2477 Y31.1740
G01 X77.3464 Y31.1886
G01 X77.3517 Y31.1897
G01 X77.4484 Y31.2139
G01 X77.4536 Y31.2155
G01 X77.5475 Y31.2491
G01 X77.5525 Y31.2511
G01 X77.6427 Y31.2938
G01 X77.6475 Y31.2963
G01 X77.7330 Y31.3476
G01 X77.7375 Y31.3506
G01 X77.8176 Y31.4101
G01 X77.8218 Y31.4135
G01 X77.8977 Y31.4823
G01 X80.7377 Y34.3223
G01 X80.8065 Y34.3982
G01 X80.8099 Y34.4024
G01 X80.8694 Y34.4825
G01 X80.8724 Y34.4870
G01 X80.9237 Y34.5725
G01 X80.9262 Y34.5773
G01 X80.9689 Y34.6675
G01 X80.9709 Y34.6725
G01 X81.0045 Y34.7664
G01 X81.0061 Y34.7716
G01 X81.0303 Y34.8683
G01 X81.0314 Y34.8736
G01 X81.0460 Y34.9723
G01 X81.0465 Y34.9777
G01 X81.0514 Y35.0773
G01 X81.0515 Y35.6744
G01 X83.4284 Y35.6744
G01 X83.4851 Y35.6604
G01 X83.6084 Y35.6421
G01 X83.6138 Y35.6416
G01 X83.7383 Y35.6355
G01 X83.7437 Y35.6355
G01 X83.8683 Y35.6416
G01 X83.8736 Y35.6421
G01 X83.9970 Y35.6604
G01 X84.0023 Y35.6615
G01 X84.1232 Y35.6918
G01 X84.1284 Y35.6934
G01 X84.2458 Y35.7354
G01 X84.2508 Y35.7374
G01 X84.3635 Y35.7907
G01 X84.3683 Y35.7933
G01 X84.4752 Y35.8574
G01 X84.4797 Y35.8604
G01 X84.5799 Y35.9347
G01 X84.5840 Y35.9381
G01 X84.6764 Y36.0218
G01 X84.6802 Y36.0256
G01 X84.7640 Y36.1180
G01 X84.7674 Y36.1222
G01 X84.8417 Y36.2224
G01 X84.8447 Y36.2269
G01 X84.9088 Y36.3338
G01 X84.9113 Y36.3386
G01 X84.9646 Y36.4513
G01 X84.9667 Y36.4563
G01 X85.0087 Y36.5737
G01 X85.0103 Y36.5789
G01 X85.0406 Y36.6998
G01 X85.0416 Y36.7051
G01 X85.0599 Y36.8284
G01 X85.0605 Y36.8338
G01 X85.0666 Y36.9584
G01 X85.0666 Y36.9638
G01 X85.0605 Y37.0883
G01 X85.0599 Y37.0937
G01 X85.0416 Y37.2170
G01 X85.0406 Y37.2223
G01 X85.0103 Y37.3433
G01 X85.0087 Y37.3484
G01 X84.9667 Y37.4658
G01 X84.9646 Y37.4708
G01 X84.9113 Y37.5835
G01 X84.9088 Y37.5883
G01 X84.8447 Y37.6953
G01 X84.8417 Y37.6998
G01 X84.7674 Y37.7999
G01 X84.7640 Y37.8041
G01 X84.6784 Y37.8984
G01 X84.6375 Y37.9392
G01 X84.5451 Y38.0230
G01 X84.5409 Y38.0264
G01 X84.4408 Y38.1007
G01 X84.4363 Y38.1037
G01 X84.3293 Y38.1678
G01 X84.3246 Y38.1703
G01 X84.2118 Y38.2236
G01 X84.2068 Y38.2257
G01 X84.0894 Y38.2677
G01 X84.0843 Y38.2693
G01 X83.9633 Y38.2996
G01 X83.9580 Y38.3006
G01 X83.8347 Y38.3189
G01 X83.8293 Y38.3195
G01 X83.7021 Y38.3256
G01 X80.8361 Y38.3256
G01 X80.7267 Y38.3912
G01 X80.7219 Y38.3938
G01 X80.5867 Y38.4577
G01 X80.5817 Y38.4598
G01 X80.4409 Y38.5102
G01 X80.4358 Y38.5117
G01 X80.2907 Y38.5481
G01 X80.2854 Y38.5491
G01 X80.1374 Y38.5711
G01 X80.1321 Y38.5716
G01 X79.9827 Y38.5789
G01 X79.9773 Y38.5789
G01 X79.8279 Y38.5716
G01 X79.8226 Y38.5711
G01 X79.6746 Y38.5491
G01 X79.6693 Y38.5481
G01 X79.5242 Y38.5117
G01 X79.5191 Y38.5102
G01 X79.3783 Y38.4598
G01 X79.3733 Y38.4577
G01 X79.2381 Y38.3938
G01 X79.2333 Y38.3912
G01 X79.1050 Y38.3143
G01 X79.1005 Y38.3113
G01 X78.9804 Y38.2222
G01 X78.9762 Y38.2188
G01 X78.8654 Y38.1184
G01 X78.8616 Y38.1146
G01 X78.7612 Y38.0038
G01 X78.7578 Y37.9996
G01 X78.6687 Y37.8795
G01 X78.6657 Y37.8750
G01 X78.5888 Y37.7467
G01 X78.5862 Y37.7419
G01 X78.5223 Y37.6067
G01 X78.5202 Y37.6017
G01 X78.4698 Y37.4609
G01 X78.4683 Y37.4558
G01 X78.4319 Y37.3107
G01 X78.4309 Y37.3054
G01 X78.4089 Y37.1574
G01 X78.4084 Y37.1521
G01 X78.4011 Y37.0027
G01 X78.4011 Y36.9973
G01 X78.4084 Y36.8479
G01 X78.4089 Y36.8426
G01 X78.4309 Y36.6946
G01 X78.4319 Y36.6893
G01 X78.4683 Y36.5442
G01 X78.4698 Y36.5391
G01 X78.5202 Y36.3983
G01 X78.5223 Y36.3933
G01 X78.5862 Y36.2581
G01 X78.5888 Y36.2533
G01 X78.6657 Y36.1250
G01 X78.6687 Y36.1205
G01 X78.7578 Y36.0004
G01 X78.7612 Y35.9962
G01 X78.8616 Y35.8854
G01 X78.9085 Y35.8426
G01 X78.9085 Y35.5238
G01 X76.6962 Y33.3115
G01 X68.8000 Y33.3115
G01 X68.6977 Y33.3065
G01 X68.6923 Y33.3060
G01 X68.5936 Y33.2914
G01 X68.5883 Y33.2903
G01 X68.4916 Y33.2661
G01 X68.4864 Y33.2645
G01 X68.3925 Y33.2309
G01 X68.3875 Y33.2289
G01 X68.2973 Y33.1862
G01 X68.2925 Y33.1837
G01 X68.2070 Y33.1324
G01 X68.2025 Y33.1294
G01 X68.1224 Y33.0699
G01 X68.1182 Y33.0665
G01 X68.0443 Y32.9995
G01 X68.0405 Y32.9957
G01 X67.9735 Y32.9218
G01 X67.9701 Y32.9176
G01 X67.9106 Y32.8375
G01 X67.9076 Y32.8330
G01 X67.8563 Y32.7475
G01 X67.8538 Y32.7427
G01 X67.8111 Y32.6525
G01 X67.8091 Y32.6475
G01 X67.7755 Y32.5536
G01 X67.7739 Y32.5484
G01 X67.7497 Y32.4517
G01 X67.7486 Y32.4464
G01 X67.7340 Y32.3477
G01 X67.7335 Y32.3423
G01 X67.7285 Y32.2400
G01 X67.7285 Y30.4118
G01 X63.8743 Y26.5577
G01 X63.8055 Y26.4818
G01 X63.8021 Y26.4776
G01 X63.7426 Y26.3975
G01 X63.7396 Y26.3930
G01 X63.6883 Y26.3075
G01 X63.6858 Y26.3027
G01 X63.6431 Y26.2125
G01 X63.6411 Y26.2075
G01 X63.6075 Y26.1136
G01 X63.6059 Y26.1084
G01 X63.5817 Y26.0117
G01 X63.5806 Y26.0064
G01 X63.5660 Y25.9077
G01 X63.5655 Y25.9023
G01 X63.5605 Y25.8000
G01 X63.5605 Y23.8435
G01 X63.3823 Y23.4715
G00 Z2.0000
G00 X53.6213 Y18.4710
G01 F60.00
G01 Z-0.0187
G01 F120.00
G01 X53.3840 Y18.4710
G01 X53.3786 Y18.4707
G01 X53.3733 Y18.4699
G01 X53.3680 Y18.4686
G01 X53.3630 Y18.4668
G01 X53.3581 Y18.4645
G01 X53.3534 Y18.4617
G01 X53.3491 Y18.4585
G01 X53.3451 Y18.4549
G01 X53.3415 Y18.4509
G01 X53.3383 Y18.4466
G01 X53.3355 Y18.4419
G01 X53.3332 Y18.4370
G01 X53.3314 Y18.4320
G01 X53.3301 Y18.4267
G01 X53.3293 Y18.4214
G01 X53.3290 Y18.4160
G01 X53.3290 Y18.2037
G01 X41.6963 Y6.5710
G01 X41.4840 Y6.5710
G01 X41.4786 Y6.5707
G01 X41.4733 Y6.5699
G01 X41.4680 Y6.5686
G01 X41.4630 Y6.5668
G01 X41.4581 Y6.5645
G01 X41.4534 Y6.5617
G01 X41.4491 Y6.5585
G01 X41.4451 Y6.5549
G01 X41.4415 Y6.5509
G01 X41.4383 Y6.5466
G01 X41.4355 Y6.5419
G01 X41.4332 Y6.5370
G01 X41.4314 Y6.5320
G01 X41.4301 Y6.5267
G01 X41.4293 Y6.5214
G01 X41.4290 Y6.5160
G01 X41.4290 Y6.2787
G01 X41.3963 Y6.2342
G01 X41.3322 Y6.1272
G01 X41.3297 Y6.1225
G01 X41.2764 Y6.0098
G01 X41.2743 Y6.0048
G01 X41.2323 Y5.8874
G01 X41.2307 Y5.8822
G01 X41.2004 Y5.7613
G01 X41.1994 Y5.7560
G01 X41.1811 Y5.6326
G01 X41.1805 Y5.6272
G01 X41.1744 Y5.5027
G01 X41.1744 Y5.4973
G01 X41.1805 Y5.3728
G01 X41.1811 Y5.3674
G01 X41.1994 Y5.2440
G01 X41.2004 Y5.2387
G01 X41.2307 Y5.1178
G01 X41.2323 Y5.1126
G01 X41.2743 Y4.9952
G01 X41.2764 Y4.9902
G01 X41.3297 Y4.8775
G01 X41.3322 Y4.8728
G01 X41.3963 Y4.7658
G01 X41.4290 Y4.7213
G01 X41.4290 Y4.4840
G01 X41.4293 Y4.4786
G01 X41.4301 Y4.4733
G01 X41.4314 Y4.4680
G01 X41.4332 Y4.4630
G01 X41.4355 Y4.4581
G01 X41.4383 Y4.4534
G01 X41.4415 Y4.4491
G01 X41.4451 Y4.4451
G01 X41.4491 Y4.4415
G01 X41.4534 Y4.4383
G01 X41.4581 Y4.4355
G01 X41.4630 Y4.4332
G01 X41.4680 Y4.4314
G01 X41.4733 Y4.4301
G01 X41.4786 Y4.4293
G01 X41.4840 Y4.4290
G01 X41.7213 Y4.4290
G01 X41.7658 Y4.3963
G01 X41.8728 Y4.3322
G01 X41.8775 Y4.3297
G01 X41.9902 Y4.2764
G01 X41.9952 Y4.2743
G01 X42.1126 Y4.2323
G01 X42.1178 Y4.2307
G01 X42.2387 Y4.2004
G01 X42.2440 Y4.1994
G01 X42.3674 Y4.1811
G01 X42.3728 Y4.1805
G01 X42.4973 Y4.1744
G01 X42.5027 Y4.1744
G01 X42.6272 Y4.1805
G01 X42.6326 Y4.1811
G01 X42.7560 Y4.1994
G01 X42.7613 Y4.2004
G01 X42.8822 Y4.2307
G01 X42.8874 Y4.2323
G01 X43.0048 Y4.2743
G01 X43.0098 Y4.2764
G01 X43.1225 Y4.3297
G01 X43.1272 Y4.3322
G01 X43.2342 Y4.3963
G01 X43.2787 Y4.4290
G01 X43.5160 Y4.4290
G01 X43.5214 Y4.4293
G01 X43.5267 Y4.4301
G01 X43.5320 Y4.4314
G01 X43.5370 Y4.4332
G01 X43.5419 Y4.4355
G01 X43.5466 Y4.4383
G01 X43.5509 Y4.4415
G01 X43.5549 Y4.4451
G01 X43.5585 Y4.4491
G01 X43.5617 Y4.4534
G01 X43.5645 Y4.4581
G01 X43.5668 Y4.4630
G01 X43.5686 Y4.4680
G01 X43.5699 Y4.4733
G01 X43.5707 Y4.4786
G01 X43.5710 Y4.4840
G01 X43.5710 Y4.6963
G01 X54.3000 Y15.4253
G01 X57.2626 Y12.4626
G01 X57.3570 Y12.3770
G01 X57.3612 Y12.3736
G01 X57.4613 Y12.2993
G01 X57.4658 Y12.2963
G01 X57.5728 Y12.2322
G01 X57.5775 Y12.2297
G01 X57.6902 Y12.1764
G01 X57.6952 Y12.1743
G01 X57.8126 Y12.1323
G01 X57.8178 Y12.1307
G01 X57.9387 Y12.1004
G01 X57.9440 Y12.0994
G01 X58.0674 Y12.0811
G01 X58.0728 Y12.0805
G01 X58.2000 Y12.0744
G01 X74.4998 Y12.0744
G01 X74.5893 Y12.0519
G01 X74.5946 Y12.0509
G01 X74.7426 Y12.0289
G01 X74.7479 Y12.0284
G01 X74.8973 Y12.0211
G01 X74.9027 Y12.0211
G01 X75.0521 Y12.0284
G01 X75.0574 Y12.0289
G01 X75.2054 Y12.0509
G01 X75.2107 Y12.0519
G01 X75.3558 Y12.0883
G01 X75.3609 Y12.0898
G01 X75.5017 Y12.1402
G01 X75.5067 Y12.1423
G01 X75.6419 Y12.2062
G01 X75.6467 Y12.2088
G01 X75.7750 Y12.2857
G01 X75.7795 Y12.2887
G01 X75.8996 Y12.3778
G01 X75.9038 Y12.3812
G01 X76.0146 Y12.4816
G01 X76.0184 Y12.4854
G01 X76.1188 Y12.5962
G01 X76.1222 Y12.6004
G01 X76.2113 Y12.7205
G01 X76.2143 Y12.7250
G01 X76.2912 Y12.8533
G01 X76.2938 Y12.8581
G01 X76.3577 Y12.9933
G01 X76.3598 Y12.9983
G01 X76.4102 Y13.1391
G01 X76.4117 Y13.1442
G01 X76.4481 Y13.2893
G01 X76.4491 Y13.2946
G01 X76.4711 Y13.4426
G01 X76.4716 Y13.4479
G01 X76.4789 Y13.5973
G01 X76.4789 Y13.6027
G01 X76.4716 Y13.7521
G01 X76.4711 Y13.7574
G01 X76.4491 Y13.9054
G01 X76.4481 Y13.9107
G01 X76.4117 Y14.0558
G01 X76.4102 Y14.0609
G01 X76.3598 Y14.2017
G01 X76.3577 Y14.2067
G01 X76.2938 Y14.3419
G01 X76.2912 Y14.3467
G01 X76.2143 Y14.4750
G01 X76.2113 Y14.4795
G01 X76.1222 Y14.5996
G01 X76.1188 Y14.6038
G01 X76.0184 Y14.7146
G01 X76.0146 Y14.7184
G01 X75.9038 Y14.8188
G01 X75.8996 Y14.8222
G01 X75.7795 Y14.9113
G01 X75.7750 Y14.9143
G01 X75.6467 Y14.9912
G01 X75.6419 Y14.9938
G01 X75.5067 Y15.0577
G01 X75.5017 Y15.0598
G01 X75.3609 Y15.1102
G01 X75.3558 Y15.1117
G01 X75.2107 Y15.1481
G01 X75.2054 Y15.1491
G01 X75.0574 Y15.1711
G01 X75.0521 Y15.1716
G01 X74.9027 Y15.1789
G01 X74.8973 Y15.1789
G01 X74.7479 Y15.1716
G01 X74.7426 Y15.1711
G01 X74.5946 Y15.1491
G01 X74.5893 Y15.1481
G01 X74.4442 Y15.1117
G01 X74.4391 Y15.1102
G01 X74.2983 Y15.0598
G01 X74.2933 Y15.0577
G01 X74.1581 Y14.9938
G01 X74.1533 Y14.9912
G01 X74.0250 Y14.9143
G01 X74.0205 Y14.9113
G01 X73.9004 Y14.8222
G01 X73.8962 Y14.8188
G01 X73.7934 Y14.7256
G01 X58.7491 Y14.7256
G01 X56.2044 Y17.2704
G01 X55.4710 Y18.1835
G01 X55.4710 Y18.4160
G01 X55.4707 Y18.4214
G01 X55.4699 Y18.4267
G01 X55.4686 Y18.4320
G01 X55.4668 Y18.4370
G01 X55.4645 Y18.4419
G01 X55.4617 Y18.4466
G01 X55.4585 Y18.4509
G01 X55.4549 Y18.4549
G01 X55.4509 Y18.4585
G01 X55.4466 Y18.4617
G01 X55.4419 Y18.4645
G01 X55.4370 Y18.4668
G01 X55.4320 Y18.4686
G01 X55.4267 Y18.4699
G01 X55.4214 Y18.4707
G01 X55.4160 Y18.4710
G01 X55.1790 Y18.4710
G01 X55.1503 Y18.4928
G01 X55.1342 Y18.5037
G01 X55.0867 Y18.5321
G01 X55.0396 Y18.5611
G01 X55.0225 Y18.5703
G01 X54.9725 Y18.5940
G01 X54.9227 Y18.6182
G01 X54.9098 Y18.6236
G01 X54.8007 Y18.6635
G01 X54.7822 Y18.6693
G01 X54.7285 Y18.6827
G01 X54.6750 Y18.6967
G01 X54.6560 Y18.7006
G01 X54.6012 Y18.7087
G01 X54.5465 Y18.7174
G01 X54.5326 Y18.7189
G01 X54.4167 Y18.7255
G01 X54.4027 Y18.7256
G01 X54.2813 Y18.7202
G01 X54.2674 Y18.7189
G01 X54.2126 Y18.7108
G01 X54.1578 Y18.7033
G01 X54.1387 Y18.6996
G01 X54.0851 Y18.6861
G01 X54.0312 Y18.6732
G01 X54.0126 Y18.6677
G01 X53.9605 Y18.6491
G01 X53.9082 Y18.6310
G01 X53.8952 Y18.6257
G01 X53.7899 Y18.5768
G01 X53.7728 Y18.5678
G01 X53.7253 Y18.5393
G01 X53.6775 Y18.5114
G01 X53.6613 Y18.5007
G01 X53.6213 Y18.4710
G00 Z2.0000
G00 X62.0160 Y4.1733
G01 F60.00
G01 Z-0.0187
G01 F120.00
G01 X62.0287 Y4.1739
G01 X62.0439 Y4.1759
G01 X62.0589 Y4.1794
G01 X62.0734 Y4.1843
G01 X62.0784 Y4.1864
G01 X62.0922 Y4.1932
G01 X62.1052 Y4.2013
G01 X62.1174 Y4.2107
G01 X62.1286 Y4.2212
G01 X62.1353 Y4.2286
G01 X62.1447 Y4.2408
G01 X62.1528 Y4.2538
G01 X62.1596 Y4.2676
G01 X62.1617 Y4.2726
G01 X62.1666 Y4.2871
G01 X62.1701 Y4.3021
G01 X62.1721 Y4.3173
G01 X62.1726 Y4.3327
G01 X62.1721 Y4.3427
G01 X62.1701 Y4.3579
G01 X62.1666 Y4.3729
G01 X62.1617 Y4.3874
G01 X62.1596 Y4.3924
G01 X62.1528 Y4.4062
G01 X62.1447 Y4.4192
G01 X62.1353 Y4.4314
G01 X62.1248 Y4.4426
G01 X62.1174 Y4.4493
G01 X62.1052 Y4.4587
G01 X62.0922 Y4.4668
G01 X62.0784 Y4.4736
G01 X62.0734 Y4.4757
G01 X62.0589 Y4.4806
G01 X62.0439 Y4.4841
G01 X62.0287 Y4.4861
G01 X62.0160 Y4.4867
G01 X61.1567 Y4.4867
G01 X61.1567 Y4.9353
G01 X62.5240 Y4.9353
G01 X62.5367 Y4.9359
G01 X62.5519 Y4.9379
G01 X62.5572 Y4.9390
G01 X62.5720 Y4.9429
G01 X62.5864 Y4.9484
G01 X62.5954 Y4.9526
G01 X62.6087 Y4.9603
G01 X62.6132 Y4.9633
G01 X62.6254 Y4.9727
G01 X62.6328 Y4.9794
G01 X62.6366 Y4.9832
G01 X62.6468 Y4.9948
G01 X62.6557 Y5.0073
G01 X62.6608 Y5.0158
G01 X62.6676 Y5.0296
G01 X62.6697 Y5.0346
G01 X62.6746 Y5.0491
G01 X62.6770 Y5.0588
G01 X62.6796 Y5.0740
G01 X62.6801 Y5.0793
G01 X62.6806 Y5.0947
G01 X62.6801 Y5.1047
G01 X62.6781 Y5.1199
G01 X62.6770 Y5.1252
G01 X62.6731 Y5.1400
G01 X62.6676 Y5.1544
G01 X62.6634 Y5.1634
G01 X62.6557 Y5.1767
G01 X62.6527 Y5.1812
G01 X62.6433 Y5.1934
G01 X62.6328 Y5.2046
G01 X62.6254 Y5.2113
G01 X62.6132 Y5.2207
G01 X62.6002 Y5.2288
G01 X62.5864 Y5.2356
G01 X62.5814 Y5.2377
G01 X62.5669 Y5.2426
G01 X62.5519 Y5.2461
G01 X62.5367 Y5.2481
G01 X62.5240 Y5.2487
G01 X61.0000 Y5.2487
G01 X60.9820 Y5.2476
G01 X60.9668 Y5.2450
G01 X60.9520 Y5.2411
G01 X60.9376 Y5.2356
G01 X60.9238 Y5.2288
G01 X60.9108 Y5.2207
G01 X60.8986 Y5.2113
G01 X60.8912 Y5.2046
G01 X60.8807 Y5.1934
G01 X60.8713 Y5.1812
G01 X60.8632 Y5.1682
G01 X60.8564 Y5.1544
G01 X60.8543 Y5.1494
G01 X60.8494 Y5.1349
G01 X60.8459 Y5.1199
G01 X60.8439 Y5.1047
G01 X60.8433 Y5.0920
G01 X60.8433 Y3.5680
G01 X60.8444 Y3.5500
G01 X60.8470 Y3.5348
G01 X60.8509 Y3.5200
G01 X60.8564 Y3.5056
G01 X60.8632 Y3.4918
G01 X60.8713 Y3.4788
G01 X60.8807 Y3.4666
G01 X60.8874 Y3.4592
G01 X60.8986 Y3.4487
G01 X60.9108 Y3.4393
G01 X60.9238 Y3.4312
G01 X60.9376 Y3.4244
G01 X60.9426 Y3.4223
G01 X60.9571 Y3.4174
G01 X60.9721 Y3.4139
G01 X60.9873 Y3.4119
G01 X61.0000 Y3.4113
G01 X62.5240 Y3.4113
G01 X62.5367 Y3.4119
G01 X62.5519 Y3.4139
G01 X62.5669 Y3.4174
G01 X62.5814 Y3.4223
G01 X62.5864 Y3.4244
G01 X62.6002 Y3.4312
G01 X62.6132 Y3.4393
G01 X62.6254 Y3.4487
G01 X62.6366 Y3.4592
G01 X62.6433 Y3.4666
G01 X62.6527 Y3.4788
G01 X62.6557 Y3.4833
G01 X62.6634 Y3.4966
G01 X62.6676 Y3.5056
G01 X62.6731 Y3.5200
G01 X62.6770 Y3.5348
G01 X62.6781 Y3.5401
G01 X62.6801 Y3.5553
G01 X62.6806 Y3.5653
G01 X62.6801 Y3.5807
G01 X62.6796 Y3.5860
G01 X62.6770 Y3.6012
G01 X62.6746 Y3.6109
G01 X62.6697 Y3.6254
G01 X62.6676 Y3.6304
G01 X62.6634 Y3.6394
G01 X62.6557 Y3.6527
G01 X62.6527 Y3.6572
G01 X62.6433 Y3.6694
G01 X62.6328 Y3.6806
G01 X62.6254 Y3.6873
G01 X62.6132 Y3.6967
G01 X62.6087 Y3.6997
G01 X62.5954 Y3.7074
G01 X62.5864 Y3.7116
G01 X62.5720 Y3.7171
G01 X62.5572 Y3.7210
G01 X62.5519 Y3.7221
G01 X62.5367 Y3.7241
G01 X62.5240 Y3.7247
G01 X61.1567 Y3.7247
G01 X61.1567 Y4.1733
G01 X62.0160 Y4.1733
G00 Z2.0000
G00 X62.8753 Y3.5680
G01 F60.00
G01 Z-0.0187
G01 F120.00
G01 X62.8759 Y3.5553
G01 X62.8779 Y3.5401
G01 X62.8814 Y3.5251
G01 X62.8863 Y3.5106
G01 X62.8926 Y3.4966
G01 X62.9003 Y3.4833
G01 X62.9092 Y3.4708
G01 X62.9194 Y3.4592
G01 X62.9306 Y3.4487
G01 X62.9428 Y3.4393
G01 X62.9473 Y3.4363
G01 X62.9606 Y3.4286
G01 X62.9746 Y3.4223
G01 X62.9891 Y3.4174
G01 X63.0041 Y3.4139
G01 X63.0193 Y3.4119
G01 X63.0320 Y3.4113
G01 X64.5560 Y3.4113
G01 X64.5740 Y3.4124
G01 X64.5892 Y3.4150
G01 X64.6040 Y3.4189
G01 X64.6184 Y3.4244
G01 X64.6322 Y3.4312
G01 X64.6452 Y3.4393
G01 X64.6574 Y3.4487
G01 X64.6686 Y3.4592
G01 X64.6788 Y3.4708
G01 X64.6877 Y3.4833
G01 X64.6954 Y3.4966
G01 X64.7017 Y3.5106
G01 X64.7066 Y3.5251
G01 X64.7101 Y3.5401
G01 X64.7121 Y3.5553
G01 X64.7126 Y3.5707
G01 X64.7116 Y3.5860
G01 X64.7090 Y3.6012
G01 X64.7051 Y3.6160
G01 X64.6996 Y3.6304
G01 X64.6954 Y3.6394
G01 X64.6877 Y3.6527
G01 X64.6788 Y3.6652
G01 X64.6686 Y3.6768
G01 X64.6574 Y3.6873
G01 X64.6452 Y3.6967
G01 X64.6407 Y3.6997
G01 X64.6274 Y3.7074
G01 X64.6184 Y3.7116
G01 X64.6040 Y3.7171
G01 X64.5892 Y3.7210
G01 X64.5740 Y3.7236
G01 X64.5560 Y3.7247
G01 X63.1887 Y3.7247
G01 X63.1887 Y5.0920
G01 X63.1876 Y5.1100
G01 X63.1850 Y5.1252
G01 X63.1811 Y5.1400
G01 X63.1756 Y5.1544
G01 X63.1714 Y5.1634
G01 X63.1637 Y5.1767
G01 X63.1548 Y5.1892
G01 X63.1446 Y5.2008
G01 X63.1334 Y5.2113
G01 X63.1212 Y5.2207
G01 X63.1082 Y5.2288
G01 X63.0944 Y5.2356
G01 X63.0894 Y5.2377
G01 X63.0749 Y5.2426
G01 X63.0599 Y5.2461
G01 X63.0447 Y5.2481
G01 X63.0293 Y5.2486
G01 X63.0140 Y5.2476
G01 X62.9988 Y5.2450
G01 X62.9840 Y5.2411
G01 X62.9696 Y5.2356
G01 X62.9606 Y5.2314
G01 X62.9473 Y5.2237
G01 X62.9348 Y5.2148
G01 X62.9232 Y5.2046
G01 X62.9127 Y5.1934
G01 X62.9033 Y5.1812
G01 X62.9003 Y5.1767
G01 X62.8926 Y5.1634
G01 X62.8863 Y5.1494
G01 X62.8814 Y5.1349
G01 X62.8779 Y5.1199
G01 X62.8759 Y5.1047
G01 X62.8753 Y5.0920
G01 X62.8753 Y3.5680
G00 Z2.0000
G00 X66.0800 Y4.1733
G01 F60.00
G01 Z-0.0187
G01 F120.00
G01 X66.0927 Y4.1739
G01 X66.1079 Y4.1759
G01 X66.1229 Y4.1794
G01 X66.1374 Y4.1843
G01 X66.1424 Y4.1864
G01 X66.1562 Y4.1932
G01 X66.1692 Y4.2013
G01 X66.1814 Y4.2107
G01 X66.1926 Y4.2212
G01 X66.1993 Y4.2286
G01 X66.2087 Y4.2408
G01 X66.2168 Y4.2538
G01 X66.2236 Y4.2676
G01 X66.2257 Y4.2726
G01 X66.2306 Y4.2871
G01 X66.2341 Y4.3021
G01 X66.2361 Y4.3173
G01 X66.2366 Y4.3327
G01 X66.2361 Y4.3427
G01 X66.2341 Y4.3579
G01 X66.2306 Y4.3729
G01 X66.2257 Y4.3874
G01 X66.2236 Y4.3924
G01 X66.2168 Y4.4062
G01 X66.2087 Y4.4192
G01 X66.1993 Y4.4314
G01 X66.1888 Y4.4426
G01 X66.1814 Y4.4493
G01 X66.1692 Y4.4587
G01 X66.1562 Y4.4668
G01 X66.1424 Y4.4736
G01 X66.1374 Y4.4757
G01 X66.1229 Y4.4806
G01 X66.1079 Y4.4841
G01 X66.0927 Y4.4861
G01 X66.0800 Y4.4867
G01 X65.2207 Y4.4867
G01 X65.2207 Y4.9353
G01 X66.5880 Y4.9353
G01 X66.6007 Y4.9359
G01 X66.6159 Y4.9379
G01 X66.6212 Y4.9390
G01 X66.6360 Y4.9429
G01 X66.6504 Y4.9484
G01 X66.6594 Y4.9526
G01 X66.6727 Y4.9603
G01 X66.6772 Y4.9633
G01 X66.6894 Y4.9727
G01 X66.6968 Y4.9794
G01 X66.7006 Y4.9832
G01 X66.7108 Y4.9948
G01 X66.7197 Y5.0073
G01 X66.7248 Y5.0158
G01 X66.7316 Y5.0296
G01 X66.7337 Y5.0346
G01 X66.7386 Y5.0491
G01 X66.7410 Y5.0588
G01 X66.7436 Y5.0740
G01 X66.7441 Y5.0793
G01 X66.7446 Y5.0947
G01 X66.7441 Y5.1047
G01 X66.7421 Y5.1199
G01 X66.7410 Y5.1252
G01 X66.7371 Y5.1400
G01 X66.7316 Y5.1544
G01 X66.7274 Y5.1634
G01 X66.7197 Y5.1767
G01 X66.7167 Y5.1812
G01 X66.7073 Y5.1934
G01 X66.6968 Y5.2046
G01 X66.6894 Y5.2113
G01 X66.6772 Y5.2207
G01 X66.6642 Y5.2288
G01 X66.6504 Y5.2356
G01 X66.6454 Y5.2377
G01 X66.6309 Y5.2426
G01 X66.6159 Y5.2461
G01 X66.6007 Y5.2481
G01 X66.5880 Y5.2487
G01 X65.0640 Y5.2487
G01 X65.0460 Y5.2476
G01 X65.0308 Y5.2450
G01 X65.0160 Y5.2411
G01 X65.0016 Y5.2356
G01 X64.9878 Y5.2288
G01 X64.9748 Y5.2207
G01 X64.9626 Y5.2113
G01 X64.9552 Y5.2046
G01 X64.9447 Y5.1934
G01 X64.9353 Y5.1812
G01 X64.9272 Y5.1682
G01 X64.9204 Y5.1544
G01 X64.9183 Y5.1494
G01 X64.9134 Y5.1349
G01 X64.9099 Y5.1199
G01 X64.9079 Y5.1047
G01 X64.9073 Y5.0920
G01 X64.9073 Y3.5680
G01 X64.9084 Y3.5500
G01 X64.9110 Y3.5348
G01 X64.9149 Y3.5200
G01 X64.9204 Y3.5056
G01 X64.9272 Y3.4918
G01 X64.9353 Y3.4788
G01 X64.9447 Y3.4666
G01 X64.9514 Y3.4592
G01 X64.9626 Y3.4487
G01 X64.9748 Y3.4393
G01 X64.9878 Y3.4312
G01 X65.0016 Y3.4244
G01 X65.0066 Y3.4223
G01 X65.0211 Y3.4174
G01 X65.0361 Y3.4139
G01 X65.0513 Y3.4119
G01 X65.0640 Y3.4113
G01 X66.5880 Y3.4113
G01 X66.6007 Y3.4119
G01 X66.6159 Y3.4139
G01 X66.6309 Y3.4174
G01 X66.6454 Y3.4223
G01 X66.6504 Y3.4244
G01 X66.6642 Y3.4312
G01 X66.6772 Y3.4393
G01 X66.6894 Y3.4487
G01 X66.7006 Y3.4592
G01 X66.7073 Y3.4666
G01 X66.7167 Y3.4788
G01 X66.7197 Y3.4833
G01 X66.7274 Y3.4966
G01 X66.7316 Y3.5056
G01 X66.7371 Y3.5200
G01 X66.7410 Y3.5348
G01 X66.7421 Y3.5401
G01 X66.7441 Y3.5553
G01 X66.7446 Y3.5653
G01 X66.7441 Y3.5807
G01 X66.7436 Y3.5860
G01 X66.7410 Y3.6012
G01 X66.7386 Y3.6109
G01 X66.7337 Y3.6254
G01 X66.7316 Y3.6304
G01 X66.7274 Y3.6394
G01 X66.7197 Y3.6527
G01 X66.7167 Y3.6572
G01 X66.7073 Y3.6694
G01 X66.6968 Y3.6806
G01 X66.6894 Y3.6873
G01 X66.6772 Y3.6967
G01 X66.6727 Y3.6997
G01 X66.6594 Y3.7074
G01 X66.6504 Y3.7116
G01 X66.6360 Y3.7171
G01 X66.6212 Y3.7210
G01 X66.6159 Y3.7221
G01 X66.6007 Y3.7241
G01 X66.5880 Y3.7247
G01 X65.2207 Y3.7247
G01 X65.2207 Y4.1733
G01 X66.0800 Y4.1733
G00 Z2.0000
G00 X68.7308 Y3.7112
G01 F60.00
G01 Z-0.0187
G01 F120.00
G01 X68.7428 Y3.7248
G01 X68.7517 Y3.7373
G01 X68.7568 Y3.7458
G01 X68.7636 Y3.7596
G01 X68.7657 Y3.7646
G01 X68.7706 Y3.7791
G01 X68.7730 Y3.7888
G01 X68.7741 Y3.7941
G01 X68.7761 Y3.8093
G01 X68.7766 Y3.8193
G01 X68.7761 Y3.8347
G01 X68.7741 Y3.8499
G01 X68.7730 Y3.8552
G01 X68.7706 Y3.8649
G01 X68.7657 Y3.8794
G01 X68.7636 Y3.8844
G01 X68.7568 Y3.8982
G01 X68.7487 Y3.9112
G01 X68.7428 Y3.9192
G01 X68.7326 Y3.9308
G01 X68.7288 Y3.9346
G01 X68.7214 Y3.9413
G01 X68.7092 Y3.9507
G01 X68.7047 Y3.9537
G01 X68.6914 Y3.9614
G01 X68.6824 Y3.9656
G01 X68.6680 Y3.9711
G01 X68.6532 Y3.9750
G01 X68.6479 Y3.9761
G01 X68.6327 Y3.9781
G01 X68.6227 Y3.9786
G01 X68.6073 Y3.9781
G01 X68.6020 Y3.9776
G01 X68.5868 Y3.9750
G01 X68.5720 Y3.9711
G01 X68.5576 Y3.9656
G01 X68.5486 Y3.9614
G01 X68.5353 Y3.9537
G01 X68.5228 Y3.9448
G01 X68.5092 Y3.9328
G01 X68.3011 Y3.7247
G01 X67.6689 Y3.7247
G01 X67.2527 Y4.1409
G01 X67.2527 Y4.5191
G01 X67.6689 Y4.9353
G01 X68.3011 Y4.9353
G01 X68.5092 Y4.7272
G01 X68.5186 Y4.7187
G01 X68.5308 Y4.7093
G01 X68.5353 Y4.7063
G01 X68.5486 Y4.6986
G01 X68.5576 Y4.6944
G01 X68.5720 Y4.6889
G01 X68.5868 Y4.6850
G01 X68.5921 Y4.6839
G01 X68.6073 Y4.6819
G01 X68.6173 Y4.6814
G01 X68.6327 Y4.6819
G01 X68.6380 Y4.6824
G01 X68.6532 Y4.6850
G01 X68.6629 Y4.6874
G01 X68.6774 Y4.6923
G01 X68.6824 Y4.6944
G01 X68.6914 Y4.6986
G01 X68.7047 Y4.7063
G01 X68.7172 Y4.7152
G01 X68.7288 Y4.7254
G01 X68.7393 Y4.7366
G01 X68.7487 Y4.7488
G01 X68.7517 Y4.7533
G01 X68.7594 Y4.7666
G01 X68.7636 Y4.7756
G01 X68.7691 Y4.7900
G01 X68.7730 Y4.8048
G01 X68.7741 Y4.8101
G01 X68.7761 Y4.8253
G01 X68.7766 Y4.8407
G01 X68.7761 Y4.8507
G01 X68.7741 Y4.8659
G01 X68.7706 Y4.8809
G01 X68.7657 Y4.8954
G01 X68.7636 Y4.9004
G01 X68.7568 Y4.9142
G01 X68.7487 Y4.9272
G01 X68.7428 Y4.9352
G01 X68.7308 Y4.9488
G01 X68.4768 Y5.2028
G01 X68.4674 Y5.2113
G01 X68.4552 Y5.2207
G01 X68.4507 Y5.2237
G01 X68.4374 Y5.2314
G01 X68.4234 Y5.2377
G01 X68.4089 Y5.2426
G01 X68.3992 Y5.2450
G01 X68.3840 Y5.2476
G01 X68.3660 Y5.2487
G01 X67.6040 Y5.2487
G01 X67.5913 Y5.2481
G01 X67.5761 Y5.2461
G01 X67.5611 Y5.2426
G01 X67.5466 Y5.2377
G01 X67.5326 Y5.2314
G01 X67.5193 Y5.2237
G01 X67.5068 Y5.2148
G01 X67.4932 Y5.2028
G01 X66.9852 Y4.6948
G01 X66.9767 Y4.6854
G01 X66.9673 Y4.6732
G01 X66.9643 Y4.6687
G01 X66.9566 Y4.6554
G01 X66.9503 Y4.6414
G01 X66.9454 Y4.6269
G01 X66.9430 Y4.6172
G01 X66.9404 Y4.6020
G01 X66.9393 Y4.5840
G01 X66.9393 Y4.0760
G01 X66.9404 Y4.0580
G01 X66.9430 Y4.0428
G01 X66.9469 Y4.0280
G01 X66.9524 Y4.0136
G01 X66.9592 Y3.9998
G01 X66.9673 Y3.9868
G01 X66.9767 Y3.9746
G01 X66.9852 Y3.9652
G01 X67.4932 Y3.4572
G01 X67.5026 Y3.4487
G01 X67.5148 Y3.4393
G01 X67.5193 Y3.4363
G01 X67.5326 Y3.4286
G01 X67.5466 Y3.4223
G01 X67.5611 Y3.4174
G01 X67.5708 Y3.4150
G01 X67.5860 Y3.4124
G01 X67.6040 Y3.4113
G01 X68.3660 Y3.4113
G01 X68.3840 Y3.4124
G01 X68.3992 Y3.4150
G01 X68.4089 Y3.4174
G01 X68.4234 Y3.4223
G01 X68.4374 Y3.4286
G01 X68.4507 Y3.4363
G01 X68.4552 Y3.4393
G01 X68.4674 Y3.4487
G01 X68.4768 Y3.4572
G01 X68.7308 Y3.7112
G00 Z2.0000
G00 X70.6520 Y4.9353
G01 F60.00
G01 Z-0.0187
G01 F120.00
G01 X70.6647 Y4.9359
G01 X70.6799 Y4.9379
G01 X70.6949 Y4.9414
G01 X70.7094 Y4.9463
G01 X70.7234 Y4.9526
G01 X70.7367 Y4.9603
G01 X70.7492 Y4.9692
G01 X70.7608 Y4.9794
G01 X70.7713 Y4.9906
G01 X70.7807 Y5.0028
G01 X70.7837 Y5.0073
G01 X70.7914 Y5.0206
G01 X70.7977 Y5.0346
G01 X70.8026 Y5.0491
G01 X70.8061 Y5.0641
G01 X70.8081 Y5.0793
G01 X70.8086 Y5.0947
G01 X70.8076 Y5.1100
G01 X70.8050 Y5.1252
G01 X70.8011 Y5.1400
G01 X70.7956 Y5.1544
G01 X70.7888 Y5.1682
G01 X70.7807 Y5.1812
G01 X70.7713 Y5.1934
G01 X70.7608 Y5.2046
G01 X70.7534 Y5.2113
G01 X70.7412 Y5.2207
G01 X70.7282 Y5.2288
G01 X70.7144 Y5.2356
G01 X70.7000 Y5.2411
G01 X70.6852 Y5.2450
G01 X70.6700 Y5.2476
G01 X70.6520 Y5.2487
G01 X69.1253 Y5.2486
G01 X69.1100 Y5.2476
G01 X69.0948 Y5.2450
G01 X69.0851 Y5.2426
G01 X69.0706 Y5.2377
G01 X69.0656 Y5.2356
G01 X69.0518 Y5.2288
G01 X69.0388 Y5.2207
G01 X69.0266 Y5.2113
G01 X69.0192 Y5.2046
G01 X69.0154 Y5.2008
G01 X69.0052 Y5.1892
G01 X68.9963 Y5.1767
G01 X68.9912 Y5.1682
G01 X68.9844 Y5.1544
G01 X68.9789 Y5.1400
G01 X68.9750 Y5.1252
G01 X68.9739 Y5.1199
G01 X68.9719 Y5.1047
G01 X68.9714 Y5.0893
G01 X68.9724 Y5.0740
G01 X68.9750 Y5.0588
G01 X68.9774 Y5.0491
G01 X68.9823 Y5.0346
G01 X68.9886 Y5.0206
G01 X68.9963 Y5.0073
G01 X68.9993 Y5.0028
G01 X69.0087 Y4.9906
G01 X69.0192 Y4.9794
G01 X69.0266 Y4.9727
G01 X69.0388 Y4.9633
G01 X69.0518 Y4.9552
G01 X69.0656 Y4.9484
G01 X69.0800 Y4.9429
G01 X69.0948 Y4.9390
G01 X69.1001 Y4.9379
G01 X69.1153 Y4.9359
G01 X69.1280 Y4.9353
G01 X69.7333 Y4.9353
G01 X69.7333 Y3.5680
G01 X69.7339 Y3.5553
G01 X69.7359 Y3.5401
G01 X69.7370 Y3.5348
G01 X69.7409 Y3.5200
G01 X69.7464 Y3.5056
G01 X69.7506 Y3.4966
G01 X69.7583 Y3.4833
G01 X69.7613 Y3.4788
G01 X69.7707 Y3.4666
G01 X69.7812 Y3.4554
G01 X69.7886 Y3.4487
G01 X69.8008 Y3.4393
G01 X69.8138 Y3.4312
G01 X69.8276 Y3.4244
G01 X69.8420 Y3.4189
G01 X69.8568 Y3.4150
G01 X69.8621 Y3.4139
G01 X69.8773 Y3.4119
G01 X69.8873 Y3.4114
G01 X69.9027 Y3.4119
G01 X69.9179 Y3.4139
G01 X69.9232 Y3.4150
G01 X69.9380 Y3.4189
G01 X69.9524 Y3.4244
G01 X69.9614 Y3.4286
G01 X69.9747 Y3.4363
G01 X69.9872 Y3.4452
G01 X69.9988 Y3.4554
G01 X70.0026 Y3.4592
G01 X70.0128 Y3.4708
G01 X70.0217 Y3.4833
G01 X70.0294 Y3.4966
G01 X70.0336 Y3.5056
G01 X70.0391 Y3.5200
G01 X70.0430 Y3.5348
G01 X70.0441 Y3.5401
G01 X70.0461 Y3.5553
G01 X70.0467 Y3.5680
G01 X70.0467 Y4.9353
G01 X70.6520 Y4.9353
G00 Z2.0000
G00 X71.3167 Y4.4867
G01 F60.00
G01 Z-0.0187
G01 F120.00
G01 X72.3651 Y4.4867
G01 X72.5273 Y4.6489
G01 X72.5273 Y4.7731
G01 X72.3651 Y4.9353
G01 X71.3167 Y4.9353
G01 X71.3167 Y4.4867
G00 Z2.0000
G00 X72.7966 Y4.9468
G01 F60.00
G01 Z-0.0187
G01 F120.00
G01 X72.5408 Y5.2028
G01 X72.5314 Y5.2113
G01 X72.5192 Y5.2207
G01 X72.5147 Y5.2237
G01 X72.5014 Y5.2314
G01 X72.4924 Y5.2356
G01 X72.4780 Y5.2411
G01 X72.4632 Y5.2450
G01 X72.4579 Y5.2461
G01 X72.4427 Y5.2481
G01 X72.4300 Y5.2487
G01 X71.1573 Y5.2486
G01 X71.1473 Y5.2481
G01 X71.1321 Y5.2461
G01 X71.1171 Y5.2426
G01 X71.1026 Y5.2377
G01 X71.0976 Y5.2356
G01 X71.0838 Y5.2288
G01 X71.0708 Y5.2207
G01 X71.0586 Y5.2113
G01 X71.0474 Y5.2008
G01 X71.0407 Y5.1934
G01 X71.0313 Y5.1812
G01 X71.0232 Y5.1682
G01 X71.0164 Y5.1544
G01 X71.0109 Y5.1400
G01 X71.0070 Y5.1252
G01 X71.0044 Y5.1100
G01 X71.0033 Y5.0920
G01 X71.0033 Y3.5680
G01 X71.0039 Y3.5553
G01 X71.0059 Y3.5401
G01 X71.0094 Y3.5251
G01 X71.0143 Y3.5106
G01 X71.0164 Y3.5056
G01 X71.0232 Y3.4918
G01 X71.0313 Y3.4788
G01 X71.0407 Y3.4666
G01 X71.0512 Y3.4554
G01 X71.0586 Y3.4487
G01 X71.0708 Y3.4393
G01 X71.0753 Y3.4363
G01 X71.0886 Y3.4286
G01 X71.1026 Y3.4223
G01 X71.1171 Y3.4174
G01 X71.1268 Y3.4150
G01 X71.1321 Y3.4139
G01 X71.1473 Y3.4119
G01 X71.1573 Y3.4114
G01 X71.1727 Y3.4119
G01 X71.1879 Y3.4139
G01 X71.1932 Y3.4150
G01 X71.2080 Y3.4189
G01 X71.2224 Y3.4244
G01 X71.2314 Y3.4286
G01 X71.2447 Y3.4363
G01 X71.2492 Y3.4393
G01 X71.2614 Y3.4487
G01 X71.2726 Y3.4592
G01 X71.2793 Y3.4666
G01 X71.2887 Y3.4788
G01 X71.2917 Y3.4833
G01 X71.2994 Y3.4966
G01 X71.3057 Y3.5106
G01 X71.3106 Y3.5251
G01 X71.3141 Y3.5401
G01 X71.3161 Y3.5553
G01 X71.3167 Y3.5680
G01 X71.3167 Y4.1733
G01 X72.3651 Y4.1733
G01 X72.5273 Y4.0111
G01 X72.5274 Y3.5653
G01 X72.5284 Y3.5500
G01 X72.5310 Y3.5348
G01 X72.5334 Y3.5251
G01 X72.5383 Y3.5106
G01 X72.5404 Y3.5056
G01 X72.5472 Y3.4918
G01 X72.5553 Y3.4788
G01 X72.5647 Y3.4666
G01 X72.5714 Y3.4592
G01 X72.5826 Y3.4487
G01 X72.5948 Y3.4393
G01 X72.6078 Y3.4312
G01 X72.6216 Y3.4244
G01 X72.6360 Y3.4189
G01 X72.6508 Y3.4150
G01 X72.6561 Y3.4139
G01 X72.6713 Y3.4119
G01 X72.6813 Y3.4114
G01 X72.6967 Y3.4119
G01 X72.7119 Y3.4139
G01 X72.7269 Y3.4174
G01 X72.7414 Y3.4223
G01 X72.7554 Y3.4286
G01 X72.7687 Y3.4363
G01 X72.7732 Y3.4393
G01 X72.7854 Y3.4487
G01 X72.7966 Y3.4592
G01 X72.8068 Y3.4708
G01 X72.8157 Y3.4833
G01 X72.8234 Y3.4966
G01 X72.8297 Y3.5106
G01 X72.8346 Y3.5251
G01 X72.8381 Y3.5401
G01 X72.8401 Y3.5553
G01 X72.8407 Y3.5680
G01 X72.8407 Y4.0760
G01 X72.8401 Y4.0887
G01 X72.8381 Y4.1039
G01 X72.8370 Y4.1092
G01 X72.8331 Y4.1240
G01 X72.8276 Y4.1384
G01 X72.8234 Y4.1474
G01 X72.8157 Y4.1607
G01 X72.8127 Y4.1652
G01 X72.8033 Y4.1774
G01 X72.7948 Y4.1868
G01 X72.6515 Y4.3300
G01 X72.7948 Y4.4732
G01 X72.8033 Y4.4826
G01 X72.8127 Y4.4948
G01 X72.8157 Y4.4993
G01 X72.8234 Y4.5126
G01 X72.8297 Y4.5266
G01 X72.8346 Y4.5411
G01 X72.8370 Y4.5508
G01 X72.8396 Y4.5660
G01 X72.8407 Y4.5840
G01 X72.8407 Y4.8380
G01 X72.8396 Y4.8560
G01 X72.8370 Y4.8712
G01 X72.8331 Y4.8860
G01 X72.8276 Y4.9004
G01 X72.8234 Y4.9094
G01 X72.8157 Y4.9227
G01 X72.8127 Y4.9272
G01 X72.8033 Y4.9394
G01 X72.7966 Y4.9468
G00 Z2.0000
G00 X73.7649 Y4.9353
G01 F60.00
G01 Z-0.0187
G01 F120.00
G01 X73.3487 Y4.5191
G01 X73.3487 Y4.1409
G01 X73.7649 Y3.7247
G01 X74.1431 Y3.7247
G01 X74.5593 Y4.1409
G01 X74.5593 Y4.5191
G01 X74.1431 Y4.9353
G01 X73.7649 Y4.9353
G00 Z2.0000
G00 X74.8268 Y3.9652
G01 F60.00
G01 Z-0.0187
G01 F120.00
G01 X74.8353 Y3.9746
G01 X74.8447 Y3.9868
G01 X74.8528 Y3.9998
G01 X74.8596 Y4.0136
G01 X74.8651 Y4.0280
G01 X74.8690 Y4.0428
G01 X74.8716 Y4.0580
G01 X74.8726 Y4.0733
G01 X74.8727 Y4.5840
G01 X74.8716 Y4.6020
G01 X74.8690 Y4.6172
G01 X74.8651 Y4.6320
G01 X74.8596 Y4.6464
G01 X74.8528 Y4.6602
G01 X74.8447 Y4.6732
G01 X74.8353 Y4.6854
G01 X74.8268 Y4.6948
G01 X74.3188 Y5.2028
G01 X74.3052 Y5.2148
G01 X74.2927 Y5.2237
G01 X74.2794 Y5.2314
G01 X74.2654 Y5.2377
G01 X74.2509 Y5.2426
G01 X74.2359 Y5.2461
G01 X74.2207 Y5.2481
G01 X74.2080 Y5.2487
G01 X73.7000 Y5.2487
G01 X73.6820 Y5.2476
G01 X73.6668 Y5.2450
G01 X73.6571 Y5.2426
G01 X73.6426 Y5.2377
G01 X73.6286 Y5.2314
G01 X73.6153 Y5.2237
G01 X73.6108 Y5.2207
G01 X73.5986 Y5.2113
G01 X73.5892 Y5.2028
G01 X73.0812 Y4.6948
G01 X73.0692 Y4.6812
G01 X73.0603 Y4.6687
G01 X73.0526 Y4.6554
G01 X73.0463 Y4.6414
G01 X73.0414 Y4.6269
G01 X73.0379 Y4.6119
G01 X73.0359 Y4.5967
G01 X73.0353 Y4.5840
G01 X73.0353 Y4.0760
G01 X73.0364 Y4.0580
G01 X73.0390 Y4.0428
G01 X73.0414 Y4.0331
G01 X73.0463 Y4.0186
G01 X73.0526 Y4.0046
G01 X73.0603 Y3.9913
G01 X73.0633 Y3.9868
G01 X73.0727 Y3.9746
G01 X73.0812 Y3.9652
G01 X73.5892 Y3.4572
G01 X73.6028 Y3.4452
G01 X73.6153 Y3.4363
G01 X73.6286 Y3.4286
G01 X73.6426 Y3.4223
G01 X73.6571 Y3.4174
G01 X73.6721 Y3.4139
G01 X73.6873 Y3.4119
G01 X73.7000 Y3.4113
G01 X74.2080 Y3.4113
G01 X74.2260 Y3.4124
G01 X74.2412 Y3.4150
G01 X74.2560 Y3.4189
G01 X74.2704 Y3.4244
G01 X74.2842 Y3.4312
G01 X74.2972 Y3.4393
G01 X74.3094 Y3.4487
G01 X74.3188 Y3.4572
G01 X74.8268 Y3.9652
G00 Z2.0000
G00 X76.6392 Y5.2046
G01 F60.00
G01 Z-0.0187
G01 F120.00
G01 X75.9860 Y4.5515
G01 X75.3348 Y5.2028
G01 X75.3254 Y5.2113
G01 X75.3132 Y5.2207
G01 X75.3002 Y5.2288
G01 X75.2864 Y5.2356
G01 X75.2720 Y5.2411
G01 X75.2572 Y5.2450
G01 X75.2519 Y5.2461
G01 X75.2367 Y5.2481
G01 X75.2213 Y5.2486
G01 X75.2060 Y5.2476
G01 X75.1908 Y5.2450
G01 X75.1760 Y5.2411
G01 X75.1616 Y5.2356
G01 X75.1526 Y5.2314
G01 X75.1393 Y5.2237
G01 X75.1268 Y5.2148
G01 X75.1152 Y5.2046
G01 X75.1047 Y5.1934
G01 X75.0953 Y5.1812
G01 X75.0872 Y5.1682
G01 X75.0804 Y5.1544
G01 X75.0783 Y5.1494
G01 X75.0734 Y5.1349
G01 X75.0699 Y5.1199
G01 X75.0679 Y5.1047
G01 X75.0673 Y5.0920
G01 X75.0673 Y3.5680
G01 X75.0684 Y3.5500
G01 X75.0710 Y3.5348
G01 X75.0749 Y3.5200
G01 X75.0804 Y3.5056
G01 X75.0872 Y3.4918
G01 X75.0953 Y3.4788
G01 X75.1047 Y3.4666
G01 X75.1114 Y3.4592
G01 X75.1226 Y3.4487
G01 X75.1348 Y3.4393
G01 X75.1393 Y3.4363
G01 X75.1526 Y3.4286
G01 X75.1616 Y3.4244
G01 X75.1760 Y3.4189
G01 X75.1908 Y3.4150
G01 X75.1961 Y3.4139
G01 X75.2113 Y3.4119
G01 X75.2213 Y3.4114
G01 X75.2367 Y3.4119
G01 X75.2519 Y3.4139
G01 X75.2572 Y3.4150
G01 X75.2720 Y3.4189
G01 X75.2864 Y3.4244
G01 X75.2954 Y3.4286
G01 X75.3087 Y3.4363
G01 X75.3132 Y3.4393
G01 X75.3254 Y3.4487
G01 X75.3366 Y3.4592
G01 X75.3433 Y3.4666
G01 X75.3527 Y3.4788
G01 X75.3557 Y3.4833
G01 X75.3634 Y3.4966
G01 X75.3697 Y3.5106
G01 X75.3746 Y3.5251
G01 X75.3770 Y3.5348
G01 X75.3796 Y3.5500
G01 X75.3807 Y3.5680
G01 X75.3807 Y4.7138
G01 X75.8752 Y4.2192
G01 X75.8846 Y4.2107
G01 X75.8968 Y4.2013
G01 X75.9098 Y4.1932
G01 X75.9236 Y4.1864
G01 X75.9286 Y4.1843
G01 X75.9431 Y4.1794
G01 X75.9581 Y4.1759
G01 X75.9733 Y4.1739
G01 X75.9887 Y4.1734
G01 X75.9987 Y4.1739
G01 X76.0139 Y4.1759
G01 X76.0289 Y4.1794
G01 X76.0434 Y4.1843
G01 X76.0484 Y4.1864
G01 X76.0622 Y4.1932
G01 X76.0752 Y4.2013
G01 X76.0874 Y4.2107
G01 X76.0968 Y4.2192
G01 X76.5913 Y4.7138
G01 X76.5913 Y3.5680
G01 X76.5924 Y3.5500
G01 X76.5950 Y3.5348
G01 X76.5974 Y3.5251
G01 X76.6023 Y3.5106
G01 X76.6086 Y3.4966
G01 X76.6163 Y3.4833
G01 X76.6193 Y3.4788
G01 X76.6287 Y3.4666
G01 X76.6354 Y3.4592
G01 X76.6392 Y3.4554
G01 X76.6508 Y3.4452
G01 X76.6633 Y3.4363
G01 X76.6718 Y3.4312
G01 X76.6856 Y3.4244
G01 X76.6906 Y3.4223
G01 X76.7051 Y3.4174
G01 X76.7148 Y3.4150
G01 X76.7300 Y3.4124
G01 X76.7353 Y3.4119
G01 X76.7507 Y3.4114
G01 X76.7607 Y3.4119
G01 X76.7759 Y3.4139
G01 X76.7812 Y3.4150
G01 X76.7960 Y3.4189
G01 X76.8104 Y3.4244
G01 X76.8194 Y3.4286
G01 X76.8327 Y3.4363
G01 X76.8372 Y3.4393
G01 X76.8494 Y3.4487
G01 X76.8606 Y3.4592
G01 X76.8673 Y3.4666
G01 X76.8767 Y3.4788
G01 X76.8848 Y3.4918
G01 X76.8916 Y3.5056
G01 X76.8937 Y3.5106
G01 X76.8986 Y3.5251
G01 X76.9021 Y3.5401
G01 X76.9041 Y3.5553
G01 X76.9047 Y3.5680
G01 X76.9047 Y5.0920
G01 X76.9036 Y5.1100
G01 X76.9010 Y5.1252
G01 X76.8986 Y5.1349
G01 X76.8937 Y5.1494
G01 X76.8916 Y5.1544
G01 X76.8874 Y5.1634
G01 X76.8797 Y5.1767
G01 X76.8767 Y5.1812
G01 X76.8673 Y5.1934
G01 X76.8568 Y5.2046
G01 X76.8494 Y5.2113
G01 X76.8372 Y5.2207
G01 X76.8327 Y5.2237
G01 X76.8194 Y5.2314
G01 X76.8104 Y5.2356
G01 X76.7960 Y5.2411
G01 X76.7812 Y5.2450
G01 X76.7759 Y5.2461
G01 X76.7607 Y5.2481
G01 X76.7507 Y5.2486
G01 X76.7353 Y5.2481
G01 X76.7300 Y5.2476
G01 X76.7148 Y5.2450
G01 X76.7051 Y5.2426
G01 X76.6906 Y5.2377
G01 X76.6856 Y5.2356
G01 X76.6718 Y5.2288
G01 X76.6588 Y5.2207
G01 X76.6508 Y5.2148
G01 X76.6392 Y5.2046
G00 Z2.0000
G00 X78.6233 Y4.2327
G01 F60.00
G01 Z-0.0187
G01 F120.00
G01 X78.6233 Y4.5191
G01 X78.2071 Y4.9353
G01 X77.8289 Y4.9353
G01 X77.4127 Y4.5191
G01 X77.4127 Y4.2327
G01 X78.6233 Y4.2327
G00 Z2.0000
G00 X78.9367 Y4.5840
G01 F60.00
G01 Z-0.0187
G01 F120.00
G01 X78.9361 Y4.5967
G01 X78.9341 Y4.6119
G01 X78.9306 Y4.6269
G01 X78.9257 Y4.6414
G01 X78.9194 Y4.6554
G01 X78.9117 Y4.6687
G01 X78.9028 Y4.6812
G01 X78.8926 Y4.6928
G01 X78.3828 Y5.2028
G01 X78.3734 Y5.2113
G01 X78.3612 Y5.2207
G01 X78.3567 Y5.2237
G01 X78.3434 Y5.2314
G01 X78.3294 Y5.2377
G01 X78.3149 Y5.2426
G01 X78.3052 Y5.2450
G01 X78.2900 Y5.2476
G01 X78.2747 Y5.2486
G01 X77.7640 Y5.2487
G01 X77.7460 Y5.2476
G01 X77.7308 Y5.2450
G01 X77.7211 Y5.2426
G01 X77.7066 Y5.2377
G01 X77.7016 Y5.2356
G01 X77.6926 Y5.2314
G01 X77.6793 Y5.2237
G01 X77.6668 Y5.2148
G01 X77.6532 Y5.2028
G01 X77.1452 Y4.6948
G01 X77.1332 Y4.6812
G01 X77.1243 Y4.6687
G01 X77.1166 Y4.6554
G01 X77.1124 Y4.6464
G01 X77.1069 Y4.6320
G01 X77.1030 Y4.6172
G01 X77.1019 Y4.6119
G01 X77.0999 Y4.5967
G01 X77.0993 Y4.5840
G01 X77.0993 Y3.5680
G01 X77.1004 Y3.5500
G01 X77.1030 Y3.5348
G01 X77.1054 Y3.5251
G01 X77.1103 Y3.5106
G01 X77.1124 Y3.5056
G01 X77.1166 Y3.4966
G01 X77.1243 Y3.4833
G01 X77.1273 Y3.4788
G01 X77.1367 Y3.4666
G01 X77.1472 Y3.4554
G01 X77.1546 Y3.4487
G01 X77.1668 Y3.4393
G01 X77.1798 Y3.4312
G01 X77.1936 Y3.4244
G01 X77.1986 Y3.4223
G01 X77.2131 Y3.4174
G01 X77.2281 Y3.4139
G01 X77.2433 Y3.4119
G01 X77.2533 Y3.4114
G01 X77.2687 Y3.4119
G01 X77.2740 Y3.4124
G01 X77.2892 Y3.4150
G01 X77.2989 Y3.4174
G01 X77.3134 Y3.4223
G01 X77.3274 Y3.4286
G01 X77.3407 Y3.4363
G01 X77.3452 Y3.4393
G01 X77.3574 Y3.4487
G01 X77.3648 Y3.4554
G01 X77.3753 Y3.4666
G01 X77.3847 Y3.4788
G01 X77.3877 Y3.4833
G01 X77.3954 Y3.4966
G01 X77.3996 Y3.5056
G01 X77.4051 Y3.5200
G01 X77.4090 Y3.5348
G01 X77.4101 Y3.5401
G01 X77.4121 Y3.5553
G01 X77.4127 Y3.5680
G01 X77.4127 Y3.9193
G01 X78.6233 Y3.9193
G01 X78.6234 Y3.5653
G01 X78.6244 Y3.5500
G01 X78.6270 Y3.5348
G01 X78.6294 Y3.5251
G01 X78.6343 Y3.5106
G01 X78.6406 Y3.4966
G01 X78.6483 Y3.4833
G01 X78.6513 Y3.4788
G01 X78.6607 Y3.4666
G01 X78.6712 Y3.4554
G01 X78.6828 Y3.4452
G01 X78.6953 Y3.4363
G01 X78.7086 Y3.4286
G01 X78.7226 Y3.4223
G01 X78.7371 Y3.4174
G01 X78.7521 Y3.4139
G01 X78.7673 Y3.4119
G01 X78.7773 Y3.4114
G01 X78.7927 Y3.4119
G01 X78.8079 Y3.4139
G01 X78.8229 Y3.4174
G01 X78.8374 Y3.4223
G01 X78.8514 Y3.4286
G01 X78.8647 Y3.4363
G01 X78.8692 Y3.4393
G01 X78.8814 Y3.4487
G01 X78.8926 Y3.4592
G01 X78.8993 Y3.4666
G01 X78.9087 Y3.4788
G01 X78.9168 Y3.4918
G01 X78.9236 Y3.5056
G01 X78.9291 Y3.5200
G01 X78.9330 Y3.5348
G01 X78.9341 Y3.5401
G01 X78.9361 Y3.5553
G01 X78.9367 Y3.5680
G01 X78.9367 Y4.5840
G00 Z2.0000
